%
O00001100
(T1  D=3.175 CR=1.587 - ZMIN=-11.021 - BALL END MILL)
G90 G94 G17
G21
G91
G28 Z0.
G90
(POCKET1)
T1 M6
S7000 M3
G54
G0 X101.088 Y31.458
G43 Z15. H1
G0 Z2.588
G1 Z1.98 F333.3
S70000
X101.068 Y31.459 Z1.871 F460.
X101.014 Y31.455 Z1.775
X100.972 Y31.446 Z1.74
X100.932 Y31.434 Z1.705
X100.885 Y31.412 Z1.686
X100.841 Y31.385 Z1.667
G3 X101.301 Y30.739 Z1.447 I0.23 J-0.323
X100.841 Y31.385 Z1.227 I-0.23 J0.323
X101.301 Y30.739 Z1.007 I0.23 J-0.323
X100.841 Y31.385 Z0.787 I-0.23 J0.323
X101.301 Y30.739 Z0.568 I0.23 J-0.323
X100.841 Y31.385 Z0.348 I-0.23 J0.323
X101.301 Y30.739 Z0.128 I0.23 J-0.323
X100.841 Y31.385 Z-0.092 I-0.23 J0.323
X101.301 Y30.739 Z-0.312 I0.23 J-0.323
X100.841 Y31.385 Z-0.532 I-0.23 J0.323
X101.301 Y30.739 Z-0.751 I0.23 J-0.323
X100.841 Y31.385 Z-0.971 I-0.23 J0.323
X101.301 Y30.739 Z-1.191 I0.23 J-0.323
X100.841 Y31.385 Z-1.411 I-0.23 J0.323
X101.071 Y30.665 Z-1.587 I0.23 J-0.323
S7000
G1 X101.104
G3 X101.477 Y31.039 J0.373
G1 Y88.962
G3 X101.104 Y89.335 I-0.373
G1 X101.038
G3 X100.665 Y88.962 J-0.373
G1 Y31.039
G3 X101.038 Y30.665 I0.373
G1 X101.071
G2 X101.58 Y30.213 J-0.512
G3 X102.245 Y30.07 I0.357 J0.042
X102.318 Y30.331 I-0.434 J0.262
G1 Y89.669
G3 X101.811 Y90.176 I-0.507
G1 X100.331
G3 X99.824 Y89.669 J-0.507
G1 Y30.331
G3 X100.331 Y29.824 I0.507
G1 X101.811
G3 X102.245 Y30.07 J0.507
G2 X102.979 Y30.712 I1.372 J-0.828
G3 X103.514 Y31.527 I-0.354 J0.815
G1 Y90.865
G3 X103.007 Y91.372 I-0.507
G1 X99.135
G3 X98.628 Y90.865 J-0.507
G1 Y29.135
G3 X99.135 Y28.628 I0.507
G1 X103.007
G3 X103.514 Y29.135 J0.507
G1 Y31.527
G2 X104.112 Y32.424 I0.972
G3 X104.71 Y33.322 I-0.374 J0.897
G1 Y92.061
G3 X104.203 Y92.568 I-0.507
G1 X97.939
G3 X97.432 Y92.061 J-0.507
G1 Y27.939
G3 X97.939 Y27.432 I0.507
G1 X104.203
G3 X104.71 Y27.939 J0.507
G1 Y33.322
G2 X105.308 Y34.219 I0.972
G3 X105.906 Y35.116 I-0.374 J0.897
G1 Y93.257
G3 X105.399 Y93.764 I-0.507
G1 X96.743
G3 X96.236 Y93.257 J-0.507
G1 Y26.743
G3 X96.743 Y26.236 I0.507
G1 X105.399
G3 X105.906 Y26.743 J0.507
G1 Y35.116
G2 X106.505 Y36.013 I0.972
G3 X107.103 Y36.91 I-0.374 J0.897
G1 Y94.454
G3 X106.596 Y94.961 I-0.507
G1 X95.546
G3 X95.039 Y94.454 J-0.507
G1 Y25.546
G3 X95.546 Y25.039 I0.507
G1 X106.596
G3 X107.103 Y25.546 J0.507
G1 Y36.91
G2 X107.701 Y37.808 I0.972
G3 X108.299 Y38.705 I-0.374 J0.897
G1 Y95.65
G3 X107.792 Y96.157 I-0.507
G1 X94.35
G3 X93.843 Y95.65 J-0.507
G1 Y24.35
G3 X94.35 Y23.843 I0.507
G1 X107.792
G3 X108.299 Y24.35 J0.507
G1 Y38.705
G2 X108.897 Y39.602 I0.972
G3 X109.495 Y40.499 I-0.374 J0.897
G1 Y96.846
G3 X108.988 Y97.353 I-0.507
G1 X93.154
G3 X92.647 Y96.846 J-0.507
G1 Y23.154
G3 X93.154 Y22.647 I0.507
G1 X108.988
G3 X109.495 Y23.154 J0.507
G1 Y40.499
G2 X110.093 Y41.396 I0.972
G3 X110.692 Y42.294 I-0.374 J0.897
G1 Y98.042
G3 X110.185 Y98.549 I-0.507
G1 X91.958
G3 X91.451 Y98.042 J-0.507
G1 Y21.958
G3 X91.958 Y21.451 I0.507
G1 X110.185
G3 X110.692 Y21.958 J0.507
G1 Y42.294
G2 X111.29 Y43.191 I0.972
G3 X111.888 Y44.088 I-0.374 J0.897
G1 Y99.239
G3 X111.381 Y99.746 I-0.507
G1 X90.761
G3 X90.254 Y99.239 J-0.507
G1 Y20.761
G3 X90.761 Y20.254 I0.507
G1 X111.381
G3 X111.888 Y20.761 J0.507
G1 Y44.088
G2 X112.486 Y44.985 I0.972
G3 X113.084 Y45.882 I-0.374 J0.897
G1 Y100.435
G3 X112.577 Y100.942 I-0.507
G1 X89.565
G3 X89.058 Y100.435 J-0.507
G1 Y19.565
G3 X89.565 Y19.058 I0.507
G1 X112.577
G3 X113.084 Y19.565 J0.507
G1 Y45.882
G2 X113.682 Y46.78 I0.972
G3 X114.28 Y47.677 I-0.374 J0.897
G1 Y101.631
G3 X113.773 Y102.138 I-0.507
G1 X88.369
G3 X87.862 Y101.631 J-0.507
G1 Y18.369
G3 X88.369 Y17.862 I0.507
G1 X113.773
G3 X114.28 Y18.369 J0.507
G1 Y47.677
G2 X114.878 Y48.574 I0.972
G3 X115.477 Y49.471 I-0.374 J0.897
G1 Y102.827
G3 X114.97 Y103.334 I-0.507
G1 X87.173
G3 X86.666 Y102.827 J-0.507
G1 Y17.173
G3 X87.173 Y16.666 I0.507
G1 X114.97
G3 X115.477 Y17.173 J0.507
G1 Y49.471
G2 X116.075 Y50.368 I0.972
G3 X116.673 Y51.266 I-0.374 J0.897
G1 Y104.024
G3 X116.166 Y104.531 I-0.507
G1 X85.976
G3 X85.469 Y104.024 J-0.507
G1 Y15.976
G3 X85.976 Y15.469 I0.507
G1 X116.166
G3 X116.673 Y15.976 J0.507
G1 Y51.266
G2 X117.271 Y52.163 I0.972
G3 X117.869 Y53.06 I-0.374 J0.897
G1 Y105.22
G3 X117.362 Y105.727 I-0.507
G1 X84.78
G3 X84.273 Y105.22 J-0.507
G1 Y14.78
G3 X84.78 Y14.273 I0.507
G1 X117.362
G3 X117.869 Y14.78 J0.507
G1 Y53.06
G2 X118.467 Y53.957 I0.972
G3 X119.065 Y54.854 I-0.374 J0.897
G1 Y106.416
G3 X118.558 Y106.923 I-0.507
G1 X83.584
G3 X83.077 Y106.416 J-0.507
G1 Y13.584
G3 X83.584 Y13.077 I0.507
G1 X118.558
G3 X119.065 Y13.584 J0.507
G1 Y54.854
G2 X119.664 Y55.752 I0.972
G3 X120.262 Y56.649 I-0.374 J0.897
G1 Y107.613
G3 X119.755 Y108.12 I-0.507
G1 X82.387
G3 X81.88 Y107.613 J-0.507
G1 Y12.387
G3 X82.387 Y11.88 I0.507
G1 X119.755
G3 X120.262 Y12.387 J0.507
G1 Y56.649
G2 X120.86 Y57.546 I0.972
G3 X121.458 Y58.443 I-0.374 J0.897
G1 Y108.809
G3 X120.951 Y109.316 I-0.507
G1 X81.191
G3 X80.684 Y108.809 J-0.507
G1 Y11.191
G3 X81.191 Y10.684 I0.507
G1 X120.951
G3 X121.458 Y11.191 J0.507
G1 Y58.443
G2 X122.056 Y59.34 I0.972
G3 X122.654 Y60.238 I-0.374 J0.897
G1 Y110.005
G3 X122.147 Y110.512 I-0.507
G1 X79.995
G3 X79.488 Y110.005 J-0.507
G1 Y9.995
G3 X79.995 Y9.488 I0.507
G1 X122.147
G3 X122.654 Y9.995 J0.507
G1 Y60.238
G2 X123.252 Y61.135 I0.972
G3 X123.85 Y62.032 I-0.374 J0.897
G1 Y111.201
G3 X123.343 Y111.708 I-0.507
G1 X78.799
G3 X78.292 Y111.201 J-0.507
G1 Y8.799
G3 X78.799 Y8.292 I0.507
G1 X123.343
G3 X123.85 Y8.799 J0.507
G1 Y62.032
G2 X124.453 Y62.935 I0.978
G3 X125.055 Y63.838 I-0.376 J0.903
G1 Y112.858
X125. Y112.913
X77.155
X77.087 Y112.858
Y7.142
X77.155 Y7.087
X125.
X125.055 Y7.142
Y63.838
S70000
G3 X124.633 Y64.234 Z-1.69 I-0.397
G1 X115.892 Y63.693 Z-3.079
G3 X115.52 Y63.291 Z-3.175 I0.025 J-0.396
S7000
X115.54 Y62.961 I3.488 J0.047
G2 X115.634 Y60.472 I-17.457 J-1.9
G3 X115.592 Y57.982 I74.239 J-2.49
G2 X115.545 Y57.341 I-4.416
G3 X115.502 Y56.7 I4.031 J-0.591
X115.554 Y53.932 I212.228 J2.597
G2 X115.588 Y51.164 I-106.63 J-2.696
X115.577 Y49.92 I-77.055 J0.052
G3 X115.587 Y48.676 I25.288 J-0.425
G2 X115.571 Y46.001 I-34.845 J-1.128
G3 X115.508 Y43.327 I63.791 J-2.833
X115.561 Y40.727 I57.359 J-0.143
G2 X115.59 Y38.127 I-41.251 J-1.769
G1 X115.506 Y23.353
G3 X115.541 Y20.609 I256.519 J1.871
G2 X115.576 Y17.866 I-108.504 J-2.744
X115.516 Y16.972 I-6.763
G3 X115.482 Y16.077 I4.72 J-0.629
X115.855 Y15.724 I0.373 J0.021
G1 X116.044
G3 X116.418 Y16.098 J0.373
G1 Y103.902
G3 X116.044 Y104.276 I-0.373
G1 X115.854
G3 X115.481 Y103.923 J-0.373
X115.516 Y103.026 I4.751 J-0.266
G2 X115.575 Y102.131 I-6.675 J-0.893
X115.541 Y99.389 I-112.09 J0.038
G3 X115.507 Y96.647 I255.965 J-4.589
G1 X115.591 Y81.278
G2 X115.588 Y78.468 I-127.756 J-1.243
G3 X115.584 Y75.658 I80.101 J-1.506
G2 X115.608 Y73.232 I-181.307 J-2.95
X115.57 Y70.807 I-66.097 J-0.191
G3 X115.554 Y67.674 I54.411 J-1.84
G2 X115.591 Y64.541 I-131.917 J-3.133
X115.544 Y63.752 I-6.662
G3 X115.52 Y63.291 I3.464 J-0.414
G2 X114.947 Y62.329 I-1.07 J-0.014
G3 X114.392 Y61.357 I0.483 J-0.921
G2 X114.248 Y56.885 I-27.366 J-1.354
G3 X114.253 Y56.483 I1.589 J-0.181
G2 X114.467 Y53.338 I-22.278 J-3.098
X114.256 Y50.193 I-24.353 J0.051
G3 X114.254 Y49.791 I1.586 J-0.21
G2 X114.45 Y46.661 I-27.029 J-3.265
X114.257 Y43.531 I-23.535 J-0.116
G3 X114.256 Y43.129 I1.586 J-0.205
G2 Y36.869 I-25.245 J-3.132
G3 Y36.467 I1.587 J-0.2
G2 X114.25 Y30.168 I-24.527 J-3.124
G3 X114.252 Y29.744 I1.586 J-0.203
G2 X114.452 Y26.644 I-20.701 J-2.891
X114.253 Y23.545 I-28.596 J0.285
G3 X114.255 Y23.143 I1.588 J-0.189
G2 X114.254 Y16.853 I-23.429 J-3.14
G3 X114.25 Y16.451 I1.585 J-0.218
G2 X114.307 Y15.744 I-10.278 J-1.191
X114.324 Y15.035 I-15.155 J-0.709
G3 X114.831 Y14.528 I0.507
G1 X117.107
G3 X117.614 Y15.035 J0.507
G1 Y104.965
G3 X117.107 Y105.472 I-0.507
G1 X114.831
G3 X114.324 Y104.965 J-0.507
G2 X114.307 Y104.256 I-14.655 J-0.002
X114.249 Y103.55 I-10.576 J0.51
G3 X114.254 Y103.148 I1.589 J-0.184
G2 X114.256 Y96.857 I-22.925 J-3.153
G3 X114.253 Y96.456 I1.585 J-0.212
G2 X114.449 Y93.326 I-27.832 J-3.32
X114.256 Y90.195 I-22.963 J-0.155
G3 X114.255 Y89.793 I1.586 J-0.207
G2 X114.45 Y86.663 I-26.157 J-3.205
X114.256 Y83.533 I-24.231 J-0.069
G3 Y83.131 I1.587 J-0.202
G2 X114.255 Y76.871 I-24.854 J-3.128
G3 X114.256 Y76.47 I1.587 J-0.197
G2 X114.45 Y73.339 I-23.32 J-3.012
X114.254 Y70.209 I-27.259 J0.137
G3 X114.256 Y69.808 I1.588 J-0.192
G2 X114.467 Y66.663 I-24.146 J-3.199
X114.253 Y63.518 I-22.502 J-0.05
G3 X114.248 Y63.116 I1.584 J-0.22
G2 X114.392 Y61.357 I-27.222 J-3.113
X113.824 Y60.42 I-0.977 J-0.048
G3 X113.224 Y59.503 I0.431 J-0.937
G2 X113.06 Y57.025 I-26.33 J0.5
G3 X113.068 Y56.314 I2.831 J-0.321
G2 X113.27 Y53.334 I-21.175 J-2.928
X113.071 Y50.354 I-23.259 J0.056
G3 X113.067 Y49.643 I2.825 J-0.372
G2 X113.253 Y46.666 I-25.983 J-3.119
X113.071 Y43.689 I-22.433 J-0.121
G3 X113.069 Y42.977 I2.826 J-0.363
G2 X113.07 Y37.023 I-24.169 J-2.98
G3 Y36.311 I2.828 J-0.354
G2 X113.064 Y30.325 I-23.443 J-2.968
G3 X113.068 Y29.573 I2.827 J-0.359
G2 X113.255 Y26.632 I-19.609 J-2.723
X113.065 Y23.691 I-27.597 J0.305
G3 X113.07 Y22.98 I2.83 J-0.335
G2 Y17.02 I-22.336 J-2.976
G3 X113.062 Y16.309 I2.823 J-0.386
G2 X113.128 Y15.167 I-9.927 J-1.142
G1 Y13.839
G3 X113.635 Y13.332 I0.507
G1 X118.303
G3 X118.81 Y13.839 J0.507
G1 Y106.161
G3 X118.303 Y106.668 I-0.507
G1 X113.635
G3 X113.128 Y106.161 J-0.507
G1 Y104.853
G2 X113.062 Y103.692 I-10.159 J-0.001
G3 X113.069 Y102.98 I2.831 J-0.325
G2 X113.071 Y97.021 I-21.827 J-2.985
G3 X113.066 Y96.309 I2.825 J-0.376
G2 X113.252 Y93.332 I-26.806 J-3.177
X113.071 Y90.355 I-21.859 J-0.162
G3 X113.068 Y89.643 I2.826 J-0.367
G2 X113.253 Y86.666 I-25.095 J-3.056
X113.07 Y83.689 I-23.133 J-0.072
G3 Y82.977 I2.827 J-0.358
G2 X113.069 Y77.023 I-23.774 J-2.973
G3 X113.071 Y76.312 I2.828 J-0.349
G2 X113.253 Y73.334 I-22.228 J-2.854
X113.067 Y70.357 I-26.204 J0.144
G3 X113.071 Y69.646 I2.829 J-0.339
G2 X113.27 Y66.666 I-23.063 J-3.038
X113.069 Y63.687 I-21.386 J-0.053
G3 X113.06 Y62.976 I2.823 J-0.39
G2 X113.224 Y59.503 I-26.167 J-2.973
X112.594 Y58.61 I-0.975 J0.018
G3 X111.932 Y57.74 I0.365 J-0.965
G2 X111.869 Y57.143 I-24.44 J2.262
G3 X111.881 Y56.167 I3.776 J-0.442
G2 X112.077 Y53.33 I-19.628 J-2.784
X111.883 Y50.493 I-21.614 J0.058
G3 X111.877 Y49.518 I3.768 J-0.509
G2 X112.061 Y46.671 I-24.198 J-2.989
X111.882 Y43.823 I-20.845 J-0.122
G3 X111.88 Y42.848 I3.769 J-0.497
G2 X111.881 Y37.154 I-22.479 J-2.851
G3 Y36.178 I3.771 J-0.485
G2 X111.875 Y30.457 I-21.792 J-2.836
G3 X111.881 Y29.427 I3.77 J-0.493
G2 X112.063 Y26.621 I-18.129 J-2.585
X111.875 Y23.814 I-25.756 J0.312
G3 X111.882 Y22.839 I3.774 J-0.46
G2 Y17.165 I-20.73 J-2.835
G3 X111.872 Y16.19 I3.765 J-0.528
G2 X111.954 Y14.417 I-12.299 J-1.459
G3 X111.931 Y12.643 I69.955 J-1.774
X112.438 Y12.136 I0.507
G1 X119.499
G3 X120.006 Y12.643 J0.507
G1 Y107.357
G3 X119.499 Y107.864 I-0.507
G1 X112.438
G3 X111.931 Y107.357 J-0.507
X111.954 Y105.583 I71.721 J0.01
G2 X111.871 Y103.811 I-12.432 J-0.309
G3 X111.882 Y102.836 I3.776 J-0.447
G2 X111.883 Y97.161 I-20.247 J-2.841
G3 X111.876 Y96.186 I3.767 J-0.515
G2 X112.06 Y93.339 I-24.978 J-3.048
X111.882 Y90.492 I-20.304 J-0.162
G3 X111.878 Y89.516 I3.769 J-0.503
G2 X112.061 Y86.669 I-23.355 J-2.926
X111.881 Y83.822 I-21.506 J-0.072
G3 Y82.846 I3.77 J-0.491
G2 X111.879 Y77.152 I-22.106 J-2.843
G3 X111.882 Y76.177 I3.772 J-0.478
G2 X112.06 Y73.329 I-20.645 J-2.723
X111.877 Y70.483 I-24.415 J0.145
G3 X111.882 Y69.507 I3.773 J-0.466
G2 X112.077 Y66.67 I-21.422 J-2.897
X111.881 Y63.833 I-19.834 J-0.055
G3 X111.87 Y62.858 I3.764 J-0.533
G2 X111.932 Y57.74 I-24.378 J-2.855
X111.256 Y56.949 I-0.899 J0.083
G3 X110.685 Y56.078 I0.19 J-0.747
G1 Y56.077
G2 X110.817 Y53.623 I-11.319 J-1.84
G3 X110.75 Y51.167 I46.409 J-2.488
G2 X110.73 Y50.87 I-2.139 J0.001
X110.686 Y50.576 I-19.786 J2.783
G3 X110.679 Y49.448 I3.757 J-0.585
G2 X110.835 Y46.933 I-15.327 J-2.209
X110.747 Y44.415 I-82.382 J1.626
X110.722 Y44.158 I-2.927 J0.147
X110.685 Y43.903 I-19.744 J2.751
G3 X110.682 Y42.775 I3.759 J-0.573
G2 X110.683 Y37.229 I-18.83 J-2.777
G3 X110.684 Y36.101 I3.76 J-0.561
G2 X110.876 Y33.455 I-16.946 J-2.555
X110.72 Y30.806 I-24.866 J0.133
G1 X110.7 Y30.669
X110.677 Y30.532
G3 X110.676 Y29.395 I3.759 J-0.572
G2 X110.878 Y26.638 I-17.957 J-2.697
X110.678 Y23.882 I-19.991 J0.065
G3 X110.686 Y22.754 I3.764 J-0.537
G2 X110.815 Y20.311 I-11.724 J-1.846
G3 X110.754 Y17.866 I48.576 J-2.445
G2 X110.732 Y17.559 I-2.174
X110.686 Y17.254 I-17.247 J2.462
G3 X110.674 Y16.126 I3.754 J-0.604
G2 X110.804 Y13.779 I-14.084 J-1.96
X110.733 Y11.429 I-377.374 J10.274
G3 X111.207 Y10.94 I0.474 J-0.016
G1 X120.696
G3 X121.203 Y11.446 J0.507
G1 Y108.554
G3 X120.696 Y109.06 I-0.507
G1 X111.207
G3 X110.733 Y108.571 J-0.474
G2 X110.804 Y106.221 I-361.012 J-12.083
X110.673 Y103.874 I-14.248 J-0.384
G3 X110.685 Y102.747 I3.766 J-0.524
G2 X110.817 Y100.297 I-11.433 J-1.841
G3 X110.752 Y97.844 I46.862 J-2.469
G2 X110.73 Y97.544 I-2.151 J0.001
X110.686 Y97.246 I-18.851 J2.662
G3 X110.678 Y96.118 I3.756 J-0.591
G2 X110.733 Y95.72 I-55.891 J-7.972
X110.76 Y95.318 I-2.943 J-0.398
G3 X110.813 Y92.944 I50.899 J-0.057
G2 X110.686 Y90.573 I-11.975 J-0.546
G3 X110.681 Y89.445 I3.758 J-0.579
G2 X110.826 Y87.023 I-14.108 J-2.059
X110.755 Y84.599 I-335.974 J8.546
X110.73 Y84.248 I-4.464 J0.146
X110.684 Y83.899 I-9.169 J1.026
G3 X110.683 Y82.771 I3.76 J-0.567
G2 X110.861 Y80.096 I-16.21 J-2.419
X110.712 Y77.419 I-33.517 J0.524
G1 X110.698 Y77.322
X110.682 Y77.225
G3 X110.685 Y76.097 I3.761 J-0.555
G2 X110.831 Y73.788 I-12.963 J-1.978
X110.762 Y71.475 I-272.23 J6.892
X110.679 Y70.552 I-8.265 J0.28
G3 X110.686 Y69.424 I3.763 J-0.542
G2 X110.815 Y66.984 I-11.861 J-1.849
G3 X110.754 Y64.541 I49.587 J-2.443
G2 X110.732 Y64.231 I-2.183
X110.685 Y63.924 I-16.709 J2.398
G3 X110.672 Y62.796 I3.753 J-0.609
G2 X110.671 Y57.205 I-20.29 J-2.794
G3 X110.685 Y56.078 I3.767 J-0.518
G2 X110.174 Y55.09 I-0.923 J-0.15
G3 X109.598 Y54.137 I0.453 J-0.924
X109.638 Y53.125 I45.889 J1.289
G2 X109.533 Y50.795 I-12.246 J-0.615
G3 X109.524 Y49.243 I5.721 J-0.808
G2 X109.697 Y46.684 I-20.72 J-2.687
X109.532 Y44.124 I-18.235 J-0.111
G3 X109.528 Y42.559 I5.878 J-0.797
G2 X109.53 Y37.446 I-19.637 J-2.562
G3 X109.531 Y35.883 I5.868 J-0.777
G2 X109.695 Y33.411 I-18.354 J-2.459
X109.555 Y30.937 I-22.251 J0.015
G1 X109.535 Y30.798
X109.506 Y30.639
G3 X109.492 Y29.381 I3.742 J-0.671
G2 X109.692 Y26.738 I-16.5 J-2.579
X109.523 Y24.093 I-22.004 J0.084
G3 X109.534 Y22.526 I5.924 J-0.741
G2 X109.536 Y17.498 I-18.038 J-2.522
G3 X109.52 Y15.906 I6.224 J-0.862
G2 X109.645 Y13.399 I-18.765 J-2.194
X109.549 Y10.891 I-57.465 J0.951
X109.495 Y10.547 I-1.822 J0.11
X109.397 Y10.213 I-4.971 J1.276
G3 X109.719 Y9.767 I0.322 J-0.107
G1 X121.868
G3 X122.375 Y10.274 J0.507
G1 Y109.726
G3 X121.868 Y110.233 I-0.507
G1 X109.72
G3 X109.397 Y109.786 J-0.34
G2 X109.687 Y107.356 I-5.854 J-1.932
G3 X109.588 Y104.91 I30.09 J-2.441
G2 X109.563 Y104.467 I-3.82 J-0.001
G1 X109.519 Y104.095
G3 X109.536 Y102.502 I6.254 J-0.729
G2 X109.534 Y97.472 I-18.104 J-2.507
G3 X109.523 Y95.91 I5.848 J-0.823
G2 X109.695 Y93.353 I-21.915 J-2.763
X109.533 Y90.796 I-17.627 J-0.165
G3 X109.527 Y89.231 I5.882 J-0.806
G2 X109.696 Y86.674 I-20.494 J-2.641
X109.531 Y84.118 I-18.693 J-0.076
G3 X109.53 Y82.554 I5.873 J-0.786
G2 X109.528 Y77.441 I-19.271 J-2.551
G3 X109.532 Y75.876 I5.888 J-0.768
G2 X109.696 Y73.318 I-17.996 J-2.438
X109.524 Y70.76 I-21.195 J0.14
G3 X109.533 Y69.202 I5.808 J-0.745
G2 X109.638 Y66.873 I-12.26 J-1.718
G3 X109.58 Y64.541 I47.104 J-2.331
G2 X109.554 Y64.257 I-1.582
G3 X109.504 Y63.977 I32.151 J-5.868
X109.499 Y62.707 I3.746 J-0.65
G2 X109.702 Y60.195 I-15.008 J-2.478
X109.558 Y57.68 I-22.88 J0.051
G1 X109.535 Y57.518
X109.499 Y57.294
G3 X109.503 Y56.036 I3.752 J-0.617
X109.554 Y55.748 I21.983 J3.758
G2 X109.58 Y55.457 I-1.574 J-0.29
G3 X109.598 Y54.137 I45.907 J-0.031
G2 X109.05 Y53.286 I-0.895 J-0.025
G3 X108.489 Y52.443 I0.354 J-0.844
G1 X108.488 Y51.168
G2 X108.45 Y50.871 I-1.195 J0.001
X108.369 Y50.583 I-6.927 J1.783
G3 X108.38 Y49.386 I1.924 J-0.582
G2 X108.48 Y48.895 I-2.189 J-0.704
X108.504 Y48.394 I-5.372 J-0.501
G3 X108.517 Y46.398 I153.156 J0.009
G2 X108.48 Y44.403 I-31.48 J-0.412
G1 X108.467 Y44.284
X108.44 Y44.167
X108.369 Y43.923
G3 X108.386 Y42.696 I2.025 J-0.587
G2 X108.462 Y42.395 I-2.496 J-0.796
X108.492 Y42.087 I-1.602 J-0.309
G1 Y39.233
G2 X108.477 Y37.765 I-72.328 J-0.011
G1 X108.469 Y37.646
X108.447 Y37.528
X108.417 Y37.412
X108.382 Y37.297
G3 X108.367 Y36.087 I1.927 J-0.63
G2 X108.462 Y35.685 I-3.438 J-1.028
X108.498 Y35.275 I-2.318 J-0.411
G3 X108.539 Y33.103 I57.796 J0.004
G2 X108.458 Y30.933 I-14.508 J-0.546
G1 X108.446 Y30.855
X108.428 Y30.779
X108.383 Y30.629
G3 X108.37 Y29.416 I1.97 J-0.628
G2 X108.457 Y29.07 I-4.425 J-1.303
X108.494 Y28.715 I-1.675 J-0.355
G3 X108.52 Y26.509 I97.607 J0.009
G2 X108.46 Y24.303 I-22.252 J-0.505
G1 X108.449 Y24.21
X108.429 Y24.119
X108.377 Y23.939
G3 X108.371 Y22.75 I1.883 J-0.605
G2 X108.452 Y22.457 I-5.058 J-1.563
X108.489 Y22.156 I-1.223 J-0.302
G3 X108.569 Y19.796 I35.219 J0.015
G2 X108.425 Y17.439 I-9.184 J-0.621
G1 X108.404 Y17.355
X108.374 Y17.261
G3 Y16.074 I1.876 J-0.593
G2 X108.476 Y15.587 I-2.403 J-0.76
X108.503 Y15.09 I-4.56 J-0.497
G3 X108.532 Y13.022 I73.241
G2 X108.499 Y10.954 I-23.38 J-0.66
X108.265 Y10.011 I-2.656 J0.16
G3 X107.897 Y9.111 I11.143 J-5.078
X108.202 Y8.677 I0.305 J-0.111
G1 X122.958
G3 X123.465 Y9.184 J0.507
G1 Y110.816
G3 X122.958 Y111.323 I-0.507
G1 X108.202
G3 X107.897 Y110.889 J-0.324
G2 X108.121 Y110.229 I-15.648 J-5.679
G3 X108.36 Y109.574 I7.527 J2.38
G2 X108.508 Y109.017 I-1.971 J-0.821
X108.544 Y108.442 I-4.627 J-0.576
X108.527 Y106.382 I-123.214 J-0.018
X108.458 Y104.324 I-60.394 J1.001
G1 X108.448 Y104.224
X108.429 Y104.126
X108.375 Y103.932
G3 X108.376 Y102.734 I1.921 J-0.598
G2 X108.456 Y102.438 I-3.823 J-1.194
X108.491 Y102.134 I-1.322 J-0.304
G1 X108.489 Y97.845
G2 X108.452 Y97.544 I-1.24
X108.371 Y97.253 I-5.563 J1.392
G3 X108.378 Y96.059 I1.905 J-0.585
G2 X108.466 Y95.694 I-2.405 J-0.771
X108.496 Y95.32 I-2.282 J-0.372
G1 X108.486 Y91.157
G2 X108.448 Y90.868 I-1.133 J0.001
X108.37 Y90.587 I-11.269 J2.991
G3 X108.384 Y89.37 I2. J-0.585
G2 X108.461 Y89.071 I-2.648 J-0.843
X108.492 Y88.762 I-1.548 J-0.308
G3 X108.503 Y86.592 I208.942 J0.022
G2 X108.479 Y84.421 I-50.317 J-0.528
G1 X108.468 Y84.297
X108.442 Y84.176
X108.373 Y83.938
G3 X108.377 Y82.721 I1.949 J-0.604
G2 X108.507 Y81.963 I-2.723 J-0.859
X108.521 Y81.193 I-21.797 J-0.769
G3 X108.604 Y79.243 I22.957
G2 X108.385 Y77.303 I-4.963 J-0.423
G3 X108.368 Y76.085 I1.993 J-0.637
G2 X108.594 Y73.85 I-5.991 J-1.734
G3 X108.504 Y71.606 I27.835 J-2.24
G2 X108.48 Y71.105 I-5.299 J-0.001
X108.379 Y70.613 I-2.3 J0.218
G3 X108.369 Y69.42 I1.895 J-0.612
G2 X108.45 Y69.13 I-6.115 J-1.864
X108.488 Y68.832 I-1.179 J-0.3
G3 X108.562 Y66.486 I38.062 J0.029
G2 X108.433 Y64.142 I-10.022 J-0.627
G1 X108.407 Y64.032
X108.377 Y63.938
G3 X108.374 Y62.74 I1.918 J-0.604
G2 X108.462 Y62.384 I-2.992 J-0.925
X108.495 Y62.019 I-1.979 J-0.366
G3 X108.532 Y59.784 I67.938 J0.006
G2 X108.443 Y57.55 I-15.379 J-0.508
G1 X108.432 Y57.477
X108.415 Y57.404
X108.374 Y57.262
G3 X108.378 Y56.061 I1.933 J-0.594
G2 X108.457 Y55.764 I-3.449 J-1.084
X108.491 Y55.457 I-1.37 J-0.305
G1 X108.489 Y52.443
X108.492 Y52.394 Z-3.167
X108.504 Y52.346 Z-3.159
X108.52 Y52.305 Z-3.137
X108.542 Y52.267 Z-3.114
X108.587 Y52.213 Z-3.044
X108.622 Y52.184 Z-2.956
X108.634 Y52.175 Z-2.858
G0 Z5.
X86.573 Y50.008
Z0.605
S70000
G1 X86.572 Y50.027 Z0.496 F460.
X86.562 Y50.082 Z0.401
X86.549 Y50.122 Z0.365
X86.533 Y50.161 Z0.33
X86.506 Y50.205 Z0.311
X86.475 Y50.246 Z0.292
G3 X85.879 Y49.722 Z0.072 I-0.298 J-0.262
X86.475 Y50.246 Z-0.148 I0.298 J0.262
X85.879 Y49.722 Z-0.367 I-0.298 J-0.262
X86.475 Y50.246 Z-0.587 I0.298 J0.262
X85.879 Y49.722 Z-0.807 I-0.298 J-0.262
X86.475 Y50.246 Z-1.027 I0.298 J0.262
X85.879 Y49.722 Z-1.247 I-0.298 J-0.262
X86.475 Y50.246 Z-1.467 I0.298 J0.262
X85.879 Y49.722 Z-1.687 I-0.298 J-0.262
X86.475 Y50.246 Z-1.906 I0.298 J0.262
X85.879 Y49.722 Z-2.126 I-0.298 J-0.262
X86.475 Y50.246 Z-2.346 I0.298 J0.262
X85.879 Y49.722 Z-2.566 I-0.298 J-0.262
X86.475 Y50.246 Z-2.786 I0.298 J0.262
X85.879 Y49.722 Z-3.006 I-0.298 J-0.262
X86.574 Y49.984 Z-3.175 I0.298 J0.262
S7000
G1 X86.555 Y95.681
X86.564 Y102.128
G2 X86.623 Y103.024 I6.723 J0.005
G3 X86.658 Y103.921 I-4.717 J0.631
X86.285 Y104.274 I-0.373 J-0.021
G1 X86.099
G3 X85.726 Y103.901 J-0.373
G1 X85.797 Y55.459
X85.726 Y16.099
G3 X86.099 Y15.726 I0.373
G1 X86.287
G3 X86.66 Y16.079 J0.373
X86.625 Y16.974 I-4.734 J0.265
G2 X86.566 Y17.868 I6.666 J0.893
G1 X86.632 Y36.672
G3 X86.533 Y39.835 I-46.517 J0.131
G2 X86.596 Y42.999 I18.58 J1.214
G3 X86.613 Y43.591 I-3.903 J0.411
X86.576 Y44.182 I-18.5 J-0.854
G1 X86.574 Y49.984
G2 X87.159 Y50.966 I1.115
G3 X87.716 Y51.964 I-0.506 J0.936
G2 X87.883 Y56.453 I23.575 J1.37
G3 X87.885 Y56.867 I-1.585 J0.214
G2 X87.886 Y63.138 I24.822 J3.132
G3 X87.884 Y63.552 I-1.587 J0.201
G2 Y69.804 I23.301 J3.127
G3 X87.886 Y70.208 I-1.585 J0.212
G2 X87.69 Y73.339 I27.003 J3.263
X87.884 Y76.469 I23.553 J0.115
G3 X87.885 Y76.871 I-1.586 J0.205
G2 Y83.13 I25.244 J3.131
G3 X87.883 Y83.537 I-1.587 J0.199
G2 X87.676 Y86.656 I24.313 J3.184
X87.885 Y89.774 I22.493 J0.061
G3 X87.887 Y90.19 I-1.585 J0.217
G2 X87.884 Y96.465 I25.103 J3.15
G3 X87.883 Y96.876 I-1.587 J0.203
G2 X87.675 Y100.012 I24.265 J3.186
X87.886 Y103.147 I22.693 J0.047
G3 X87.89 Y103.549 I-1.585 J0.218
G2 X87.834 Y104.255 I9.984 J1.156
X87.818 Y104.963 I15.878 J0.712
G3 X87.31 Y105.47 I-0.507
G1 X85.037
G3 X84.53 Y104.963 J-0.507
G1 Y15.037
G3 X85.037 Y14.53 I0.507
G1 X87.309
G3 X87.816 Y15.037 J0.507
G2 X87.833 Y15.745 I13.909 J0.004
X87.892 Y16.45 I10.964 J-0.556
G3 X87.888 Y16.852 I-1.589 J0.184
G2 X87.882 Y23.128 I22.938 J3.157
G3 X87.883 Y23.539 I-1.586 J0.209
G2 X87.888 Y29.809 I24.457 J3.118
G3 X87.889 Y30.2 I-1.587 J0.199
G2 X87.689 Y33.332 I27.442 J3.319
X87.883 Y36.465 I22.919 J0.155
G3 X87.884 Y36.872 I-1.586 J0.208
G2 X87.894 Y43.193 I24.917 J3.123
G3 X87.899 Y43.572 I-1.585 J0.211
G2 X87.717 Y46.682 I32.659 J3.466
X87.888 Y49.793 I23.753 J0.258
G3 X87.885 Y50.197 I-1.588 J0.192
G2 X87.716 Y51.964 I23.405 J3.136
X88.278 Y52.907 I0.977 J0.057
G3 X88.878 Y53.827 I-0.441 J0.943
G2 X89.068 Y56.289 I22.505 J-0.494
G3 X89.071 Y57.022 I-2.824 J0.379
G2 X89.072 Y62.983 I23.745 J2.977
G3 X89.069 Y63.715 I-2.827 J0.356
G2 Y69.641 I22.21 J2.963
G3 X89.073 Y70.357 I-2.825 J0.376
G2 X88.887 Y73.334 I25.958 J3.117
X89.07 Y76.312 I22.45 J0.12
G3 X89.071 Y77.023 I-2.826 J0.363
G2 Y82.977 I24.169 J2.979
G3 X89.069 Y83.698 I-2.828 J0.353
G2 X88.873 Y86.652 I23.234 J3.025
X89.069 Y89.606 I21.383 J0.064
G3 X89.073 Y90.344 I-2.823 J0.385
G2 X89.07 Y96.309 I24.03 J2.997
G3 X89.068 Y97.037 I-2.827 J0.359
G2 X88.872 Y100.008 I23.187 J3.026
X89.07 Y102.98 I21.578 J0.051
G3 X89.078 Y103.691 I-2.823 J0.386
G2 X89.01 Y104.924 I10.25 J1.179
G3 X89.014 Y106.159 I-226.44 J1.188
X88.506 Y106.666 I-0.507
G1 X83.841
G3 X83.334 Y106.159 J-0.507
G1 Y13.841
G3 X83.841 Y13.334 I0.507
G1 X88.505
G3 X89.012 Y13.84 J0.507
G1 Y15.117
G2 X89.08 Y16.308 I10.407 J0.003
G3 X89.072 Y17.02 I-2.831 J0.325
G2 X89.068 Y22.967 I21.841 J2.989
G3 X89.069 Y23.695 I-2.825 J0.37
G2 X89.074 Y29.656 I23.376 J2.962
G3 X89.076 Y30.348 I-2.828 J0.352
G2 X88.886 Y33.326 I26.402 J3.174
X89.068 Y36.305 I21.816 J0.16
G3 X89.07 Y37.026 I-2.826 J0.368
G2 X89.079 Y43.031 I23.84 J2.969
G3 X89.088 Y43.703 I-2.825 J0.373
G2 X88.914 Y46.673 I31.714 J3.343
X89.075 Y49.644 I22.672 J0.265
G3 X89.07 Y50.361 I-2.829 J0.34
G2 X88.878 Y53.827 I22.313 J2.973
X89.514 Y54.721 I0.976 J-0.021
G3 X90.187 Y55.586 I-0.364 J0.978
G2 X90.256 Y56.147 I20.775 J-2.253
G3 X90.26 Y57.153 I-3.767 J0.519
G2 X90.261 Y62.852 I22.062 J2.846
G3 X90.257 Y63.856 I-3.771 J0.488
G2 Y69.501 I20.598 J2.823
G3 X90.263 Y70.482 I-3.767 J0.515
G2 X90.08 Y73.329 I24.169 J2.987
X90.258 Y76.177 I20.863 J0.12
G3 X90.261 Y77.152 I-3.769 J0.497
G2 X90.26 Y82.846 I22.479 J2.85
G3 X90.257 Y83.834 I-3.771 J0.484
G2 X90.065 Y86.649 I21.58 J2.887
X90.257 Y89.463 I19.811 J0.066
G3 X90.263 Y90.474 I-3.765 J0.527
G2 X90.259 Y96.176 I22.329 J2.866
G3 X90.257 Y97.174 I-3.77 J0.492
G2 X90.064 Y100.004 I21.523 J2.887
X90.258 Y102.835 I20.021 J0.052
G3 X90.268 Y103.81 I-3.765 J0.528
G2 X90.187 Y105.582 I12.246 J1.452
G3 X90.209 Y107.356 I-67.8 J1.759
X89.702 Y107.863 I-0.507
G1 X82.644
G3 X82.137 Y107.356 J-0.507
G1 Y12.644
G3 X82.644 Y12.137 I0.507
G1 X89.702
G3 X90.209 Y12.644 J0.507
X90.187 Y14.418 I-74.536 J-0.019
G2 X90.27 Y16.189 I12.501 J0.301
G3 X90.26 Y17.165 I-3.776 J0.447
G2 X90.256 Y22.829 I20.26 J2.844
G3 X90.258 Y23.828 I-3.768 J0.507
G2 X90.263 Y29.525 I21.717 J2.83
G3 X90.265 Y30.474 I-3.771 J0.482
G2 X90.079 Y33.321 I24.624 J3.044
X90.257 Y36.168 I20.248 J0.161
G3 X90.26 Y37.156 I-3.768 J0.504
G2 X90.267 Y42.89 I22.162 J2.839
G3 X90.279 Y43.812 I-3.768 J0.51
G2 X90.106 Y46.665 I29.685 J3.228
X90.264 Y49.519 I21.086 J0.264
G3 X90.258 Y50.501 I-3.773 J0.467
G2 X90.187 Y55.586 I20.704 J2.832
X90.873 Y56.38 I0.918 J-0.1
G3 X91.453 Y57.255 I-0.197 J0.76
G2 X91.294 Y59.738 I14.797 J2.194
X91.395 Y62.253 I60.965 J-1.177
X91.421 Y62.516 I3.491 J-0.212
X91.458 Y62.778 I19.652 J-2.693
G3 X91.454 Y63.939 I-3.76 J0.566
G2 X91.325 Y66.376 I11.587 J1.835
G3 X91.388 Y68.817 I-47.442 J2.442
G2 X91.409 Y69.118 I2.154
X91.454 Y69.416 I18.675 J-2.635
G3 X91.461 Y70.551 I-3.756 J0.591
G2 X91.301 Y73.079 I15.64 J2.257
X91.395 Y75.611 I63.482 J-1.089
G1 X91.405 Y75.733
X91.419 Y75.855
X91.455 Y76.098
G3 X91.458 Y77.225 I-3.759 J0.573
G2 X91.457 Y82.772 I18.832 J2.776
G3 X91.454 Y83.915 I-3.76 J0.562
G2 X91.325 Y86.337 I11.966 J1.851
G3 X91.383 Y88.762 I-51.36 J2.425
G2 X91.411 Y89.106 I2.13
G3 X91.463 Y89.446 I-17.859 J2.916
X91.46 Y90.548 I-3.763 J0.541
G2 X91.307 Y93.013 I14.184 J2.117
X91.388 Y95.482 I145.444 J-3.533
X91.413 Y95.792 I3.801 J-0.157
X91.456 Y96.1 I11.22 J-1.388
G3 X91.454 Y97.254 I-3.759 J0.57
G2 X91.326 Y99.693 I11.893 J1.847
G3 X91.386 Y102.134 I-49.553 J2.442
G2 X91.408 Y102.442 I2.175
X91.454 Y102.746 I17.262 J-2.464
G3 X91.466 Y103.874 I-3.754 J0.604
G2 X91.336 Y106.22 I14.047 J1.954
X91.408 Y108.569 I434.072 J-12.004
G3 X90.934 Y109.059 I-0.474 J0.016
G1 X81.448
G3 X80.941 Y108.552 J-0.507
G1 Y11.448
G3 X81.448 Y10.941 I0.507
G1 X90.934
G3 X91.407 Y11.43 J0.473
G2 X91.337 Y13.779 I348.461 J11.593
X91.468 Y16.126 I14.284 J0.379
G3 X91.456 Y17.254 I-3.766 J0.524
G2 X91.324 Y19.703 I11.438 J1.843
G3 X91.389 Y22.155 I-46.846 J2.456
G2 X91.409 Y22.453 I2.144
X91.453 Y22.748 I19.482 J-2.734
G3 X91.456 Y23.903 I-3.757 J0.585
G2 X91.279 Y26.473 I15.632 J2.367
X91.406 Y29.046 I35.295 J-0.452
G1 X91.43 Y29.248
X91.46 Y29.449
G3 X91.462 Y30.545 I-3.761 J0.556
X91.411 Y30.891 I-36.008 J-5.173
G2 X91.385 Y31.24 I2.263 J0.347
G3 X91.326 Y33.665 I-49.544 J0.025
G2 X91.454 Y36.088 I12.015 J0.583
G3 X91.457 Y37.23 I-3.757 J0.582
G2 X91.27 Y39.859 I16.986 J2.531
X91.416 Y42.491 I26.586 J-0.152
G1 X91.437 Y42.647
X91.463 Y42.803
G3 X91.477 Y43.868 I-3.757 J0.582
G2 X91.28 Y46.658 I24.352 J3.119
X91.462 Y49.45 I17.847 J0.239
G3 X91.455 Y50.586 I-3.763 J0.544
G2 X91.325 Y53.021 I11.704 J1.845
G3 X91.386 Y55.459 I-48.844 J2.438
G2 X91.407 Y55.763 I2.164
X91.453 Y56.064 I17.978 J-2.551
G3 X91.457 Y57.226 I-3.755 J0.597
G1 X91.453 Y57.255
G2 X91.93 Y58.23 I0.948 J0.141
G3 X92.456 Y59.178 I-0.511 J0.904
G2 X92.611 Y62.557 I19.019 J0.821
G3 X92.605 Y64.168 I-5.892 J0.783
G2 X92.606 Y69.194 I17.854 J2.511
G3 X92.616 Y70.758 I-5.761 J0.819
G2 X92.444 Y73.317 I20.829 J2.689
X92.608 Y75.876 I18.231 J0.113
G3 X92.612 Y77.441 I-5.884 J0.797
G2 X92.611 Y82.556 I19.649 J2.561
G3 X92.607 Y84.137 I-5.833 J0.775
G2 X92.43 Y86.639 I18.594 J2.571
X92.604 Y89.142 I17.231 J0.062
G3 X92.613 Y90.768 I-5.922 J0.847
G2 X92.441 Y93.326 I20.046 J2.633
X92.609 Y95.883 I18.475 J0.069
G3 X92.607 Y97.475 I-5.78 J0.786
G2 X92.603 Y102.503 I18.108 J2.526
G3 X92.62 Y104.093 I-6.209 J0.861
G2 X92.495 Y106.601 I18.699 J2.19
X92.592 Y109.11 I57.611 J-0.971
X92.646 Y109.452 I1.82 J-0.11
X92.743 Y109.785 I4.997 J-1.281
G3 X92.42 Y110.231 I-0.323 J0.106
G1 X80.276
G3 X79.769 Y109.724 J-0.507
G1 Y10.276
G3 X80.276 Y9.769 I0.507
G1 X92.417
G3 X92.743 Y10.218 J0.343
G2 X92.452 Y12.646 I5.917 J1.941
G3 X92.547 Y15.09 I-31.035 J2.436
G2 X92.574 Y15.564 I4.158 J0.001
X92.64 Y16.035 I9.302 J-1.066
G3 X92.637 Y17.306 I-3.75 J0.624
G2 X92.499 Y19.729 I10.527 J1.815
G3 X92.568 Y22.155 I-42.601 J2.43
G1 X92.571 Y22.251
X92.581 Y22.346
X92.607 Y22.535
G3 X92.61 Y24.112 I-5.59 J0.8
G2 X92.441 Y26.67 I17.679 J2.454
X92.613 Y29.229 I20.895 J-0.123
G3 X92.617 Y30.76 I-6.012 J0.778
G2 X92.442 Y33.318 I22.594 J2.829
X92.608 Y35.876 I16.72 J0.199
G3 X92.612 Y37.434 I-5.576 J0.795
G2 X92.448 Y39.9 I17.648 J2.413
X92.581 Y42.369 I24.249 J-0.072
G1 X92.607 Y42.546
X92.633 Y42.691
G3 X92.649 Y43.949 I-3.741 J0.678
G2 X92.449 Y46.589 I16.95 J2.614
X92.616 Y49.231 I21.566 J-0.033
G3 X92.605 Y50.819 I-6.041 J0.755
G2 X92.429 Y53.33 I18.66 J2.576
X92.605 Y55.842 I17.157 J0.058
G3 X92.612 Y57.438 I-5.693 J0.822
G2 X92.456 Y59.178 I18.864 J2.561
X93.026 Y60.101 I0.964 J0.042
G3 X93.622 Y61.007 I-0.411 J0.918
G2 X93.668 Y62.301 I26.599 J-0.317
G1 X93.68 Y62.404
X93.701 Y62.506
X93.759 Y62.705
G3 X93.766 Y63.927 I-1.873 J0.622
G2 X93.684 Y64.23 I3.264 J1.044
X93.65 Y64.541 I1.406 J0.311
G1 X93.651 Y68.817
G2 X93.688 Y69.119 I1.257
X93.77 Y69.412 I4.843 J-1.199
G3 X93.763 Y70.608 I-1.875 J0.587
G2 X93.661 Y71.102 I2.147 J0.7
X93.638 Y71.605 I5.51 J0.506
G3 X93.622 Y73.607 I-136.043 J-0.069
G2 X93.664 Y75.608 I27.694 J0.422
G1 X93.675 Y75.712
X93.696 Y75.814
X93.754 Y76.013
G3 X93.758 Y77.297 I-1.969 J0.647
G2 X93.68 Y77.6 I2.451 J0.791
X93.65 Y77.912 I1.626 J0.313
G1 X93.648 Y80.746
G2 X93.664 Y82.238 I65.247 J0.043
G1 X93.673 Y82.355
X93.694 Y82.47
X93.723 Y82.584
X93.757 Y82.696
G3 X93.767 Y83.924 I-1.93 J0.63
G2 X93.689 Y84.209 I4.447 J1.371
X93.654 Y84.502 I1.226 J0.295
G3 X93.592 Y86.82 I-45.267 J-0.052
G2 X93.697 Y89.136 I11.881 J0.623
G1 X93.708 Y89.199
X93.724 Y89.261
X93.761 Y89.384
G3 X93.757 Y90.632 I-1.973 J0.617
G2 X93.677 Y90.954 I2.291 J0.734
X93.649 Y91.284 I1.907 J0.331
G3 X93.633 Y93.436 I-163.591 J-0.091
G2 X93.663 Y95.588 I39.148 J0.537
G1 X93.673 Y95.698
X93.694 Y95.807
X93.722 Y95.913
X93.755 Y96.019
G3 X93.766 Y97.261 I-1.942 J0.638
G2 X93.687 Y97.548 I4.199 J1.298
X93.653 Y97.844 I1.256 J0.297
G3 X93.568 Y100.213 I-33.646 J-0.024
G2 X93.721 Y102.578 I8.731 J0.622
G1 X93.741 Y102.657
X93.766 Y102.734
G3 X93.765 Y103.929 I-1.914 J0.596
G2 X93.665 Y104.415 I2.388 J0.748
X93.638 Y104.909 I4.691 J0.496
G3 X93.624 Y106.977 I-148.668 J-0.031
G2 X93.672 Y109.044 I27.739 J0.392
X93.792 Y109.523 I1.336 J-0.081
X94.006 Y109.967 I12.258 J-5.641
G3 X94.093 Y110.244 I-0.8 J0.404
G2 X94.151 Y110.569 I4.989 J-0.715
X94.242 Y110.886 I2.201 J-0.464
G3 X93.939 Y111.322 I-0.303 J0.112
G1 X79.185
G3 X78.678 Y110.815 J-0.507
G1 Y9.185
G3 X79.185 Y8.678 I0.507
G1 X93.939
G3 X94.242 Y9.114 J0.323
G2 X94.01 Y9.784 I15.97 J5.912
G3 X93.77 Y10.451 I-10.426 J-3.374
G2 X93.631 Y10.996 I2.052 J0.814
X93.597 Y11.558 I4.591 J0.563
X93.613 Y13.62 I129.047 J0.033
X93.684 Y15.681 I54.08 J-0.85
G1 X93.694 Y15.781
X93.714 Y15.879
X93.767 Y16.071
G3 X93.766 Y17.261 I-1.89 J0.593
G2 X93.685 Y17.56 I3.482 J1.102
X93.651 Y17.867 I1.361 J0.307
G1 X93.652 Y22.155
G2 X93.688 Y22.454 I1.235
X93.769 Y22.744 I5.146 J-1.284
G3 X93.757 Y23.977 I-1.922 J0.597
G2 X93.615 Y24.849 I2.619 J0.873
G1 Y25.686
G3 X93.543 Y27.535 I-23.989 J-0.01
G2 X93.758 Y29.371 I4.778 J0.371
G3 X93.761 Y30.613 I-1.945 J0.625
G2 X93.681 Y30.922 I2.794 J0.885
X93.65 Y31.239 I1.576 J0.316
G1 X93.653 Y35.499
G2 X93.69 Y35.792 I1.194 J-0.001
X93.77 Y36.077 I5.818 J-1.476
G3 X93.757 Y37.301 I-1.933 J0.593
G2 X93.63 Y38.048 I2.441 J0.802
X93.621 Y38.806 I36.25 J0.774
G3 X93.536 Y40.761 I-22.665 J-0.01
G2 X93.759 Y42.705 I4.888 J0.425
G3 X93.774 Y43.905 I-1.921 J0.625
G2 X93.543 Y46.144 I5.847 J1.735
G3 X93.636 Y48.393 I-26.89 J2.232
G2 X93.66 Y48.893 I5.129 J0.003
X93.761 Y49.382 I2.351 J-0.229
G3 X93.765 Y50.595 I-1.923 J0.614
G2 X93.687 Y50.886 I3.969 J1.233
X93.652 Y51.184 I1.286 J0.3
G3 X93.573 Y53.538 I-35.676 J-0.025
G2 X93.715 Y55.889 I9.249 J0.618
G1 X93.737 Y55.974
X93.763 Y56.058
G3 X93.754 Y57.311 I-1.994 J0.613
G2 X93.648 Y57.981 I2.097 J0.676
G3 X93.625 Y60.141 I-107.448 J-0.059
G2 X93.622 Y61.007 I26.596 J0.549
X94.093 Y61.743 I0.825 J-0.01
G3 X94.645 Y62.421 I-0.435 J0.918
G2 X94.857 Y62.837 I0.984 J-0.239
G3 X94.986 Y63.465 I-0.507 J0.431
X94.784 Y63.945 I-2.547 J-0.789
G2 X94.616 Y64.438 I1.366 J0.739
G1 X94.61 Y64.49
X94.608 Y64.541
Y68.817
G2 X94.803 Y69.403 I0.978
G3 X95.006 Y69.985 I-0.82 J0.613
X94.879 Y70.445 I-0.806 J0.024
G2 X94.665 Y70.871 I1.926 J1.235
X94.603 Y71.235 I0.901 J0.341
G3 X94.607 Y71.606 I-14.516 J0.363
X94.582 Y73.58 I-80.401 J-0.041
G2 X94.614 Y75.554 I24.038 J0.603
X94.857 Y76.214 I1.205 J-0.069
G3 X94.949 Y76.911 I-0.567 J0.43
G2 X94.546 Y79.288 I5.183 J2.101
G3 X94.605 Y81.698 I-48.879 J2.41
G2 X94.684 Y82.36 I2.813
X94.907 Y82.988 I3.138 J-0.76
G3 X94.883 Y83.643 I-0.64 J0.305
G2 X94.649 Y84.255 I1.876 J1.068
G1 X94.623 Y84.378
X94.614 Y84.44
X94.611 Y84.503
X94.606 Y88.762
G2 X94.801 Y89.374 I1.053
G3 X95.007 Y89.982 I-0.903 J0.644
X94.827 Y90.532 I-0.85 J0.027
G2 X94.621 Y91.073 I0.779 J0.608
X94.557 Y93.311 I28.715 J1.941
X94.614 Y95.549 I72.322 J-0.746
X94.81 Y96.108 I1.02 J-0.042
G3 X95.005 Y96.668 I-0.796 J0.592
X94.812 Y97.258 I-0.909 J0.03
G2 X94.61 Y97.845 I0.751 J0.587
G1 X94.607 Y102.134
G2 X94.799 Y102.719 I0.984
G3 X95.004 Y103.299 I-0.849 J0.627
X94.83 Y103.841 I-0.819 J0.036
G2 X94.632 Y104.375 I0.735 J0.577
X94.565 Y106.428 I75.452 J3.464
X94.608 Y108.481 I25.961 J0.485
X94.782 Y109.455 I4.239 J-0.256
X95.072 Y110.401 I152.59 J-46.186
X96.298 Y111.613 I1.748 J-0.541
X98.009 Y111.826 I1.493 J-5.015
X98.407 Y111.74 I-0.049 J-1.185
X98.775 Y111.563 I-1.294 J-3.174
G3 X99.172 Y111.59 I0.178 J0.32
G2 X99.658 Y111.894 I2.063 J-2.758
X100.21 Y112.05 I0.658 J-1.277
X101.354 Y112.093 I1.178 J-15.958
X102.481 Y111.895 I0.007 J-3.265
X102.734 Y111.766 I-0.406 J-1.11
X102.962 Y111.598 I-1.794 J-2.676
G3 X103.373 Y111.565 I0.23 J0.285
G2 X104.472 Y111.811 I0.951 J-1.671
X105.584 Y111.635 I-0.542 J-7.025
X106.398 Y111.291 I-0.64 J-2.647
X106.989 Y110.633 I-0.865 J-1.371
X107.186 Y109.999 I-1.941 J-0.951
G3 X107.383 Y109.365 I2.026 J0.282
G2 X107.503 Y108.931 I-1.043 J-0.523
X107.534 Y108.481 I-28.771 J-2.19
X107.579 Y106.426 I-26.564 J-1.606
X107.509 Y104.372 I-60.826 J1.027
X107.289 Y103.812 I-0.945 J0.048
G3 X107.148 Y103.226 I0.518 J-0.435
X107.341 Y102.742 I1.655 J0.378
G2 X107.524 Y102.253 I-1.293 J-0.762
G1 X107.532 Y102.194
X107.535 Y102.134
X107.533 Y97.845
G2 X107.335 Y97.246 I-1.007
G3 X107.137 Y96.647 I0.808 J-0.599
X107.336 Y95.984 I1.201
G2 X107.535 Y95.322 I-1.002 J-0.662
G1 X107.531 Y91.158
G2 X107.336 Y90.586 I-0.941 J0.001
G3 X107.137 Y90.015 I0.761 J-0.584
X107.311 Y89.481 I0.869 J-0.012
G2 X107.518 Y88.959 I-0.847 J-0.636
X107.602 Y86.734 I-15.746 J-1.707
G1 X107.535 Y84.704
G2 X107.282 Y83.909 I-1.53 J0.05
G3 X107.198 Y83.078 I0.747 J-0.495
X107.403 Y82.659 I3.113 J1.26
G2 X107.526 Y82.209 I-0.795 J-0.459
G3 X107.587 Y80.03 I59.906 J0.583
G2 X107.533 Y77.851 I-15.372 J-0.709
X107.303 Y77.037 I-2.358 J0.226
G3 X107.309 Y76.19 I0.852 J-0.417
G2 X107.481 Y75.682 I-1.687 J-0.856
X107.535 Y75.149 I-3.123 J-0.585
X107.552 Y73.114 I-128.815 J-2.096
X107.518 Y71.079 I-59.353 J-0.028
X107.293 Y70.488 I-0.975 J0.033
G3 X107.152 Y69.871 I0.538 J-0.448
X107.333 Y69.428 I1.614 J0.4
G2 X107.513 Y68.985 I-1.389 J-0.825
G1 X107.527 Y68.908
X107.532 Y68.831
X107.535 Y64.541
G2 X107.295 Y63.807 I-1.242
G3 X107.211 Y63.039 I0.623 J-0.457
G2 X107.426 Y62.546 I-65.654 J-28.946
X107.535 Y62.018 I-1.221 J-0.527
G3 X107.581 Y59.837 I52.85 J0.005
G2 X107.503 Y57.656 I-14.191 J-0.588
X107.272 Y57.027 I-1.405 J0.159
G3 X107.217 Y56.36 I0.572 J-0.383
X107.424 Y55.926 I10.923 J4.951
G2 X107.535 Y55.459 I-0.93 J-0.467
G1 X107.532 Y51.169
G2 X107.34 Y50.587 I-0.979 J0.001
G3 X107.137 Y50.009 I0.835 J-0.618
X107.258 Y49.559 I0.785 J-0.03
G2 X107.471 Y49.144 I-2.202 J-1.394
X107.54 Y48.772 I-0.866 J-0.351
G3 X107.535 Y48.394 I17.165 J-0.377
X107.557 Y46.422 I91.537 J0.005
G2 X107.528 Y44.451 I-27.418 J-0.592
X107.292 Y43.741 I-1.398 J0.07
G3 X107.235 Y42.995 I0.631 J-0.424
G2 X107.435 Y42.557 I-24.16 J-11.314
X107.535 Y42.087 I-1.054 J-0.471
G3 X107.541 Y39.936 I404.093 J0.064
G2 X107.526 Y37.784 I-83.975 J-0.46
X107.349 Y37.235 I-1.006 J0.02
G3 X107.139 Y36.697 I1.04 J-0.715
X107.267 Y36.186 I0.695 J-0.098
G2 X107.5 Y35.714 I-1.268 J-0.921
G1 X107.524 Y35.606
X107.534 Y35.495
X107.535 Y35.275
G3 X107.586 Y33.156 I44.674 J0.003
G2 X107.517 Y31.039 I-13.276 J-0.631
X107.312 Y30.514 I-1.086 J0.122
G3 X107.138 Y29.978 I0.726 J-0.533
X107.336 Y29.347 I1.114 J0.004
G2 X107.535 Y28.715 I-0.904 J-0.632
G3 X107.566 Y26.545 I76.197 J0.007
G2 X107.514 Y24.376 I-20.659 J-0.59
X107.282 Y23.728 I-1.295 J0.099
G3 X107.21 Y23.043 I0.578 J-0.407
X107.416 Y22.615 I4.755 J2.034
G2 X107.533 Y22.155 I-0.851 J-0.461
G1 X107.535 Y17.866
G2 X107.335 Y17.266 I-1.001
G3 X107.135 Y16.666 I0.81 J-0.603
X107.316 Y16.144 I0.838 J-0.002
G2 X107.51 Y15.627 I-0.709 J-0.561
X107.578 Y13.573 I-65.953 J-3.212
X107.534 Y11.519 I-26.426 J-0.464
X107.481 Y10.997 I-6.344 J0.382
X107.319 Y10.498 I-1.531 J0.22
G3 X107.022 Y9.587 I2.538 J-1.333
G2 X106.525 Y8.767 I-1.224 J0.182
X105.297 Y8.236 I-1.807 J2.492
X103.96 Y8.201 I-0.775 J4.039
X103.655 Y8.29 I0.149 J1.078
X103.373 Y8.435 I1.516 J3.305
G3 X102.962 Y8.402 I-0.181 J-0.318
G2 X101.693 Y7.919 I-1.373 J1.703
X100.336 Y7.937 I-0.534 J11.172
X99.72 Y8.09 I0.138 J1.87
X99.172 Y8.41 I1.119 J2.548
G3 X98.775 Y8.437 I-0.219 J-0.293
G2 X98.013 Y8.192 I-1.001 J1.805
X97.214 Y8.233 I-0.277 J2.376
X95.996 Y8.571 I2.772 J12.384
X95.111 Y9.473 I0.434 J1.311
X94.931 Y10.094 I17.961 J5.558
G3 X94.726 Y10.707 I-5.576 J-1.518
G2 X94.626 Y11.127 I1.403 J0.556
X94.606 Y11.558 I4.762 J0.433
G3 X94.593 Y13.594 I-154.68 J-0.04
G2 X94.634 Y15.63 I30.268 J0.406
X94.859 Y16.282 I1.252 J-0.068
G3 X94.925 Y16.969 I-0.574 J0.402
X94.72 Y17.401 I-8.627 J-3.839
G2 X94.608 Y17.867 I0.918 J0.466
G1 X94.609 Y22.155
G2 X94.803 Y22.735 I0.966
G3 X95.006 Y23.313 I-0.813 J0.612
X94.87 Y23.808 I-0.864 J0.029
G2 X94.648 Y24.272 I1.774 J1.137
X94.57 Y24.978 I1.577 J0.532
G3 X94.607 Y25.687 I-6.709 J0.706
X94.58 Y27.314 I-49.957 J-0.021
G2 X94.623 Y28.941 I13.699 J0.452
X94.82 Y29.461 I1.013 J-0.087
G3 X95.006 Y29.985 I-0.759 J0.565
X94.814 Y30.613 I-0.983 J0.043
G2 X94.608 Y31.238 I0.842 J0.624
G1 X94.61 Y35.499
G2 X94.8 Y36.069 I0.952
G3 X95.004 Y36.633 I-0.827 J0.619
X94.875 Y37.124 I-0.833 J0.044
G2 X94.653 Y37.581 I1.885 J1.198
X94.578 Y38.192 I1.354 J0.476
G3 X94.607 Y38.806 I-6.505 J0.612
X94.561 Y40.971 I-52.165 J-0.023
G2 X94.951 Y43.1 I4.886 J0.205
G3 X94.873 Y43.722 I-0.57 J0.244
G2 X94.649 Y44.306 I0.874 J0.671
X94.57 Y46.614 I26.12 J2.045
X94.624 Y48.923 I87.098 J-0.874
X94.857 Y49.619 I1.299 J-0.047
G3 X94.897 Y50.352 I-0.572 J0.399
G2 X94.732 Y50.696 I3.269 J1.786
X94.621 Y51.061 I1.715 J0.72
G1 X94.612 Y51.123
X94.609 Y51.185
X94.606 Y55.459
G2 X94.795 Y56.052 I1.026
G3 X95.005 Y56.639 I-0.938 J0.665
X94.877 Y57.129 I-0.794 J0.055
G2 X94.653 Y57.583 I1.756 J1.149
G1 X94.626 Y57.68
X94.614 Y57.78
X94.608 Y57.981
G3 X94.58 Y60.112 I-86.373 J-0.047
G2 X94.618 Y62.243 I24.838 J0.627
G1 X94.627 Y62.332
X94.645 Y62.421
G2 X95.154 Y62.794 I0.476 J-0.116
G3 X95.647 Y63.187 I0.032 J0.466
G1 X95.661 Y63.28
X95.642 Y63.532
X95.609 Y63.658
X95.518 Y63.911
X95.332 Y64.282
X95.281 Y64.412
X95.26 Y64.541
Y68.817
X95.288 Y68.936
X95.344 Y69.083
X95.475 Y69.335
X95.607 Y69.651
X95.625 Y69.714
X95.663 Y69.966
X95.64 Y70.218
X95.561 Y70.47
X95.507 Y70.597
X95.332 Y70.949
X95.275 Y71.101
X95.26 Y71.606
X95.258 Y75.39
X95.265 Y75.517
X95.332 Y75.722
X95.54 Y76.147
X95.615 Y76.336
X95.658 Y76.589
X95.661 Y76.652
X95.638 Y76.904
X95.555 Y77.156
X95.311 Y77.661
X95.271 Y77.787
X95.26 Y77.913
X95.257 Y81.698
X95.269 Y82.202
X95.332 Y82.389
X95.407 Y82.548
X95.498 Y82.707
X95.621 Y83.022
X95.661 Y83.275
X95.632 Y83.59
X95.548 Y83.842
X95.332 Y84.282
X95.287 Y84.393
X95.263 Y84.504
X95.258 Y88.762
X95.279 Y88.909
X95.332 Y89.055
X95.555 Y89.519
X95.624 Y89.708
X95.663 Y89.961
X95.641 Y90.213
X95.542 Y90.528
X95.411 Y90.781
X95.332 Y90.949
X95.271 Y91.117
X95.26 Y91.285
X95.258 Y95.322
X95.266 Y95.522
X95.332 Y95.722
X95.446 Y95.953
X95.514 Y96.079
X95.613 Y96.331
X95.662 Y96.647
X95.639 Y96.899
X95.535 Y97.214
X95.396 Y97.478
X95.285 Y97.73
X95.262 Y97.845
X95.259 Y102.134
X95.285 Y102.26
X95.332 Y102.389
X95.458 Y102.64
X95.62 Y103.017
X95.66 Y103.27
X95.643 Y103.522
X95.634 Y103.585
X95.524 Y103.9
X95.422 Y104.091
X95.283 Y104.405
X95.26 Y104.91
X95.259 Y108.442
X95.29 Y108.946
X95.426 Y109.25
X95.532 Y109.451
X95.623 Y109.703
X95.695 Y110.208
X95.734 Y110.334
X95.795 Y110.46
X95.894 Y110.6
X95.964 Y110.672
X96.09 Y110.771
X96.216 Y110.839
X96.588 Y110.965
X96.847 Y111.037
X97.352 Y111.15
X97.731 Y111.217
X97.857 Y111.225
X97.983 Y111.219
X98.11 Y111.201
X98.236 Y111.169
X98.362 Y111.121
X98.493 Y111.054
X98.624 Y110.965
X98.763 Y110.838
X98.867 Y110.71
X98.927 Y110.617
X99.004 Y110.46
X99.056
X99.12 Y110.617
X99.206 Y110.775
X99.351 Y110.965
X99.498 Y111.107
X99.624 Y111.202
X99.751 Y111.277
X99.877 Y111.336
X100.003 Y111.381
X100.129 Y111.413
X100.256 Y111.434
X100.382 Y111.443
X101.392 Y111.449
X101.897 Y111.433
X102.023 Y111.411
X102.149 Y111.378
X102.275 Y111.332
X102.402 Y111.271
X102.596 Y111.145
X102.694 Y111.063
X102.853 Y110.892
X102.94 Y110.768
X103.047 Y110.563
X103.086 Y110.46
X103.138
X103.185 Y110.563
X103.245 Y110.665
X103.319 Y110.768
X103.411 Y110.871
X103.518 Y110.965
X103.618 Y111.035
X103.717 Y111.092
X103.916 Y111.172
X104.043 Y111.203
X104.169 Y111.22
X104.295 Y111.225
X104.421 Y111.216
X104.926 Y111.123
X105.431 Y111.001
X105.936 Y110.835
X106.039 Y110.779
X106.142 Y110.705
X106.263 Y110.582
X106.347 Y110.46
X106.403 Y110.347
X106.441 Y110.233
X106.519 Y109.703
X106.61 Y109.451
X106.8 Y109.073
X106.853 Y108.946
X106.883 Y108.442
X106.884 Y104.91
X106.858 Y104.405
X106.752 Y104.153
X106.618 Y103.9
X106.526 Y103.648
X106.502 Y103.522
X106.478 Y103.333
X106.509 Y103.08
X106.616 Y102.765
X106.687 Y102.639
X106.807 Y102.387
X106.859 Y102.26
X106.882 Y102.134
X106.881 Y97.845
X106.851 Y97.719
X106.801 Y97.593
X106.611 Y97.214
X106.519 Y96.962
X106.48 Y96.647
X106.511 Y96.394
X106.627 Y96.079
X106.76 Y95.827
X106.864 Y95.574
X106.883 Y95.322
X106.878 Y91.159
X106.844 Y91.033
X106.733 Y90.781
X106.604 Y90.528
X106.513 Y90.276
X106.481 Y90.024
X106.506 Y89.771
X106.517 Y89.708
X106.638 Y89.393
X106.707 Y89.267
X106.825 Y89.015
X106.869 Y88.888
X106.883 Y88.762
Y84.725
X106.875 Y84.473
X106.836 Y84.347
X106.784 Y84.221
X106.653 Y83.969
X106.551 Y83.716
X106.51 Y83.59
X106.479 Y83.338
X106.508 Y83.086
X106.592 Y82.833
X106.834 Y82.329
X106.874 Y82.202
X106.883 Y81.193
Y77.913
X106.871 Y77.787
X106.828 Y77.661
X106.713 Y77.409
X106.642 Y77.283
X106.521 Y76.967
X106.48 Y76.652
X106.51 Y76.4
X106.599 Y76.147
X106.727 Y75.895
X106.842 Y75.643
X106.877 Y75.517
X106.883 Y75.138
X106.884 Y71.606
X106.867 Y71.101
X106.766 Y70.849
X106.63 Y70.597
X106.513 Y70.281
X106.482 Y70.029
X106.497 Y69.84
X106.515 Y69.714
X106.606 Y69.461
X106.795 Y69.083
X106.849 Y68.957
X106.88 Y68.831
X106.883 Y64.541
X106.861 Y64.415
X106.813 Y64.289
X106.692 Y64.037
X106.622 Y63.911
X106.511 Y63.595
X106.479 Y63.343
X106.507 Y63.091
X106.522 Y63.028
X106.613 Y62.775
X106.746 Y62.523
X106.856 Y62.271
X106.883 Y62.018
Y57.982
X106.855 Y57.729
X106.748 Y57.477
X106.615 Y57.225
X106.523 Y56.972
X106.485 Y56.72
X106.479 Y56.657
X106.51 Y56.405
X106.621 Y56.089
X106.692 Y55.963
X106.811 Y55.711
X106.862 Y55.585
X106.883 Y55.459
X106.88 Y51.169
X106.848 Y51.043
X106.797 Y50.917
X106.608 Y50.539
X106.515 Y50.286
X106.483 Y50.034
X106.489 Y49.908
X106.513 Y49.719
X106.632 Y49.403
X106.765 Y49.151
X106.867 Y48.899
X106.883 Y48.394
Y44.61
X106.877 Y44.483
X106.841 Y44.357
X106.728 Y44.105
X106.659 Y43.979
X106.601 Y43.853
X106.512 Y43.6
X106.48 Y43.348
X106.507 Y43.096
X106.544 Y42.97
X106.643 Y42.717
X106.712 Y42.591
X106.829 Y42.339
X106.871 Y42.213
X106.883 Y42.087
X106.884 Y38.302
X106.874 Y37.798
X106.832 Y37.671
X106.78 Y37.545
X106.648 Y37.293
X106.524 Y36.978
X106.493 Y36.788
X106.478 Y36.662
X106.509 Y36.41
X106.596 Y36.158
X106.838 Y35.653
X106.875 Y35.527
X106.883 Y35.275
Y31.238
X106.869 Y31.112
X106.825 Y30.985
X106.708 Y30.733
X106.636 Y30.607
X106.517 Y30.292
X106.481 Y29.976
X106.512 Y29.724
X106.602 Y29.472
X106.732 Y29.219
X106.845 Y28.967
X106.883 Y28.715
Y24.678
X106.864 Y24.426
X106.762 Y24.173
X106.625 Y23.921
X106.512 Y23.606
X106.481 Y23.353
X106.506 Y23.101
X106.519 Y23.038
X106.609 Y22.786
X106.799 Y22.407
X106.852 Y22.281
X106.881 Y22.155
X106.883 Y17.866
X106.858 Y17.74
X106.809 Y17.613
X106.619 Y17.235
X106.51 Y16.92
X106.478 Y16.667
X106.508 Y16.415
X106.616 Y16.1
X106.751 Y15.847
X106.858 Y15.595
X106.883 Y15.09
Y11.558
X106.853 Y11.054
X106.742 Y10.801
X106.609 Y10.549
X106.519 Y10.297
X106.441 Y9.767
X106.403 Y9.653
X106.347 Y9.54
X106.263 Y9.418
X106.142 Y9.295
X106.039 Y9.221
X105.936 Y9.165
X105.431 Y8.999
X104.926 Y8.877
X104.421 Y8.784
X104.295 Y8.775
X104.169 Y8.78
X104.043 Y8.797
X103.916 Y8.828
X103.717 Y8.908
X103.618 Y8.965
X103.518 Y9.035
X103.411 Y9.129
X103.319 Y9.232
X103.245 Y9.335
X103.185 Y9.437
X103.138 Y9.54
X103.086
X102.999 Y9.335
X102.906 Y9.181
X102.791 Y9.035
X102.694 Y8.937
X102.596 Y8.855
X102.402 Y8.729
X102.275 Y8.668
X102.149 Y8.622
X102.023 Y8.589
X101.897 Y8.567
X101.392 Y8.551
X100.382 Y8.557
X100.256 Y8.566
X100.129 Y8.587
X100.003 Y8.619
X99.877 Y8.664
X99.751 Y8.723
X99.624 Y8.798
X99.498 Y8.893
X99.351 Y9.035
X99.206 Y9.225
X99.12 Y9.383
X99.056 Y9.54
X99.004
X98.927 Y9.383
X98.867 Y9.29
X98.763 Y9.162
X98.624 Y9.035
X98.493 Y8.946
X98.362 Y8.879
X98.236 Y8.831
X98.11 Y8.799
X97.983 Y8.781
X97.857 Y8.775
X97.731 Y8.783
X97.352 Y8.85
X96.847 Y8.963
X96.588 Y9.035
X96.216 Y9.161
X96.09 Y9.229
X95.964 Y9.328
X95.894 Y9.4
X95.795 Y9.54
X95.734 Y9.666
X95.695 Y9.792
X95.623 Y10.297
X95.53 Y10.549
X95.332 Y10.947
X95.29 Y11.054
X95.259 Y11.558
X95.258 Y15.09
X95.285 Y15.595
X95.332 Y15.722
X95.522 Y16.1
X95.621 Y16.352
X95.66 Y16.604
X95.643 Y16.857
X95.634 Y16.92
X95.523 Y17.235
X95.454 Y17.361
X95.332 Y17.616
X95.282 Y17.741
X95.26 Y17.867
X95.261 Y22.155
X95.288 Y22.272
X95.332 Y22.389
X95.469 Y22.659
X95.603 Y22.975
X95.624 Y23.038
X95.663 Y23.29
X95.641 Y23.543
X95.606 Y23.669
X95.512 Y23.921
X95.332 Y24.282
X95.266 Y24.48
X95.259 Y25.687
X95.258 Y28.715
X95.272 Y28.885
X95.332 Y29.055
X95.41 Y29.219
X95.481 Y29.345
X95.611 Y29.661
X95.656 Y29.913
X95.662 Y29.976
X95.639 Y30.229
X95.558 Y30.481
X95.332 Y30.949
X95.277 Y31.093
X95.26 Y31.238
X95.262 Y35.498
X95.29 Y35.61
X95.357 Y35.779
X95.492 Y36.031
X95.619 Y36.347
X95.659 Y36.599
X95.649 Y36.788
X95.636 Y36.914
X95.551 Y37.167
X95.332 Y37.616
X95.269 Y37.798
X95.259 Y38.807
X95.258 Y42.087
X95.271 Y42.213
X95.332 Y42.389
X95.552 Y42.844
X95.623 Y43.033
X95.662 Y43.285
X95.641 Y43.537
X95.629 Y43.6
X95.545 Y43.853
X95.332 Y44.282
X95.299 Y44.357
X95.26 Y44.862
X95.258 Y48.394
X95.276 Y48.899
X95.332 Y49.055
X95.415 Y49.229
X95.511 Y49.403
X95.609 Y49.656
X95.636 Y49.782
X95.662 Y49.971
X95.64 Y50.223
X95.539 Y50.539
X95.47 Y50.665
X95.332 Y50.949
X95.284 Y51.067
X95.261 Y51.185
X95.258 Y55.459
X95.283 Y55.59
X95.332 Y55.722
X95.567 Y56.215
X95.617 Y56.342
X95.658 Y56.594
X95.655 Y56.72
X95.637 Y56.909
X95.529 Y57.225
X95.397 Y57.477
X95.332 Y57.616
X95.268 Y57.799
X95.26 Y57.982
X95.258 Y62.018
X95.269 Y62.204
X95.332 Y62.389
X95.525 Y62.775
X95.622 Y63.028
X95.647 Y63.187
X95.651 Y63.236 Z-3.167
X95.647 Y63.285 Z-3.159
X95.637 Y63.328 Z-3.137
X95.621 Y63.369 Z-3.114
X95.585 Y63.429 Z-3.044
X95.555 Y63.463 Z-2.956
X95.544 Y63.474 Z-2.858
G0 Z5.
X79.68 Y63.791
Z1.213
G1 Z-2.858 F460.
G18 G3 X79.363 Z-3.175 I-0.317
G1 X77.987
G17 G3 X77.67 Y63.474 J-0.317
G1 Y8.166
G3 X78.166 Y7.67 I0.497
G1 X123.976
G3 X124.472 Y8.166 J0.497
G1 Y111.834
G3 X123.976 Y112.33 I-0.497
G1 X78.166
G3 X77.67 Y111.834 J-0.497
G1 Y63.474
G2 X77.379 Y63.037 I-0.473
G3 X77.088 Y62.6 I0.182 J-0.437
G1 Y7.142
X77.155 Y7.088
X125.
X125.055 Y7.142
Y112.858
X125. Y112.912
X77.155
X77.088 Y112.858
Y62.6
X77.095 Y62.553
X77.116 Y62.51
X77.148 Y62.476
X77.19 Y62.452
X77.236 Y62.442
X77.284 Y62.446
X83.004 Y63.843
G2 X83.164 Y63.587 I0.038 J-0.154
S70000
G3 X83.775 Y63.08 Z-3.395 I0.305 J-0.254
X83.164 Y63.587 Z-3.615 I-0.305 J0.254
X83.775 Y63.08 Z-3.835 I0.305 J-0.254
X83.164 Y63.587 Z-4.054 I-0.305 J0.254
X83.775 Y63.08 Z-4.274 I0.305 J-0.254
X83.164 Y63.587 Z-4.494 I-0.305 J0.254
X83.775 Y63.08 Z-4.714 I0.305 J-0.254
X83.866 Y63.334 Z-4.762 I-0.305 J0.254
S7000
G1 X83.849 Y81.203
X83.921 Y106.506
G3 X83.643 Y106.784 I-0.278
G1 X83.512
G3 X83.234 Y106.506 J-0.278
G1 Y13.494
G3 X83.512 Y13.216 I0.278
G1 X83.643
G3 X83.921 Y13.498 J0.278
G2 X83.91 Y16.665 I167.046 J2.157
G1 X83.866 Y63.334
G2 X84.236 Y63.889 I0.6 J0.001
G3 X84.606 Y64.443 I-0.231 J0.555
G1 X84.635 Y107.003
G3 X84.147 Y107.498 I-0.488 J0.007
G1 X83.027
G3 X82.52 Y106.991 J-0.507
G1 X82.591 Y55.459
X82.52 Y13.009
G3 X83.027 Y12.502 I0.507
G1 X84.142
G3 X84.647 Y13.021 J0.505
X84.59 Y14.508 I-61.056 J-1.62
G2 X84.572 Y15.995 I19.088 J0.972
G1 X84.606 Y64.443
G2 X85.161 Y65.33 I0.988 J-0.001
G3 X85.709 Y66.222 I-0.427 J0.877
G2 X85.88 Y69.761 I27.811 J0.43
G3 X85.873 Y70.28 I-2.123 J0.231
G2 X85.751 Y72.456 I13.701 J1.864
G3 X85.775 Y74.634 I-97.766 J2.2
G2 X85.798 Y75.522 I17.76 J-0.004
X85.874 Y76.406 I12.454 J-0.626
G3 X85.875 Y76.914 I-2.119 J0.259
G2 X85.778 Y78.987 I14.591 J1.722
G3 X85.771 Y81.062 I-38.095 J0.911
G2 X85.875 Y83.05 I12.007 J0.367
G3 X85.877 Y83.597 I-2.116 J0.284
G2 X85.692 Y86.674 I23.932 J2.983
X85.876 Y89.751 I27.753 J-0.108
G3 X85.873 Y90.26 I-2.121 J0.245
G2 X85.756 Y93.053 I16.954 J2.11
G3 X85.819 Y95.848 I-79.968 J3.2
G2 X85.838 Y96.125 I2.173 J-0.011
G1 X85.873 Y96.386
G3 X85.88 Y96.894 I-2.116 J0.283
G2 X85.878 Y103.096 I29.224 J3.108
G3 X85.873 Y103.605 I-2.123 J0.231
G2 X85.789 Y105.897 I12.138 J1.59
G3 X85.835 Y108.19 I-30.389 J1.745
X85.321 Y108.694 I-0.514 J-0.009
G1 X81.83
G3 X81.323 Y108.187 J-0.507
G1 X81.395 Y55.459
X81.323 Y11.813
G3 X81.83 Y11.306 I0.507
G1 X85.324
G3 X85.831 Y11.813 J0.507
X85.778 Y14.103 I-49.633 J-0.003
G2 X85.873 Y16.391 I13.052 J0.604
G3 X85.878 Y16.9 I-2.117 J0.275
G2 X85.713 Y20.001 I27.443 J3.018
X85.88 Y23.102 I30.431 J-0.092
G3 X85.873 Y23.611 I-2.123 J0.224
G2 X85.751 Y26.161 I14.774 J1.988
G3 X85.799 Y28.714 I-67.523 J2.55
G2 X85.82 Y29.227 I6.061
X85.873 Y29.736 I13.326 J-1.129
G3 X85.875 Y30.245 I-2.119 J0.262
G2 X85.784 Y31.928 I13.514 J1.574
G3 X85.762 Y33.613 I-39.805 J0.318
G2 X85.763 Y35.005 I19.835 J0.682
X85.877 Y36.393 I15.169 J-0.543
G3 X85.876 Y36.94 I-2.118 J0.272
G2 X85.721 Y39.894 I19.093 J2.485
X85.847 Y42.849 I80.422 J-1.958
G1 X85.859 Y42.966
X85.875 Y43.081
G3 X85.874 Y43.59 I-2.121 J0.248
G2 X85.759 Y46.375 I17.064 J2.098
G3 X85.818 Y49.161 I-74.171 J2.963
G2 X85.838 Y49.456 I2.241 J-0.005
G1 X85.873 Y49.717
G3 X85.881 Y50.229 I-2.116 J0.286
G2 X85.712 Y53.328 I30.103 J3.194
X85.878 Y56.427 I27.428 J0.086
G3 X85.873 Y56.935 I-2.122 J0.235
G2 X85.744 Y59.509 I16.283 J2.108
G3 X85.801 Y62.086 I-205.941 J5.844
G2 X85.873 Y63.061 I8.395 J-0.133
G3 X85.877 Y63.569 I-2.118 J0.272
G2 X85.709 Y66.222 I27.643 J3.082
X86.306 Y67.132 I0.969 J0.015
G3 X86.934 Y68.02 I-0.392 J0.943
G2 X87.073 Y69.677 I27.821 J-1.495
G3 X87.061 Y70.412 I-2.831 J0.322
G2 X86.941 Y72.521 I11.892 J1.738
G3 X86.974 Y74.634 I-68.786 J2.128
G2 X86.991 Y75.464 I19.601 J-0.004
X87.063 Y76.29 I9.357 J-0.398
G3 X87.065 Y77.025 I-2.825 J0.373
G2 X86.968 Y79.061 I12.711 J1.627
G3 X86.969 Y81.099 I-32.597 J1.042
G2 X87.067 Y82.953 I11.124 J0.34
G3 X87.071 Y83.684 I-2.824 J0.378
G2 X86.941 Y86.57 I18.173 J2.265
G1 X87.036 Y89.37
X87.048 Y89.507
X87.066 Y89.643
G3 X87.063 Y90.378 I-2.827 J0.355
G2 X86.945 Y93.109 I14.951 J2.01
G3 X87.018 Y95.842 I-63.869 J3.056
G1 X87.022 Y95.946
X87.032 Y96.05
X87.061 Y96.257
G3 X87.071 Y96.991 I-2.821 J0.405
G2 X87.069 Y102.996 I25.884 J3.01
G3 X87.061 Y103.73 I-2.83 J0.337
G2 X86.9 Y106.574 I16.913 J2.385
X87.042 Y109.418 I62.237 J-1.671
G3 X86.604 Y109.889 I-0.438 J0.032
G1 X80.636
G3 X80.129 Y109.382 J-0.507
G1 Y10.618
G3 X80.636 Y10.111 I0.507
G1 X86.604
G3 X87.042 Y10.582 J0.439
G2 X86.901 Y13.425 I61.47 J4.47
X87.062 Y16.267 I17.208 J0.454
G3 X87.069 Y17.001 I-2.822 J0.395
G2 X86.894 Y20.004 I24.387 J2.924
X87.072 Y23.006 I26.931 J-0.086
G3 X87.061 Y23.741 I-2.831 J0.327
G2 X86.94 Y26.226 I13.012 J1.881
G3 X86.997 Y28.715 I-53.988 J2.486
G2 X87.015 Y29.168 I5.75
X87.063 Y29.619 I8.414 J-0.665
G3 X87.065 Y30.354 I-2.825 J0.377
G2 X86.973 Y32.003 I11.75 J1.486
G3 X86.956 Y33.654 I-34.309 J0.473
G2 X86.959 Y34.981 I18.062 J0.621
X87.069 Y36.303 I14.982 J-0.585
G3 Y37.033 I-2.826 J0.362
G2 X86.918 Y39.904 I18.554 J2.415
X87.041 Y42.776 I78.225 J-1.906
G1 X87.051 Y42.874
X87.065 Y42.972
G3 X87.063 Y43.707 I-2.827 J0.359
G2 X86.948 Y46.432 I15.047 J2.
G3 X87.016 Y49.158 I-60.041 J2.87
G1 X87.02 Y49.266
X87.031 Y49.373
X87.061 Y49.586
G3 X87.072 Y50.321 I-2.82 J0.41
G2 X86.936 Y52.953 I21.049 J2.413
X87.005 Y55.588 I82.304 J-0.852
X87.03 Y55.957 I7.663 J-0.325
X87.069 Y56.325 I12.588 J-1.144
G3 X87.062 Y57.059 I-2.829 J0.341
G2 X86.933 Y59.562 I14.227 J1.984
G3 X86.998 Y62.067 I-123.822 J4.47
G2 X87.017 Y62.503 I8.264 J-0.131
X87.062 Y62.938 I6.327 J-0.436
G3 X87.068 Y63.672 I-2.823 J0.391
G2 X86.894 Y66.675 I23.666 J2.874
X86.934 Y68.02 I27.861 J-0.15
X87.564 Y68.84 I0.912 J-0.049
G3 X88.21 Y69.647 I-0.291 J0.895
X88.185 Y70.565 I-3.785 J0.356
G2 X88.044 Y73.323 I14.021 J2.098
G1 X88.168 Y75.983
X88.176 Y76.067
X88.188 Y76.15
G3 X88.19 Y77.161 I-3.767 J0.513
G2 X88.083 Y79.176 I12.803 J1.692
G3 X88.108 Y81.193 I-80.766 J2.017
G2 X88.124 Y82.011 I21.237
X88.194 Y82.825 I8.632 J-0.333
G3 X88.199 Y83.801 I-3.768 J0.505
G2 X88.076 Y86.517 I17.105 J2.132
G1 X88.172 Y89.331
X88.18 Y89.421
X88.192 Y89.51
G3 X88.187 Y90.521 I-3.77 J0.489
G2 X88.077 Y93.178 I13.715 J1.902
G3 X88.156 Y95.836 I-53.641 J2.93
G1 X88.158 Y95.903
X88.166 Y95.97
X88.185 Y96.103
G3 X88.198 Y97.114 I-3.761 J0.556
G2 X88.196 Y102.87 I23.957 J2.886
G3 X88.185 Y103.881 I-3.774 J0.465
G2 X88.035 Y106.594 I15.127 J2.197
G1 X88.125 Y109.264
G2 X88.254 Y109.953 I2.328 J-0.079
X88.549 Y110.588 I3.346 J-1.168
G3 X88.302 Y111.023 I-0.248 J0.146
G1 X79.502
G3 X78.995 Y110.516 J-0.507
G1 Y9.484
G3 X79.502 Y8.977 I0.507
G1 X88.304
G3 X88.551 Y9.411 J0.287
G2 X88.056 Y11.438 I3.074 J1.823
G3 X88.088 Y13.525 I-24.887 J1.425
G2 X88.082 Y14.823 I30.206 J0.802
X88.185 Y16.117 I10.242 J-0.168
G3 X88.195 Y17.128 I-3.763 J0.543
G2 X88.112 Y18.595 I10.998 J1.365
G3 X88.091 Y20.064 I-31.803 J0.291
G2 X88.09 Y21.476 I19.48 J0.722
X88.199 Y22.884 I16.88 J-0.598
G3 X88.184 Y23.895 I-3.775 J0.452
G2 X88.071 Y26.304 I11.876 J1.767
G3 X88.135 Y28.715 I-45.004 J2.409
G2 X88.188 Y29.477 I5.565
G3 X88.191 Y30.488 I-3.767 J0.519
G2 X88.102 Y32.09 I10.73 J1.402
G3 X88.089 Y33.693 I-30.385 J0.56
G2 X88.093 Y34.94 I16.735 J0.575
X88.197 Y36.182 I14.243 J-0.571
G3 X88.196 Y37.156 I-3.771 J0.484
G2 X88.053 Y39.931 I17.706 J2.305
X88.174 Y42.707 I79.877 J-2.104
G1 X88.181 Y42.772
X88.191 Y42.837
G3 X88.188 Y43.848 I-3.77 J0.495
G2 X88.079 Y46.501 I13.809 J1.894
G3 X88.155 Y49.156 I-50.882 J2.776
G1 X88.157 Y49.225
X88.164 Y49.294
X88.184 Y49.431
G3 X88.2 Y50.442 I-3.76 J0.563
G2 X88.067 Y52.99 I19.066 J2.266
X88.14 Y55.54 I92.137 J-1.354
X88.195 Y56.197 I8.084 J-0.343
G3 X88.186 Y57.208 I-3.773 J0.47
G2 X88.065 Y59.627 I12.934 J1.858
G3 X88.136 Y62.049 I-89.372 J3.84
G2 X88.149 Y62.42 I9.34 J-0.148
X88.186 Y62.79 I4.311 J-0.24
G3 X88.194 Y63.801 I-3.764 J0.537
G2 X88.023 Y66.679 I21.889 J2.75
X88.2 Y69.557 I25.814 J-0.149
G1 X88.21 Y69.647
G2 X88.695 Y70.306 I0.791 J-0.074
G3 X89.109 Y71.012 I-0.262 J0.627
G2 X89.024 Y73.25 I14.128 J1.656
X89.142 Y75.938 I472.201 J-19.32
G1 X89.147 Y75.99
X89.157 Y76.046
G3 X89.159 Y77.261 I-3.675 J0.615
G2 X89.04 Y79.226 I9.588 J1.565
G3 X89.081 Y81.193 I-47.808 J1.968
G2 X89.101 Y82.013 I16.544
X89.176 Y82.83 I9.705 J-0.481
G3 X89.174 Y83.842 I-3.693 J0.498
G2 X89.037 Y86.317 I14.778 J2.061
X89.113 Y88.794 I401.602 J-11.145
X89.127 Y89.104 I13.489 J-0.458
X89.161 Y89.412 I3.025 J-0.172
G3 X89.155 Y90.627 I-3.679 J0.591
G2 X89.03 Y93.229 I10.727 J1.821
G3 X89.13 Y95.831 I-38.935 J2.8
G1 X89.133 Y95.891
X89.142 Y95.949
X89.164 Y96.066
G3 X89.168 Y97.204 I-3.68 J0.582
G2 X88.997 Y99.962 I15.564 J2.346
X89.157 Y102.721 I43.861 J-1.149
G1 X89.161 Y102.75
X89.166 Y102.778
G3 X89.156 Y103.973 I-3.683 J0.567
G2 X89.041 Y105.705 I8.349 J1.425
G3 X89.08 Y107.441 I-62.553 J2.273
X89.075 Y109.31 I-83.074 J0.713
G2 X90.164 Y110.828 I1.572 J0.022
G3 X90.46 Y111.091 I-0.151 J0.467
G2 X90.595 Y111.347 I2.393 J-1.098
X90.761 Y111.586 I1.891 J-1.135
G3 X90.563 Y111.996 I-0.197 J0.157
G1 X78.519
G3 X78.022 Y111.499 J-0.497
G1 Y8.501
G3 X78.519 Y8.004 I0.497
G1 X90.563
G3 X90.761 Y8.414 J0.252
G2 X90.594 Y8.653 I1.736 J1.382
X90.459 Y8.911 I2.211 J1.328
G3 X90.166 Y9.174 I-0.446 J-0.203
G2 X89.131 Y10.449 I0.478 J1.445
X89.062 Y12.09 I11.713 J1.313
G3 X89.038 Y14.055 I-24.541 J0.683
G2 X89.155 Y16.017 I8.823 J0.461
G3 X89.165 Y17.221 I-3.672 J0.633
G2 X89.059 Y18.676 I8.91 J1.382
G3 X89.064 Y20.136 I-163.628 J1.341
G2 X89.067 Y21.467 I248.607 J0.18
X89.169 Y22.795 I9.263 J-0.043
G3 X89.165 Y23.92 I-3.685 J0.551
G2 X89.051 Y25.559 I9.533 J1.486
G3 X89.064 Y27.201 I-103.477 J1.637
G1 Y28.279
G2 X89.156 Y29.372 I6.566
G3 X89.16 Y30.587 I-3.674 J0.62
G2 X89.062 Y32.155 I7.936 J1.283
G3 X89.063 Y33.727 I-22.49 J0.798
G2 X89.067 Y34.944 I16.219 J0.558
X89.175 Y36.157 I12.626 J-0.514
G3 Y37.169 I-3.691 J0.509
G2 X89.021 Y39.781 I16.99 J2.316
X89.123 Y42.396 I59.637 J-1.028
G1 X89.137 Y42.567
X89.16 Y42.738
G3 X89.156 Y43.953 I-3.678 J0.597
G2 X89.053 Y45.653 I7.916 J1.332
G3 X89.068 Y47.357 I-22.855 J1.051
G2 X89.071 Y48.391 I16.48 J0.47
X89.167 Y49.421 I8.819 J-0.302
G3 X89.169 Y50.53 I-3.683 J0.562
G2 X89.024 Y53.013 I13.867 J2.059
X89.114 Y55.498 I204.979 J-6.202
X89.131 Y55.802 I11.983 J-0.508
X89.164 Y56.104 I3.502 J-0.238
G3 X89.153 Y57.319 I-3.682 J0.573
G2 X89.021 Y59.675 I9.948 J1.739
G3 X89.112 Y62.033 I-52.045 J3.185
G2 X89.12 Y62.357 I17.239 J-0.273
X89.153 Y62.68 I2.36 J-0.082
G3 X89.164 Y63.895 I-3.671 J0.638
G2 X89.064 Y65.713 I8.962 J1.404
G3 X89.073 Y67.534 I-22.313 J1.02
G2 X89.077 Y68.504 I11.963 J0.429
X89.17 Y69.469 I9.587 J-0.433
G3 X89.169 Y70.563 I-3.686 J0.543
G2 X89.109 Y71.012 I14.068 J2.105
G1 X89.105 Y71.061 Z-4.755
X89.094 Y71.109 Z-4.747
X89.077 Y71.15 Z-4.724
X89.055 Y71.188 Z-4.702
X89.01 Y71.242 Z-4.632
X88.975 Y71.27 Z-4.543
X88.962 Y71.279 Z-4.445
G0 Z5.
X118.847 Y70.022
Z2.588
G1 Z-0.983 F333.3
S70000
X118.845 Y70.041 Z-1.091 F460.
X118.836 Y70.096 Z-1.187
X118.823 Y70.136 Z-1.222
X118.807 Y70.175 Z-1.258
X118.781 Y70.22 Z-1.277
X118.749 Y70.261 Z-1.295
G3 X118.152 Y69.737 Z-1.515 I-0.298 J-0.262
X118.749 Y70.261 Z-1.735 I0.298 J0.262
X118.152 Y69.737 Z-1.955 I-0.298 J-0.262
X118.749 Y70.261 Z-2.175 I0.298 J0.262
X118.152 Y69.737 Z-2.395 I-0.298 J-0.262
X118.749 Y70.261 Z-2.615 I0.298 J0.262
X118.152 Y69.737 Z-2.834 I-0.298 J-0.262
X118.749 Y70.261 Z-3.054 I0.298 J0.262
X118.152 Y69.737 Z-3.274 I-0.298 J-0.262
X118.749 Y70.261 Z-3.494 I0.298 J0.262
X118.152 Y69.737 Z-3.714 I-0.298 J-0.262
X118.749 Y70.261 Z-3.934 I0.298 J0.262
X118.152 Y69.737 Z-4.153 I-0.298 J-0.262
X118.749 Y70.261 Z-4.373 I0.298 J0.262
X118.152 Y69.737 Z-4.593 I-0.298 J-0.262
X118.848 Y69.998 Z-4.762 I0.298 J0.262
S7000
G1 X118.912 Y106.354
G3 X118.218 I-0.347
G1 X118.217 Y13.494
G3 X118.495 Y13.212 I0.278 J-0.004
G1 X118.634
G3 X118.912 Y13.491 J0.278
G1 X118.841 Y66.055
X118.848 Y69.998
G2 X119.209 Y70.538 I0.586 J-0.001
G3 X119.57 Y71.078 I-0.224 J0.541
G1 X119.633 Y107.001
G3 X119.126 Y107.508 I-0.507
G1 X117.983
G3 X117.496 Y107.014 J-0.487
G1 X117.561 Y44.086
G3 X117.534 Y41.698 I31.133 J-1.546
G2 X117.567 Y39.311 I-88.272 J-2.384
X117.533 Y37.996 I-25.752 J0.001
G3 X117.499 Y36.681 I33.232 J-1.508
G1 X117.566 Y20.13
G2 X117.559 Y18.456 I-294.754 J0.344
X117.445 Y16.786 I-13.59 J0.093
G1 X117.437 Y16.67
X117.445 Y16.553
G2 X117.535 Y14.797 I-10.917 J-1.438
G1 X117.483 Y13.012
G3 X117.989 Y12.492 I0.506 J-0.015
G1 X119.126
G3 X119.633 Y12.999 J0.507
G1 X119.561 Y66.055
X119.57 Y71.078
G2 X120.2 Y72.021 I1.024 J-0.002
G3 X120.829 Y72.964 I-0.392 J0.943
G1 Y108.198
G3 X120.322 Y108.705 I-0.507
G1 X116.811
G3 X116.297 Y108.201 J-0.514
X116.316 Y107.564 I6.587 J-0.127
G2 X116.34 Y106.928 I-8.204 J-0.636
G3 X116.353 Y105.267 I105.28 J-0.004
G2 X116.259 Y103.609 I-11.446 J-0.18
G3 X116.254 Y103.1 I2.117 J-0.276
G2 X116.419 Y100.002 I-27.309 J-3.01
X116.251 Y96.904 I-30.373 J0.097
G3 X116.258 Y96.393 I2.123 J-0.225
G2 X116.392 Y93.54 I-16.091 J-2.184
G3 X116.301 Y90.686 I152.257 J-6.276
G1 X116.296 Y90.581
X116.285 Y90.476
X116.258 Y90.268
G3 X116.257 Y89.758 I2.119 J-0.26
G2 X116.339 Y88.334 I-11.928 J-1.402
G3 X116.365 Y86.908 I35.559 J-0.066
G2 X116.377 Y85.251 I-26.723 J-1.023
X116.254 Y83.6 I-16.483 J0.39
G3 X116.256 Y83.055 I2.119 J-0.264
G2 X116.414 Y80.097 I-18.791 J-2.486
X116.282 Y77.138 I-75.285 J1.876
G1 X116.271 Y77.031
X116.256 Y76.924
G3 X116.258 Y76.414 I2.121 J-0.246
G2 X116.346 Y74.85 I-11.566 J-1.438
G3 X116.368 Y73.284 I31.744 J-0.343
G2 X116.378 Y71.783 I-23.669 J-0.912
X116.259 Y70.286 I-13.75 J0.342
G3 X116.252 Y69.772 I2.116 J-0.285
G2 X116.253 Y63.578 I-28.793 J-3.102
G3 X116.259 Y63.069 I2.122 J-0.233
G2 X116.388 Y60.495 I-16.032 J-2.096
G3 X116.331 Y57.918 I175.838 J-5.198
G2 X116.259 Y56.941 I-8.374 J0.125
G3 X116.255 Y56.431 I2.118 J-0.272
G2 X116.252 Y50.244 I-27.52 J-3.079
G3 X116.259 Y49.722 I2.122 J-0.233
G2 X116.411 Y46.81 I-17.25 J-2.361
X116.292 Y43.896 I-162.589 J5.153
G1 X116.277 Y43.747
X116.257 Y43.599
G3 Y43.09 I2.12 J-0.257
G2 X116.348 Y41.285 I-13.148 J-1.568
G3 X116.367 Y39.478 I31.818 J-0.568
G2 X116.368 Y38.217 I-16.348 J-0.637
X116.258 Y36.961 I-12.916 J0.493
G3 X116.253 Y36.427 I2.116 J-0.289
G2 X116.256 Y30.254 I-26.769 J-3.099
G3 X116.258 Y29.744 I2.121 J-0.243
G2 X116.356 Y27.794 I-12.941 J-1.628
G3 X116.368 Y25.842 I32.068 J-0.793
G2 X116.259 Y23.614 I-13.139 J-0.475
G3 X116.252 Y23.105 I2.116 J-0.284
G2 X116.39 Y20.26 I-24.679 J-2.627
X116.31 Y17.413 I-73.56 J0.647
G1 X116.302 Y17.294
X116.289 Y17.176
X116.259 Y16.945
G3 X116.26 Y16.393 I2.117 J-0.275
G2 X116.355 Y14.098 I-12.873 J-1.684
G3 X116.301 Y11.802 I48.494 J-2.285
X116.808 Y11.295 I0.507
G1 X120.322
G3 X120.829 Y11.802 J0.507
G1 Y72.964
G2 X121.426 Y73.86 I0.971
G3 X122.024 Y74.756 I-0.373 J0.896
G1 Y109.392
G3 X121.517 Y109.899 I-0.507
G1 X115.525
G3 X115.089 Y109.428 J-0.437
G2 X115.234 Y106.581 I-55.261 J-4.227
X115.071 Y103.734 I-17.379 J-0.433
G3 X115.063 Y102.998 I2.822 J-0.396
G2 X115.237 Y99.998 I-24.151 J-2.903
X115.06 Y96.997 I-27.308 J0.11
G3 X115.068 Y96.279 I2.831 J-0.325
G2 X115.202 Y93.75 I-14.647 J-2.041
G3 X115.131 Y91.217 I239.295 J-7.91
G2 X115.069 Y90.384 I-7.902 J0.178
G3 X115.067 Y89.648 I2.825 J-0.375
G2 X115.15 Y88.256 I-10.291 J-1.312
G3 X115.171 Y86.862 I30.357 J-0.233
G2 X115.181 Y85.272 I-24.717 J-0.946
X115.061 Y83.686 I-16.202 J0.422
G3 X115.064 Y82.96 I2.828 J-0.353
G2 X115.217 Y80.088 I-18.244 J-2.413
X115.089 Y77.215 I-73.09 J1.821
G1 X115.079 Y77.123
X115.066 Y77.032
G3 X115.069 Y76.296 I2.827 J-0.356
G2 X115.158 Y74.769 I-10.087 J-1.355
G3 X115.175 Y73.238 I27.568 J-0.468
G2 X115.187 Y71.825 I-23.97 J-0.924
X115.071 Y70.416 I-11.438 J0.233
G3 X115.061 Y69.674 I2.82 J-0.409
G2 X115.063 Y63.679 I-25.493 J-3.003
G3 X115.07 Y62.943 I2.829 J-0.339
G2 X115.199 Y60.441 I-14.018 J-1.973
G3 X115.133 Y57.936 I111.46 J-4.167
G2 X115.115 Y57.499 I-8.27 J0.123
X115.07 Y57.064 I-6.256 J0.425
G3 X115.064 Y56.328 I2.823 J-0.391
G2 X115.178 Y53.874 I-16.256 J-1.981
G3 X115.141 Y51.418 I89.361 J-2.58
G2 X115.115 Y50.872 I-6.067 J0.008
X115.059 Y50.328 I-23.998 J2.201
G3 X115.071 Y49.589 I2.831 J-0.325
G2 X115.222 Y46.773 I-15.128 J-2.224
X115.097 Y43.955 I-260.098 J10.089
G1 X115.085 Y43.834
X115.068 Y43.713
G3 X115.067 Y42.978 I2.825 J-0.37
G2 X115.16 Y41.206 I-11.559 J-1.494
G3 X115.174 Y39.431 I28.27 J-0.673
G2 X115.172 Y38.245 I-14.661 J-0.571
X115.066 Y37.063 I-12.65 J0.531
G3 X115.059 Y36.35 I2.823 J-0.386
G2 X115.192 Y33.741 I-20.154 J-2.334
X115.128 Y31.131 I-119.971 J1.619
X115.065 Y30.361 I-8.295 J0.293
G3 X115.069 Y29.625 I2.828 J-0.352
G2 X115.166 Y27.713 I-11.253 J-1.528
G3 X115.168 Y25.798 I27.352 J-0.925
G2 X115.166 Y24.769 I-13.263 J-0.48
X115.071 Y23.744 I-10.125 J0.42
G3 X115.061 Y23.008 I2.82 J-0.406
G2 X115.201 Y20.24 I-21.107 J-2.457
X115.115 Y17.47 I-84.293 J1.234
G1 X115.108 Y17.369
X115.097 Y17.268
X115.07 Y17.067
G3 X115.071 Y16.27 I2.822 J-0.397
G2 X115.235 Y13.421 I-17.007 J-2.41
X115.09 Y10.572 I-56.191 J1.437
G3 X115.526 Y10.101 I0.436 J-0.033
G1 X121.517
G3 X122.024 Y10.608 J0.507
G1 Y74.756
G2 X122.59 Y75.606 I0.921
G3 X123.157 Y76.455 I-0.354 J0.85
G1 Y110.525
G3 X122.65 Y111.032 I-0.507
G1 X113.825
G3 X113.574 Y110.599 J-0.289
G2 X114.002 Y109.054 I-2.817 J-1.613
X114.026 Y107.45 I-137.978 J-2.859
G3 X114.055 Y105.666 I128.701 J1.171
G2 X113.947 Y103.884 I-10.736 J-0.247
G3 X113.937 Y102.871 I3.763 J-0.544
G2 X114.109 Y99.995 I-22.331 J-2.778
X113.933 Y97.119 I-25.338 J0.111
G3 X113.943 Y96.146 I3.776 J-0.448
G2 X114.068 Y93.695 I-13.89 J-1.936
G3 X113.995 Y91.243 I171.96 J-6.317
G2 X113.98 Y90.883 I-9.127 J0.205
X113.944 Y90.525 I-4.829 J0.299
G3 X113.942 Y89.512 I3.767 J-0.516
G2 X114.021 Y88.167 I-9.32 J-1.228
G3 X114.039 Y86.819 I26.522 J-0.333
G2 X114.048 Y85.309 I-23.341 J-0.894
X113.934 Y83.804 I-15.436 J0.407
G3 X113.938 Y82.834 I3.773 J-0.471
G2 X114.083 Y80.061 I-17.396 J-2.301
X113.957 Y77.288 I-74.275 J1.997
G1 X113.95 Y77.227
X113.941 Y77.166
G3 X113.945 Y76.153 I3.77 J-0.491
G2 X114.03 Y74.675 I-9.18 J-1.272
G3 X114.042 Y73.195 I24.352 J-0.542
G2 X114.057 Y71.881 I-23.897 J-0.921
X113.949 Y70.571 I-9.978 J0.164
G3 X113.935 Y69.549 I3.76 J-0.561
G2 X114.069 Y67.005 I-18.328 J-2.237
X113.992 Y64.458 I-94.15 J1.568
X113.937 Y63.806 I-8.119 J0.355
G3 X113.947 Y62.793 I3.773 J-0.467
G2 X114.068 Y60.374 I-12.746 J-1.848
G3 X113.996 Y57.953 I82.234 J-3.647
G2 X113.983 Y57.581 I-9.372 J0.14
X113.947 Y57.211 I-4.261 J0.233
G3 X113.939 Y56.198 I3.764 J-0.537
G2 X114.047 Y53.81 I-14.828 J-1.87
G3 X114.004 Y51.419 I71.658 J-2.49
G2 X113.982 Y50.933 I-5.696 J0.008
X113.933 Y50.45 I-15.373 J1.338
G3 X113.949 Y49.432 I3.775 J-0.449
G2 X114.091 Y46.596 I-14.086 J-2.13
G1 X113.963 Y44.012
X113.955 Y43.932
X113.943 Y43.853
G3 Y42.84 I3.768 J-0.51
G2 X114.031 Y41.115 I-10.516 J-1.404
G3 X114.038 Y39.387 I24.943 J-0.756
G2 Y38.288 I-13.813 J-0.538
X113.941 Y37.194 I-11.548 J0.469
G3 X113.933 Y36.227 I3.767 J-0.514
G2 X114.061 Y33.7 I-18.295 J-2.193
X113.993 Y31.171 I-147.609 J2.675
X113.975 Y30.831 I-8.523 J0.301
X113.94 Y30.493 I-6.404 J0.482
G3 X113.946 Y29.48 I3.771 J-0.486
G2 X114.036 Y27.62 I-10.191 J-1.427
G3 X114.03 Y25.757 I23.772 J-1.002
G2 X114.031 Y24.823 I-13.348 J-0.483
X113.948 Y23.893 I-8.333 J0.282
G3 X113.935 Y22.885 I3.762 J-0.553
G2 X114.07 Y20.205 I-19.149 J-2.309
X113.98 Y17.524 I-94.718 J1.818
G1 X113.968 Y17.37
X113.947 Y17.217
G3 X113.948 Y16.119 I3.763 J-0.547
G2 X114.1 Y13.557 I-14.819 J-2.167
X114.024 Y10.99 I-404.887 J10.692
X113.576 Y9.405 I-3.425 J0.112
G3 X113.83 Y8.968 I0.254 J-0.145
G1 X122.65
G3 X123.157 Y9.475 J0.507
G1 Y76.455
G2 X123.638 Y77.177 I0.782
G3 X124.119 Y77.899 I-0.301 J0.722
G1 Y111.498
G3 X123.622 Y111.995 I-0.497
G1 X111.576
G3 X111.378 Y111.595 J-0.249
G2 X111.544 Y111.352 I-2.403 J-1.824
X111.683 Y111.093 I-2.014 J-1.239
G3 X111.978 Y110.829 I0.447 J0.203
G2 X113.067 Y109.31 I-0.483 J-1.496
G3 X113.062 Y107.442 I78.922 J-1.151
X113.103 Y105.712 I57.968 J0.527
G2 X112.989 Y103.986 I-8.234 J-0.321
G3 X112.978 Y102.78 I3.671 J-0.635
G2 X113.078 Y101.334 I-8.402 J-1.303
G3 X113.081 Y99.884 I38.444 J-0.645
G2 X113.083 Y98.544 I-34.928 J-0.73
X112.974 Y97.207 I-10.472 J0.183
G3 X112.97 Y96.153 I3.687 J-0.54
G2 X113.099 Y93.71 I-14.113 J-1.967
G3 X113.03 Y91.264 I223.157 J-7.46
G2 X113.02 Y90.946 I-15.693 J0.353
X112.987 Y90.629 I-2.578 J0.11
G3 X112.983 Y89.414 I3.675 J-0.617
G2 X113.07 Y88.099 I-6.827 J-1.109
G3 X113.076 Y86.782 I19.382 J-0.576
G2 X113.089 Y85.318 I-25.331 J-0.97
X112.971 Y83.86 I-11.925 J0.232
G3 X112.967 Y82.831 I3.688 J-0.528
G2 X113.124 Y80.217 I-17.251 J-2.342
X113.019 Y77.601 I-53.794 J0.838
G1 X113.005 Y77.432
X112.982 Y77.263
G3 Y76.08 I3.679 J-0.592
G2 X113.104 Y73.465 I-11.487 J-1.844
G3 X113.015 Y70.848 I40.137 J-2.669
G1 X113.012 Y70.783
X113.001 Y70.718
X112.978 Y70.59
G3 X112.976 Y69.459 I3.682 J-0.571
G2 X113.123 Y66.981 I-13.415 J-2.039
X113.029 Y64.5 I-219.136 J7.099
X113.011 Y64.198 I-11.646 J0.509
X112.978 Y63.897 I-3.641 J0.254
G3 X112.979 Y62.76 I3.683 J-0.567
G2 X113.107 Y60.365 I-11.823 J-1.834
G3 X113.033 Y57.968 I74.824 J-3.513
G2 X113.019 Y57.616 I-7.785 J0.116
X112.981 Y57.266 I-3.611 J0.217
G3 X112.98 Y56.105 I3.68 J-0.585
G2 X113.101 Y53.764 I-11.207 J-1.753
G3 X113.039 Y51.42 I46.414 J-2.408
G2 X112.973 Y50.537 I-6.127 J0.008
G3 X112.976 Y49.425 I3.686 J-0.547
G2 X113.127 Y46.869 I-13.593 J-2.088
X113.02 Y44.311 I-164.314 J5.595
G1 X113.008 Y44.132
X112.985 Y43.955
G3 X112.984 Y42.74 I3.676 J-0.611
G2 X113.083 Y41.046 I-7.993 J-1.313
G3 X113.076 Y39.35 I19.722 J-0.928
G2 X112.968 Y37.185 I-12.238 J-0.477
G3 X112.974 Y36.137 I3.692 J-0.504
G2 X113.114 Y33.614 I-13.77 J-2.032
G1 X113.029 Y31.205
G2 X113.015 Y30.896 I-13.194 J0.465
X112.981 Y30.589 I-3.102 J0.182
G3 X112.988 Y29.374 I3.679 J-0.587
G2 X113.089 Y27.549 I-7.899 J-1.35
G3 X113.067 Y25.722 I19.117 J-1.135
G2 X113.063 Y24.803 I-11.075 J-0.401
X112.974 Y23.888 I-9.272 J0.434
G3 X112.976 Y22.795 I3.686 J-0.542
G2 X113.125 Y20.183 I-14.176 J-2.12
X113.018 Y17.569 I-198.264 J6.808
G1 X113.006 Y17.435
X112.986 Y17.302
G3 X112.989 Y16.021 I3.672 J-0.633
G2 X113.143 Y13.54 I-10.91 J-1.926
G3 X113.081 Y11.054 I49.26 J-2.474
G2 X112.841 Y9.93 I-2.747 J-0.001
X111.981 Y9.168 I-1.274 J0.571
G3 X111.681 Y8.904 I0.146 J-0.469
G2 X111.543 Y8.646 I-2.211 J1.016
X111.378 Y8.405 I-2.542 J1.562
G3 X111.576 Y8.005 I0.198 J-0.15
G1 X123.622
G3 X124.119 Y8.502 J0.497
G1 Y77.899
G2 X124.578 Y78.588 I0.746
G3 X125.037 Y79.276 I-0.287 J0.688
G1 Y112.858
X124.985 Y112.912
X77.155
X77.105 Y112.858
Y7.142
X77.155 Y7.088
X124.985
X125.037 Y7.142
Y79.276
X125.03 Y79.321
X125.011 Y79.363
X124.981 Y79.397
X124.942 Y79.421
X124.898 Y79.433
X112.26 Y81.011
X112.216
X112.174 Y80.998
X112.138 Y80.975
X112.108 Y80.942
X112.089 Y80.902
X112.082 Y80.859
X112.076 Y80.689
X112.093 Y79.679
Y77.661
X112.076 Y77.409
X112.02 Y77.156
X111.947 Y76.998
X111.844 Y76.856
X111.82 Y76.809
X111.743 Y76.715
X111.617 Y76.699
X111.49 Y76.78
X111.315 Y76.814
X111.198 Y76.804
X111.09 Y76.759
X111.042 Y76.718
X111.022 Y76.652
X111.041 Y76.615
X111.08 Y76.578
X111.139 Y76.547
X111.198 Y76.528
X111.315 Y76.519
X111.432 Y76.535
X111.617 Y76.609
X111.743 Y76.59
X111.845 Y76.499
X111.995 Y76.227
X112.028 Y76.147
X112.062 Y76.021
X112.082 Y75.895
X112.094 Y75.643
X112.093 Y74.633
X112.073 Y73.624
X112.092 Y73.12
X112.089 Y70.849
X112.05 Y70.597
X111.995 Y70.426
X111.893 Y70.259
X111.856 Y70.217
X111.787 Y70.092
X111.756 Y70.058
X111.678 Y70.022
X111.49 Y70.113
X111.34 Y70.143
X111.24 Y70.142
X111.14 Y70.117
X111.09 Y70.092
X111.03 Y70.031
X111.027 Y69.971
X111.093 Y69.902
X111.159 Y69.872
X111.29 Y69.85
X111.44 Y69.869
X111.49 Y69.892
X111.678 Y69.943
X111.756 Y69.916
X111.865 Y69.803
X111.995 Y69.56
X112.04 Y69.441
X112.069 Y69.321
X112.093 Y69.083
X112.092 Y67.569
X112.073 Y67.064
X112.093 Y66.055
Y64.541
X112.071 Y64.037
X112.042 Y63.898
X111.995 Y63.759
X111.934 Y63.646
X111.848 Y63.532
X111.79 Y63.43
X111.669 Y63.355
X111.58 Y63.385
X111.49 Y63.447
X111.314 Y63.481
X111.197 Y63.47
X111.138 Y63.45
X111.08 Y63.419
X111.036 Y63.377
X111.021 Y63.336
X111.047 Y63.275
X111.092 Y63.236
X111.197 Y63.195
X111.314 Y63.186
X111.432 Y63.202
X111.58 Y63.267
X111.669 Y63.277
X111.79 Y63.225
X111.959 Y62.96
X111.995 Y62.893
X112.058 Y62.708
X112.086 Y62.523
X112.093 Y61.514
Y61.009
X112.076 Y60.
X112.093 Y59.495
Y57.982
X112.085 Y57.477
X112.055 Y57.285
X111.995 Y57.092
X111.93 Y56.972
X111.873 Y56.903
X111.833 Y56.834
X111.71 Y56.696
X111.6 Y56.706
X111.49 Y56.78
X111.314 Y56.814
X111.197 Y56.804
X111.138 Y56.784
X111.08 Y56.752
X111.036 Y56.711
X111.021 Y56.669
X111.047 Y56.608
X111.092 Y56.569
X111.197 Y56.528
X111.314 Y56.519
X111.432 Y56.535
X111.49 Y56.559
X111.678 Y56.61
X111.772 Y56.572
X111.866 Y56.468
X111.995 Y56.227
X112.044 Y56.095
X112.073 Y55.963
X112.094 Y55.459
X112.089 Y53.945
X112.07 Y53.44
X112.087 Y52.936
X112.093 Y51.422
X112.092 Y50.917
X112.065 Y50.671
X111.989 Y50.413
X111.94 Y50.321
X111.865 Y50.229
X111.817 Y50.138
X111.74 Y50.046
X111.615 Y50.033
X111.49 Y50.113
X111.338 Y50.144
X111.223 Y50.142
X111.158 Y50.123
X111.093 Y50.094
X111.028 Y50.027
X111.029 Y49.967
X111.085 Y49.908
X111.186 Y49.862
X111.288 Y49.85
X111.44 Y49.869
X111.519 Y49.908
X111.644 Y49.945
X111.769 Y49.908
X111.903 Y49.734
X111.995 Y49.56
X112.051 Y49.403
X112.089 Y49.151
X112.093 Y47.385
X112.077 Y46.88
X112.079 Y46.376
X112.093 Y45.871
Y44.357
X112.08 Y44.105
X112.029 Y43.853
X111.995 Y43.759
X111.947 Y43.665
X111.844 Y43.523
X111.82 Y43.476
X111.743 Y43.381
X111.617 Y43.366
X111.49 Y43.447
X111.315 Y43.481
X111.198 Y43.471
X111.14 Y43.451
X111.081 Y43.42
X111.023 Y43.348
X111.042 Y43.281
X111.091 Y43.237
X111.198 Y43.194
X111.315 Y43.186
X111.432 Y43.202
X111.617 Y43.275
X111.743 Y43.256
X111.845 Y43.166
X111.995 Y42.893
X112.056 Y42.717
X112.079 Y42.591
X112.094 Y42.339
X112.093 Y40.825
X112.071 Y39.816
X112.091 Y39.311
Y37.545
X112.057 Y37.293
X111.995 Y37.092
X111.906 Y36.94
X111.848 Y36.864
X111.808 Y36.788
X111.649 Y36.69
X111.57 Y36.725
X111.53 Y36.759
X111.49 Y36.78
X111.292 Y36.813
X111.223 Y36.808
X111.099 Y36.765
X111.045 Y36.721
X111.021 Y36.655
X111.045 Y36.61
X111.096 Y36.566
X111.172 Y36.534
X111.284 Y36.517
X111.398 Y36.532
X111.49 Y36.559
X111.609 Y36.607
X111.728 Y36.597
X111.829 Y36.518
X111.882 Y36.44
X111.995 Y36.227
X112.038 Y36.115
X112.066 Y36.003
X112.092 Y35.779
X112.093 Y33.761
X112.074 Y33.256
X112.093 Y32.247
Y31.238
X112.075 Y30.733
X112.046 Y30.579
X111.995 Y30.426
X111.944 Y30.327
X111.864 Y30.229
X111.811 Y30.127
X111.699 Y30.026
X111.595 Y30.043
X111.49 Y30.113
X111.314 Y30.148
X111.197 Y30.137
X111.138 Y30.117
X111.08 Y30.085
X111.036 Y30.044
X111.021 Y30.003
X111.047 Y29.941
X111.092 Y29.903
X111.197 Y29.861
X111.314 Y29.853
X111.432 Y29.869
X111.595 Y29.937
X111.699 Y29.939
X111.845 Y29.832
X111.995 Y29.56
X112.054 Y29.39
X112.083 Y29.219
X112.094 Y28.715
X112.093 Y27.201
X112.075 Y26.192
X112.093 Y25.687
X112.088 Y24.173
X112.058 Y23.966
X111.995 Y23.759
X111.949 Y23.669
X111.858 Y23.556
X111.842 Y23.518
X111.72 Y23.367
X111.605 Y23.371
X111.49 Y23.447
X111.314 Y23.481
X111.197 Y23.47
X111.138 Y23.45
X111.08 Y23.419
X111.036 Y23.377
X111.021 Y23.336
X111.047 Y23.275
X111.092 Y23.236
X111.197 Y23.195
X111.314 Y23.186
X111.432 Y23.202
X111.668 Y23.277
X111.757 Y23.249
X111.846 Y23.164
X111.995 Y22.893
X112.04 Y22.776
X112.068 Y22.659
X112.093 Y22.407
X112.091 Y20.136
X112.071 Y19.632
X112.093 Y18.623
X112.092 Y17.613
X112.086 Y17.487
X112.043 Y17.235
X111.995 Y17.092
X111.943 Y16.992
X111.861 Y16.892
X111.81 Y16.792
X111.697 Y16.692
X111.637
X111.564 Y16.73
X111.527 Y16.762
X111.49 Y16.78
X111.325 Y16.814
X111.215 Y16.808
X111.095 Y16.762
X111.029 Y16.697
X111.022 Y16.651
X111.05 Y16.604
X111.105 Y16.56
X111.215 Y16.526
X111.325 Y16.521
X111.435 Y16.536
X111.595 Y16.604
X111.705
X111.8 Y16.549
X111.895 Y16.415
X111.995 Y16.227
X112.043 Y16.1
X112.087 Y15.847
X112.094 Y15.09
X112.093 Y13.577
X112.078 Y13.072
Y12.567
X112.093 Y12.063
Y11.054
X112.085 Y10.801
X112.039 Y10.549
X111.995 Y10.431
X111.942 Y10.335
X111.905 Y10.286
X111.834 Y10.15
X111.709 Y10.044
X111.609
X111.49 Y10.111
X111.32 Y10.145
X111.206 Y10.139
X111.092 Y10.097
X111.035 Y10.044
X111.016 Y9.972
X110.966 Y9.648
X110.899 Y9.414
X110.847 Y9.288
X110.783 Y9.161
X110.704 Y9.035
X110.604 Y8.903
X110.48 Y8.771
X110.323 Y8.636
X110.165 Y8.531
X109.976 Y8.434
X109.849 Y8.385
X109.723 Y8.347
X109.471 Y8.291
X108.966 Y8.197
X108.208 Y8.094
X107.956 Y8.09
X107.703 Y8.12
X107.451 Y8.184
X107.009 Y8.33
X106.946 Y8.332
X106.82 Y8.297
X106.567 Y8.171
X106.307 Y8.068
X106.055 Y7.995
X105.81 Y7.949
X105.684 Y7.937
X104.421 Y7.916
X104.169 Y7.918
X103.916 Y7.936
X103.664 Y7.967
X103.411 Y8.012
X102.975 Y8.035
X102.524 Y7.986
X102.149 Y7.93
X101.897 Y7.914
X100.382 Y7.912
X100.003 Y7.929
X99.498 Y8.
X99.142 Y8.038
X98.741 Y8.013
X98.362 Y7.951
X98.11 Y7.926
X97.857 Y7.915
X96.469 Y7.937
X96.249 Y7.961
X95.969 Y8.026
X95.711 Y8.113
X95.459 Y8.228
X95.332 Y8.294
X95.206 Y8.332
X95.143 Y8.33
X95.08 Y8.317
X94.828 Y8.227
X94.575 Y8.151
X94.323 Y8.102
X94.07 Y8.088
X93.818 Y8.106
X93.313 Y8.175
X92.808 Y8.263
X92.429 Y8.345
X92.303 Y8.382
X92.059 Y8.485
X91.888 Y8.587
X91.694 Y8.74
X91.59 Y8.844
X91.438 Y9.035
X91.358 Y9.163
X91.293 Y9.292
X91.242 Y9.416
X91.172 Y9.666
X91.124 Y9.981
X91.106 Y10.044
X91.027 Y10.11
X90.947 Y10.14
X90.828 Y10.151
X90.648 Y10.116
X90.509 Y10.044
X90.454
X90.368 Y10.087
X90.283 Y10.2
X90.236 Y10.287
X90.176 Y10.375
X90.105 Y10.549
X90.058 Y10.801
X90.049 Y11.054
Y12.063
X90.063 Y12.567
X90.062 Y13.072
X90.049 Y13.577
Y15.595
X90.056 Y15.847
X90.099 Y16.1
X90.171 Y16.283
X90.283 Y16.466
X90.404 Y16.604
X90.565
X90.677 Y16.543
X90.826 Y16.516
X90.94 Y16.526
X91.016 Y16.551
X91.092 Y16.604
X91.121 Y16.655
X91.11 Y16.705
X91.067 Y16.748
X91.025 Y16.775
X90.94 Y16.805
X90.826 Y16.813
X90.677 Y16.789
X90.578 Y16.729
X90.48 Y16.704
X90.382 Y16.738
X90.283 Y16.859
X90.142 Y17.109
X90.098 Y17.235
X90.071 Y17.361
X90.049 Y17.613
Y18.623
X90.07 Y19.632
X90.051 Y20.136
X90.049 Y22.407
X90.075 Y22.659
X90.103 Y22.778
X90.145 Y22.896
X90.212 Y23.015
X90.255 Y23.074
X90.301 Y23.164
X90.409 Y23.274
X90.536 Y23.283
X90.599 Y23.253
X90.662 Y23.211
X90.83 Y23.183
X90.955 Y23.196
X91.038 Y23.229
X91.1 Y23.28
X91.122 Y23.332
X91.101 Y23.384
X91.038 Y23.436
X90.955 Y23.469
X90.83 Y23.48
X90.662 Y23.453
X90.599 Y23.407
X90.536 Y23.378
X90.409 Y23.387
X90.283 Y23.525
X90.226 Y23.633
X90.2 Y23.669
X90.134 Y23.795
X90.093 Y23.921
X90.054 Y24.173
X90.049 Y25.687
X90.066 Y26.192
X90.049 Y27.201
Y28.715
X90.06 Y29.219
X90.111 Y29.472
X90.161 Y29.598
X90.264 Y29.762
X90.283 Y29.8
X90.409 Y29.941
X90.536 Y29.949
X90.599 Y29.92
X90.662 Y29.877
X90.83 Y29.85
X90.955 Y29.863
X91.038 Y29.895
X91.1 Y29.947
X91.122 Y29.998
X91.101 Y30.05
X91.038 Y30.103
X90.955 Y30.136
X90.83 Y30.147
X90.662 Y30.119
X90.599 Y30.074
X90.536 Y30.045
X90.409 Y30.054
X90.283 Y30.192
X90.233 Y30.292
X90.188 Y30.355
X90.126 Y30.481
X90.088 Y30.607
X90.065 Y30.733
X90.049 Y31.238
Y32.247
X90.067 Y33.256
X90.049 Y33.761
X90.051 Y35.779
X90.083 Y36.031
X90.117 Y36.158
X90.171 Y36.284
X90.283 Y36.466
X90.409 Y36.607
X90.536 Y36.616
X90.635 Y36.562
X90.83 Y36.516
X90.955 Y36.529
X91.038 Y36.562
X91.096 Y36.609
X91.121 Y36.657
X91.097 Y36.723
X91.044 Y36.765
X90.94 Y36.805
X90.839 Y36.816
X90.67 Y36.788
X90.536 Y36.712
X90.409 Y36.721
X90.329 Y36.788
X90.157 Y37.076
X90.084 Y37.293
X90.051 Y37.545
Y39.311
X90.069 Y39.816
X90.049 Y40.825
Y42.339
X90.065 Y42.591
X90.087 Y42.717
X90.124 Y42.844
X90.194 Y42.988
X90.249 Y43.061
X90.283 Y43.133
X90.409 Y43.274
X90.536 Y43.283
X90.599 Y43.253
X90.662 Y43.211
X90.829 Y43.183
X90.954 Y43.196
X91.036 Y43.228
X91.107 Y43.288
X91.119 Y43.348
X91.094 Y43.393
X91.036 Y43.437
X90.954 Y43.469
X90.829 Y43.48
X90.662 Y43.453
X90.536 Y43.379
X90.409 Y43.387
X90.283 Y43.525
X90.245 Y43.607
X90.187 Y43.689
X90.113 Y43.853
X90.06 Y44.105
X90.049 Y44.357
Y45.871
X90.062 Y46.376
X90.063 Y46.88
X90.049 Y47.385
X90.053 Y49.151
X90.092 Y49.403
X90.163 Y49.602
X90.259 Y49.75
X90.283 Y49.8
X90.363 Y49.908
X90.49 Y49.958
X90.617 Y49.908
X90.659 Y49.877
X90.855 Y49.852
X90.922 Y49.858
X90.99 Y49.875
X91.057 Y49.908
X91.113 Y49.966
X91.116 Y50.024
X91.067 Y50.081
X91.019 Y50.111
X90.922 Y50.14
X90.855 Y50.147
X90.662 Y50.119
X90.536 Y50.045
X90.409 Y50.054
X90.283 Y50.192
X90.156 Y50.413
X90.107 Y50.539
X90.076 Y50.665
X90.049 Y50.917
X90.055 Y52.936
X90.071 Y53.44
X90.052 Y53.945
X90.049 Y55.459
X90.07 Y55.963
X90.097 Y56.089
X90.139 Y56.215
X90.206 Y56.341
X90.253 Y56.403
X90.284 Y56.468
X90.409 Y56.607
X90.536 Y56.616
X90.599 Y56.586
X90.662 Y56.544
X90.83 Y56.516
X90.955 Y56.53
X91.038 Y56.562
X91.1 Y56.613
X91.122 Y56.665
X91.101 Y56.717
X91.038 Y56.769
X90.955 Y56.802
X90.83 Y56.814
X90.662 Y56.786
X90.599 Y56.74
X90.536 Y56.712
X90.409 Y56.721
X90.283 Y56.859
X90.147 Y57.099
X90.101 Y57.225
X90.056 Y57.477
X90.049 Y58.486
Y59.495
X90.065 Y60.
X90.049 Y61.009
Y62.018
X90.057 Y62.523
X90.102 Y62.775
X90.147 Y62.901
X90.283 Y63.133
X90.409 Y63.274
X90.536 Y63.283
X90.599 Y63.253
X90.662 Y63.211
X90.83 Y63.183
X90.955 Y63.196
X91.038 Y63.229
X91.1 Y63.28
X91.122 Y63.332
X91.101 Y63.384
X91.038 Y63.436
X90.955 Y63.469
X90.83 Y63.48
X90.662 Y63.453
X90.599 Y63.407
X90.536 Y63.378
X90.409 Y63.387
X90.279 Y63.532
X90.25 Y63.595
X90.138 Y63.785
X90.096 Y63.911
X90.07 Y64.037
X90.049 Y64.541
Y66.055
X90.068 Y67.064
X90.05 Y67.569
Y69.083
X90.077 Y69.335
X90.108 Y69.461
X90.156 Y69.587
X90.257 Y69.747
X90.283 Y69.8
X90.409 Y69.941
X90.536 Y69.949
X90.599 Y69.92
X90.662 Y69.877
X90.854 Y69.852
X90.969 Y69.868
X91.019 Y69.885
X91.068 Y69.915
X91.117 Y69.975
X91.112 Y70.033
X91.053 Y70.092
X90.986 Y70.123
X90.854 Y70.147
X90.667 Y70.121
X90.627 Y70.092
X90.492 Y70.037
X90.356 Y70.092
X90.283 Y70.192
X90.231 Y70.293
X90.165 Y70.394
X90.091 Y70.597
X90.053 Y70.849
X90.05 Y73.12
X90.068 Y73.624
X90.049 Y74.633
Y75.643
X90.061 Y75.895
X90.114 Y76.147
X90.185 Y76.307
X90.263 Y76.427
X90.283 Y76.466
X90.409 Y76.607
X90.536 Y76.616
X90.599 Y76.586
X90.662 Y76.544
X90.83 Y76.516
X90.954 Y76.529
X91.037 Y76.561
X91.094 Y76.607
X91.12 Y76.652
X91.106 Y76.711
X91.037 Y76.77
X90.954 Y76.803
X90.83 Y76.814
X90.662 Y76.786
X90.536 Y76.712
X90.409 Y76.721
X90.283 Y76.859
X90.223 Y76.97
X90.196 Y77.008
X90.123 Y77.156
X90.086 Y77.283
X90.064 Y77.409
X90.049 Y77.661
Y79.679
X90.065 Y80.689
X90.049 Y81.193
X90.051 Y82.455
X90.085 Y82.707
X90.156 Y82.92
X90.257 Y83.08
X90.335 Y83.212
X90.408 Y83.273
X90.532 Y83.284
X90.611 Y83.245
X90.655 Y83.212
X90.841 Y83.184
X90.946 Y83.193
X91.048 Y83.235
X91.097 Y83.277
X91.12 Y83.341
X91.097 Y83.389
X91.037 Y83.437
X90.954 Y83.469
X90.83 Y83.48
X90.69 Y83.457
X90.532 Y83.377
X90.408 Y83.388
X90.283 Y83.525
X90.236 Y83.621
X90.171 Y83.716
X90.116 Y83.842
X90.082 Y83.969
X90.051 Y84.221
X90.053 Y86.744
X90.072 Y87.248
X90.054 Y87.753
X90.049 Y88.762
X90.066 Y89.267
X90.089 Y89.393
X90.127 Y89.519
X90.188 Y89.645
X90.283 Y89.8
X90.409 Y89.941
X90.536 Y89.949
X90.599 Y89.92
X90.662 Y89.877
X90.83 Y89.85
X90.955 Y89.863
X91.038 Y89.895
X91.1 Y89.947
X91.122 Y89.998
X91.101 Y90.05
X91.038 Y90.103
X90.955 Y90.136
X90.83 Y90.147
X90.662 Y90.119
X90.599 Y90.074
X90.536 Y90.045
X90.409 Y90.054
X90.283 Y90.192
X90.244 Y90.276
X90.161 Y90.402
X90.11 Y90.528
X90.059 Y90.781
X90.049 Y91.285
Y93.304
X90.064 Y93.808
X90.062 Y94.313
X90.049 Y94.818
X90.054 Y95.827
X90.094 Y96.079
X90.135 Y96.205
X90.2 Y96.331
X90.251 Y96.399
X90.283 Y96.466
X90.409 Y96.607
X90.536 Y96.616
X90.599 Y96.586
X90.662 Y96.544
X90.83 Y96.516
X90.955 Y96.53
X91.038 Y96.562
X91.1 Y96.613
X91.122 Y96.665
X91.101 Y96.717
X91.038 Y96.769
X90.955 Y96.802
X90.83 Y96.814
X90.662 Y96.786
X90.599 Y96.74
X90.536 Y96.712
X90.409 Y96.721
X90.296 Y96.836
X90.146 Y97.1
X90.102 Y97.22
X90.075 Y97.341
X90.049 Y97.593
Y99.864
X90.069 Y100.873
X90.05 Y101.377
X90.049 Y102.387
X90.072 Y102.639
X90.099 Y102.765
X90.143 Y102.891
X90.21 Y103.012
X90.254 Y103.073
X90.283 Y103.133
X90.383 Y103.258
X90.483 Y103.291
X90.583 Y103.262
X90.633 Y103.229
X90.683 Y103.209
X90.826 Y103.183
X90.94 Y103.192
X91.025 Y103.221
X91.067 Y103.248
X91.11 Y103.294
X91.12 Y103.345
X91.092 Y103.396
X91.016 Y103.446
X90.94 Y103.472
X90.826 Y103.479
X90.683 Y103.456
X90.578 Y103.396
X90.394
X90.283 Y103.525
X90.238 Y103.619
X90.173 Y103.713
X90.099 Y103.9
X90.055 Y104.153
X90.049 Y104.91
Y106.928
X90.067 Y107.433
X90.049 Y108.442
Y108.946
X90.057 Y109.199
X90.104 Y109.451
X90.176 Y109.627
X90.261 Y109.758
X90.283 Y109.802
X90.364 Y109.911
X90.446 Y109.956
X90.518
X90.653 Y109.882
X90.828 Y109.851
X90.947 Y109.862
X91.027 Y109.891
X91.107 Y109.956
X91.134 Y110.082
X91.172 Y110.334
X91.242 Y110.584
X91.293 Y110.708
X91.358 Y110.837
X91.438 Y110.965
X91.59 Y111.156
X91.694 Y111.26
X91.888 Y111.413
X92.059 Y111.515
X92.303 Y111.618
X92.555 Y111.684
X92.808 Y111.737
X93.313 Y111.825
X93.944 Y111.907
X94.196 Y111.909
X94.449 Y111.878
X94.575 Y111.849
X94.828 Y111.773
X95.08 Y111.683
X95.143 Y111.67
X95.206 Y111.668
X95.332 Y111.706
X95.585 Y111.833
X95.837 Y111.933
X96.156 Y112.021
X96.342 Y112.052
X96.595 Y112.068
X97.857 Y112.085
X98.11 Y112.074
X98.362 Y112.049
X98.741 Y111.987
X99.142 Y111.962
X99.624 Y112.015
X100.003 Y112.071
X100.382 Y112.088
X101.897 Y112.086
X102.275 Y112.055
X102.646 Y111.999
X102.975 Y111.965
X103.411 Y111.988
X103.664 Y112.033
X103.916 Y112.064
X104.169 Y112.082
X105.431 Y112.07
X105.684 Y112.063
X105.936 Y112.031
X106.173 Y111.974
X106.441 Y111.883
X106.693 Y111.767
X106.82 Y111.703
X106.946 Y111.668
X107.009 Y111.67
X107.577 Y111.851
X107.83 Y111.899
X108.082 Y111.912
X108.208 Y111.906
X108.966 Y111.803
X109.471 Y111.709
X109.723 Y111.653
X109.849 Y111.615
X110.07 Y111.521
X110.244 Y111.42
X110.402 Y111.301
X110.48 Y111.229
X110.604 Y111.097
X110.704 Y110.965
X110.783 Y110.839
X110.847 Y110.712
X110.899 Y110.586
X110.966 Y110.352
X111.021 Y109.992
X111.035 Y109.956
X111.092 Y109.905
X111.206 Y109.859
X111.32 Y109.853
X111.49 Y109.883
X111.624 Y109.956
X111.696
X111.832 Y109.847
X111.906 Y109.714
X111.942 Y109.665
X111.995 Y109.569
X112.038 Y109.451
X112.085 Y109.199
X112.093 Y108.946
Y108.442
X112.074 Y107.433
X112.093 Y106.928
Y104.405
X112.086 Y104.153
X112.043 Y103.9
X111.995 Y103.759
X111.949 Y103.668
X111.848 Y103.532
X111.826 Y103.487
X111.76 Y103.396
X111.673 Y103.355
X111.565 Y103.396
X111.528 Y103.428
X111.49 Y103.447
X111.326 Y103.481
X111.216 Y103.475
X111.106 Y103.437
X111.051 Y103.396
X111.023 Y103.348
X111.029 Y103.3
X111.095 Y103.234
X111.161 Y103.205
X111.271 Y103.186
X111.435 Y103.202
X111.49 Y103.225
X111.673 Y103.277
X111.792 Y103.224
X111.874 Y103.122
X111.929 Y103.008
X111.996 Y102.891
X112.043 Y102.765
X112.071 Y102.639
X112.094 Y102.387
X112.092 Y101.377
X112.072 Y100.873
X112.093 Y99.864
X112.092 Y97.593
X112.066 Y97.341
X112.038 Y97.216
X111.995 Y97.092
X111.924 Y96.964
X111.869 Y96.9
X111.834 Y96.836
X111.712 Y96.697
X111.601 Y96.706
X111.49 Y96.78
X111.314 Y96.814
X111.197 Y96.804
X111.138 Y96.784
X111.08 Y96.752
X111.036 Y96.711
X111.021 Y96.669
X111.047 Y96.608
X111.092 Y96.569
X111.197 Y96.528
X111.314 Y96.519
X111.432 Y96.535
X111.601 Y96.606
X111.712 Y96.602
X111.867 Y96.467
X111.933 Y96.331
X111.995 Y96.227
X112.061 Y96.027
X112.089 Y95.827
X112.093 Y94.818
X112.079 Y94.313
X112.077 Y93.808
X112.093 Y93.304
Y91.285
X112.081 Y90.781
X112.051 Y90.603
X111.995 Y90.426
X111.908 Y90.276
X111.854 Y90.214
X111.785 Y90.09
X111.699 Y90.026
X111.595 Y90.043
X111.49 Y90.113
X111.314 Y90.148
X111.197 Y90.137
X111.138 Y90.117
X111.08 Y90.085
X111.036 Y90.044
X111.021 Y90.003
X111.047 Y89.941
X111.092 Y89.903
X111.197 Y89.861
X111.314 Y89.853
X111.432 Y89.869
X111.595 Y89.937
X111.699 Y89.939
X111.785 Y89.896
X111.883 Y89.771
X111.933 Y89.666
X111.995 Y89.56
X112.048 Y89.413
X112.077 Y89.267
X112.094 Y88.762
X112.088 Y87.753
X112.069 Y87.248
X112.088 Y86.744
X112.091 Y84.221
X112.063 Y83.99
X111.995 Y83.759
X111.924 Y83.631
X111.854 Y83.545
X111.733 Y83.375
X111.612 Y83.368
X111.49 Y83.447
X111.317 Y83.481
X111.207 Y83.474
X111.096 Y83.43
X111.045 Y83.388
X111.023 Y83.347
X111.043 Y83.279
X111.093 Y83.235
X111.184 Y83.196
X111.306 Y83.184
X111.469 Y83.212
X111.49 Y83.225
X111.648 Y83.278
X111.805 Y83.212
X111.91 Y83.052
X111.995 Y82.893
X112.058 Y82.707
X112.091 Y82.455
X112.093 Y81.193
X112.082 Y80.859
X112.087 Y80.813
X112.106 Y80.771
X112.135 Y80.735
X112.174 Y80.71
X112.219 Y80.697
X112.265
X116.237 Y81.311
X116.264 Y81.32
X116.288 Y81.334
X119.314 Y83.412
G3 X119.3 Y83.682 I-0.09 J0.131
S70000
X118.918 Y82.986 Z-4.982 I-0.191 J-0.348
X119.3 Y83.682 Z-5.202 I0.191 J0.348
X118.918 Y82.986 Z-5.422 I-0.191 J-0.348
X119.3 Y83.682 Z-5.642 I0.191 J0.348
X118.918 Y82.986 Z-5.862 I-0.191 J-0.348
X119.506 Y83.334 Z-6.007 I0.191 J0.348
S7000
G1 Y108.421
G3 X119.299 Y108.628 I-0.207
G1 X119.236
G3 X119.03 Y108.421 J-0.207
X119.097 Y105.904 I46.996
G2 X118.897 Y103.393 I-9.451 J-0.507
G1 X118.89 Y103.335
X118.896 Y103.277
G2 X119.011 Y102.709 I-27.797 J-5.904
X119.065 Y102.133 I-3.01 J-0.575
G3 X119.137 Y99.428 I50.752 J-0.013
G2 X118.898 Y96.733 I-9.587 J-0.509
G1 X118.891 Y96.672
X118.897 Y96.61
G2 X119.019 Y95.969 I-11.945 J-2.596
X119.071 Y95.319 I-3.996 J-0.647
G3 X119.134 Y92.687 I52.961 J-0.043
G2 X118.899 Y90.065 I-9.528 J-0.466
G1 X118.891 Y90.003
X118.898 Y89.942
G2 X119.015 Y89.354 I-13.756 J-3.048
X119.067 Y88.757 I-3.342 J-0.593
G3 X119.132 Y86.072 I52.903 J-0.062
G2 X118.899 Y83.396 I-9.841 J-0.489
G1 X118.892 Y83.334
X118.898 Y83.273
G2 X119.17 Y80.481 I-10.947 J-2.473
X119.053 Y77.678 I-107.485 J3.056
X118.995 Y77.199 I-3.652 J0.199
X118.898 Y76.727 I-14.248 J2.689
G1 X118.891 Y76.665
X118.899 Y76.604
G2 X119.143 Y74.07 I-9.548 J-2.198
G3 X119.075 Y71.525 I161.998 J-5.555
G2 X119.023 Y70.787 I-7.003 J0.13
X118.897 Y70.058 I-8.035 J1.003
G1 X118.891 Y69.997
X118.898 Y69.935
G2 X119.137 Y67.244 I-9.301 J-2.182
G3 X119.066 Y64.543 I50.163 J-2.679
G2 X119.012 Y63.963 I-3.132 J-0.001
X118.896 Y63.391 I-22.8 J4.292
G1 X118.89 Y63.332
X118.897 Y63.273
G2 X119.165 Y60.377 I-11.384 J-2.514
X119.031 Y57.472 I-107.803 J3.529
X118.979 Y57.099 I-2.419 J0.145
X118.897 Y56.73 I-67.839 J14.852
G1 X118.89 Y56.671
X118.897 Y56.611
G2 X119.012 Y56.038 I-21.928 J-4.711
X119.066 Y55.457 I-3.09 J-0.58
G3 X119.137 Y52.756 I50.305 J-0.024
G2 X118.898 Y50.066 I-9.55 J-0.509
G1 X118.891 Y50.004
X118.898 Y49.943
G2 X119.052 Y48.919 I-7.656 J-1.679
X119.095 Y47.884 I-12.156 J-1.02
G3 X119.123 Y45.635 I81.656 J-0.101
G2 X118.899 Y43.397 I-8.933 J-0.235
G1 X118.892 Y43.335
X118.898 Y43.274
G2 X119.133 Y40.768 I-9.743 J-2.178
G3 X119.078 Y38.252 I118.866 J-3.9
G2 X118.898 Y36.728 I-7.292 J0.085
G1 X118.892 Y36.667
X118.899 Y36.605
G2 X119.132 Y33.929 I-9.595 J-2.187
G3 X119.067 Y31.243 I52.722 J-2.627
G2 X119.015 Y30.646 I-3.389 J-0.004
X118.898 Y30.059 I-13.984 J2.483
G1 X118.891 Y29.998
X118.898 Y29.936
G2 X119.163 Y27.223 I-10.178 J-2.364
X119.061 Y24.498 I-333.952 J11.194
X119.003 Y23.941 I-4.483 J0.187
X118.897 Y23.391 I-11.729 J1.972
G1 X118.891 Y23.33
X118.898 Y23.269
G2 X119.134 Y20.572 I-9.564 J-2.197
G3 X119.065 Y17.866 I53.016 J-2.707
G2 X119.011 Y17.291 I-3.082
X118.896 Y16.726 I-22.942 J4.351
G1 X118.89 Y16.668
X118.896 Y16.61
G2 X119.095 Y14.098 I-9.442 J-2.012
G3 X119.03 Y11.579 I48.562 J-2.519
X119.237 Y11.372 I0.207
G1 X119.299
G3 X119.506 Y11.579 J0.207
G1 Y83.334
G2 X120.1 Y84.225 I0.965
G3 X120.693 Y85.115 I-0.371 J0.891
G1 Y109.308
G3 X120.186 Y109.815 I-0.507
G1 X118.209
G3 X117.8 Y109.349 J-0.413
G2 X117.922 Y106.976 I-14.991 J-1.964
G1 X117.85 Y104.321
G2 X117.803 Y103.941 I-1.967 J0.053
G1 X117.726 Y103.598
G3 Y103.07 I1.168 J-0.263
G2 X117.825 Y102.606 I-17.753 J-4.018
X117.871 Y102.133 I-2.37 J-0.472
G3 X117.948 Y99.534 I43.341 J-0.011
G2 X117.728 Y96.943 I-8.998 J-0.538
G3 X117.727 Y96.4 I1.166 J-0.273
G2 X117.833 Y95.864 I-7.97 J-1.848
X117.876 Y95.32 I-3.335 J-0.542
G3 X117.956 Y92.801 I38.986 J-0.032
G2 X117.731 Y90.29 I-8.252 J-0.528
G3 X117.729 Y89.727 I1.163 J-0.287
G2 X117.829 Y89.247 I-9.144 J-2.163
X117.873 Y88.759 I-2.667 J-0.485
G3 X117.954 Y86.183 I39.387 J-0.046
G2 X117.731 Y83.617 I-8.538 J-0.549
G3 X117.73 Y83.054 I1.164 J-0.282
G2 X117.936 Y81.119 I-7.285 J-1.755
G3 X117.913 Y79.174 I81.987 J-1.97
G2 X117.886 Y78.053 I-24.094 J0.007
X117.729 Y76.943 I-5.994 J0.281
G3 X117.731 Y76.38 I1.165 J-0.278
G2 X117.963 Y73.969 I-8.17 J-2.003
G3 X117.882 Y71.548 I80.796 J-3.923
G2 X117.839 Y70.905 I-6.601 J0.123
X117.728 Y70.27 I-5.642 J0.659
G3 X117.729 Y69.721 I1.166 J-0.273
G2 X117.951 Y67.135 I-8.605 J-2.043
G3 X117.871 Y64.541 I42.188 J-2.594
G2 X117.825 Y64.066 I-2.473
X117.726 Y63.599 I-14.985 J2.934
G3 X117.725 Y63.072 I1.167 J-0.267
G2 X117.979 Y60.438 I-10.482 J-2.34
X117.864 Y57.795 I-81.718 J2.233
X117.812 Y57.361 I-3.685 J0.22
X117.725 Y56.932 I-10.081 J1.816
G3 X117.726 Y56.402 I1.168 J-0.262
G2 X117.826 Y55.934 I-14.353 J-3.287
X117.872 Y55.457 I-2.438 J-0.476
G3 X117.959 Y52.871 I37.655 J-0.018
G2 X117.732 Y50.294 I-8.291 J-0.567
G3 X117.728 Y49.731 I1.162 J-0.29
G2 X117.868 Y48.813 I-5.729 J-1.342
X117.9 Y47.886 I-12.619 J-0.912
G3 X117.943 Y45.748 I50.174 J-0.062
G2 X117.731 Y43.62 I-7.611 J-0.315
G3 X117.729 Y43.058 I1.163 J-0.285
G2 X117.959 Y40.413 I-8.772 J-2.092
G3 X117.862 Y37.761 I53.442 J-3.275
G2 X117.819 Y37.35 I-2.228 J0.026
X117.73 Y36.947 I-10.445 J2.088
G3 X117.731 Y36.384 I1.164 J-0.28
G2 X117.954 Y33.817 I-8.304 J-2.017
G3 X117.873 Y31.241 I39.23 J-2.531
G2 X117.829 Y30.753 I-2.706 J-0.003
X117.729 Y30.273 I-9.312 J1.697
G3 X117.731 Y29.711 I1.165 J-0.275
G2 X117.956 Y27.199 I-8.075 J-1.988
G3 X117.876 Y24.678 I39.902 J-2.521
G2 X117.832 Y24.135 I-3.375
X117.727 Y23.601 I-8.149 J1.328
G3 Y23.063 I1.167 J-0.27
G2 X117.946 Y20.468 I-8.992 J-2.065
G3 X117.871 Y17.866 I45.319 J-2.603
G2 X117.824 Y17.395 I-2.403
X117.726 Y16.931 I-18.795 J3.758
G3 Y16.404 I1.168 J-0.264
G2 X117.954 Y13.681 I-9.644 J-2.179
G3 X117.833 Y10.951 I124.132 J-6.841
G1 X117.829 Y10.876
X117.82 Y10.801
X117.799 Y10.651
G3 X118.209 Y10.185 I0.41 J-0.054
G1 X120.186
G3 X120.693 Y10.692 J0.507
G1 Y85.115
G2 X121.249 Y85.949 I0.903
G3 X121.805 Y86.782 I-0.347 J0.833
G1 Y110.42
G3 X121.298 Y110.927 I-0.507
G1 X116.801
G3 X116.388 Y110.458 J-0.416
X116.53 Y109.924 I2.06 J0.262
G2 X116.698 Y109.398 I-3.042 J-1.262
X116.774 Y108.922 I-3.47 J-0.795
X116.795 Y108.442 I-5.327 J-0.481
G3 X116.85 Y106.128 I49.118
G2 X116.637 Y103.824 I-8.333 J-0.393
G3 X116.638 Y102.843 I2.078 J-0.489
G2 X116.716 Y102.492 I-13.063 J-3.088
X116.753 Y102.134 I-1.718 J-0.358
G3 X116.837 Y99.642 I36.407 J-0.01
G2 X116.636 Y97.157 I-8.379 J-0.573
G3 X116.64 Y96.168 I2.079 J-0.486
G2 X116.724 Y95.748 I-5.212 J-1.262
X116.758 Y95.32 I-2.674 J-0.425
G3 X116.853 Y92.925 I29.48 J-0.024
G2 X116.648 Y90.537 I-7.211 J-0.582
G3 X116.643 Y89.491 I2.068 J-0.533
G2 X116.721 Y89.129 I-5.995 J-1.483
X116.754 Y88.76 I-1.988 J-0.367
G3 X116.852 Y86.306 I30.088 J-0.035
G2 X116.646 Y83.859 I-7.48 J-0.603
G3 X116.645 Y82.813 I2.07 J-0.525
G2 X116.832 Y80.998 I-6.168 J-1.552
G3 X116.794 Y79.174 I44.467 J-1.838
G2 X116.78 Y78.173 I-35.71 J0.011
X116.644 Y77.181 I-4.647 J0.132
G3 X116.646 Y76.14 I2.072 J-0.516
G2 X116.847 Y73.876 I-6.912 J-1.754
G3 X116.766 Y71.606 I31.744 J-2.271
G2 X116.736 Y71.051 I-5.27
X116.641 Y70.504 I-4.123 J0.436
G3 X116.638 Y69.504 I2.074 J-0.507
G2 X116.84 Y67.026 I-8.008 J-1.901
G3 X116.753 Y64.541 I35.358 J-2.485
G2 X116.717 Y64.182 I-1.804
X116.639 Y63.828 I-10.636 J2.165
G3 X116.636 Y62.848 I2.077 J-0.495
G2 X116.836 Y60.418 I-8.104 J-1.89
G3 X116.757 Y57.982 I37.528 J-2.438
G2 X116.72 Y57.564 I-2.383
X116.636 Y57.153 I-7.877 J1.403
G3 X116.639 Y56.173 I2.08 J-0.484
G2 X116.717 Y55.819 I-10.134 J-2.423
X116.753 Y55.458 I-1.777 J-0.36
G3 X116.802 Y53.124 I54.124 J-0.026
G2 X116.705 Y50.792 I-13.802 J-0.589
G1 X116.694 Y50.727
X116.68 Y50.663
X116.649 Y50.543
G3 X116.641 Y49.498 I2.066 J-0.538
G2 X116.76 Y48.697 I-4.246 J-1.04
X116.782 Y47.887 I-14.433 J-0.792
G3 X116.84 Y45.872 I33.608 J-0.042
G2 X116.647 Y43.865 I-6.535 J-0.384
G3 X116.644 Y42.819 I2.069 J-0.529
G2 X116.855 Y40.3 I-7.673 J-1.913
G3 X116.744 Y37.774 I38.729 J-2.978
G2 X116.711 Y37.478 I-1.547 J0.018
X116.645 Y37.187 I-7.006 J1.454
G3 X116.646 Y36.141 I2.071 J-0.521
G2 X116.852 Y33.694 I-7.265 J-1.843
G3 X116.754 Y31.24 I29.936 J-2.42
G2 X116.72 Y30.871 I-2.017 J-0.002
X116.642 Y30.509 I-6.131 J1.133
G3 Y29.487 I2.073 J-0.512
G2 X116.845 Y27.086 I-7.482 J-1.842
G3 X116.758 Y24.678 I33.097 J-2.408
G2 X116.724 Y24.252 I-2.705
X116.64 Y23.833 I-5.344 J0.852
G3 X116.635 Y22.853 I2.075 J-0.501
G2 X116.835 Y20.363 I-8.36 J-1.924
G3 X116.753 Y17.866 I37.662 J-2.488
G2 X116.716 Y17.509 I-1.743
X116.637 Y17.158 I-13.953 J2.921
G3 X116.638 Y16.177 I2.078 J-0.49
G2 X116.851 Y13.872 I-8.096 J-1.91
G3 X116.796 Y11.558 I48.725 J-2.314
G2 X116.695 Y10.713 I-3.616
X116.457 Y9.896 I-8.532 J2.051
G1 X116.431 Y9.809
X116.413 Y9.721
X116.388 Y9.542
G3 X116.801 Y9.073 I0.413 J-0.052
G1 X121.298
G3 X121.805 Y9.58 J0.507
G1 Y86.782
G2 X122.358 Y87.612 I0.898
G3 X122.91 Y88.441 I-0.346 J0.829
G1 Y111.535
G3 X122.414 Y112.032 I-0.497
G1 X114.844
G3 X114.672 Y111.648 J-0.231
G2 X115.042 Y111.144 I-2.465 J-2.2
X115.284 Y110.568 I-1.91 J-1.143
G3 X115.475 Y109.865 I47.26 J12.451
G2 X115.655 Y109.159 I-14.852 J-4.151
X115.695 Y108.801 I-1.561 J-0.358
G1 Y108.442
G3 X115.702 Y106.41 I306.479 J0.003
G2 X115.681 Y104.379 I-60.352 J-0.401
X115.507 Y103.789 I-1.194 J0.032
G3 X115.432 Y103.177 I0.634 J-0.388
X115.603 Y102.666 I14.874 J4.694
G2 X115.695 Y102.134 I-1.502 J-0.532
G3 X115.75 Y99.87 I46.141
G2 X115.672 Y97.607 I-13.531 J-0.665
X115.518 Y97.137 I-1.249 J0.148
G3 X115.395 Y96.658 I0.828 J-0.468
X115.536 Y96.135 I1.091 J0.013
G2 X115.684 Y95.615 I-1.01 J-0.57
X115.712 Y93.386 I-37.579 J-1.587
G3 X115.692 Y91.158 I137.202 J-2.339
G2 X115.546 Y90.582 I-1.217 J0.001
G3 X115.396 Y90.007 I1.109 J-0.598
X115.53 Y89.475 I1.046 J-0.019
G2 X115.685 Y88.949 I-1.075 J-0.605
X115.724 Y86.711 I-23.954 J-1.537
G3 X115.69 Y84.472 I79.799 J-2.332
G2 X115.542 Y83.903 I-1.173 J0.001
G3 X115.394 Y83.334 I1.039 J-0.574
X115.542 Y82.769 I1.135 J-0.005
G2 X115.69 Y82.204 I-1.015 J-0.567
G3 X115.72 Y79.97 I96.819 J0.195
G2 X115.687 Y77.735 I-28.068 J-0.705
X115.532 Y77.202 I-1.225 J0.067
G3 X115.395 Y76.664 I0.934 J-0.524
X115.545 Y76.091 I1.233 J0.016
G2 X115.691 Y75.517 I-1.058 J-0.575
G3 X115.7 Y73.301 I422.025 J0.429
G2 X115.686 Y71.084 I-89.242 J-0.56
X115.535 Y70.538 I-1.141 J0.021
G3 X115.396 Y69.989 I0.914 J-0.523
X115.521 Y69.529 I0.999 J0.024
G2 X115.669 Y69.076 I-1.104 J-0.612
X115.754 Y66.809 I-12.666 J-1.605
G3 X115.695 Y64.541 I43.705 J-2.268
G2 X115.51 Y63.876 I-1.293
G3 X115.428 Y63.19 I0.724 J-0.435
G1 X115.602 Y62.633
G2 X115.696 Y62.018 I-1.97 J-0.614
G3 X115.719 Y59.845 I98.593
G2 X115.679 Y57.673 I-26.591 J-0.586
X115.506 Y57.164 I-1.017 J0.061
G3 X115.396 Y56.638 I0.591 J-0.398
X115.556 Y56.095 I2.646 J0.481
G2 X115.691 Y55.545 I-1.754 J-0.723
X115.742 Y53.357 I-16.049 J-1.47
G3 X115.693 Y51.169 I49.603 J-2.212
G2 X115.543 Y50.575 I-1.256 J0.001
G3 X115.397 Y49.981 I1.083 J-0.582
X115.541 Y49.444 I1.11 J0.011
G2 X115.686 Y48.908 I-0.962 J-0.547
X115.694 Y46.879 I-189.489 J-1.793
G1 X115.691 Y44.482
G2 X115.545 Y43.909 I-1.203 J0.001
G3 X115.396 Y43.336 I1.08 J-0.588
X115.538 Y42.782 I1.098 J-0.014
G2 X115.688 Y42.231 I-1.015 J-0.574
X115.695 Y38.291 I-116.414 J-2.179
X115.522 Y37.265 I-3.352 J0.039
G3 X115.539 Y36.225 I1.481 J-0.496
G2 X115.623 Y35.952 I-2.363 J-0.878
X115.68 Y35.671 I-3.088 J-0.763
G1 X115.688 Y35.6
X115.69 Y35.528
G3 X115.724 Y33.29 I81.324 J0.091
G2 X115.685 Y31.052 I-24.451 J-0.701
X115.532 Y30.518 I-1.286 J0.081
G3 X115.397 Y29.98 I0.984 J-0.534
X115.544 Y29.411 I1.189 J0.005
G2 X115.692 Y28.842 I-1.026 J-0.57
G3 X115.712 Y26.614 I139.066 J0.105
G2 X115.684 Y24.386 I-38.12 J-0.64
X115.536 Y23.864 I-1.167 J0.049
G3 X115.395 Y23.34 I0.964 J-0.54
X115.518 Y22.862 I0.94 J-0.013
G2 X115.672 Y22.393 I-1.083 J-0.616
X115.75 Y20.13 I-13.469 J-1.598
G3 X115.694 Y17.866 I46.088 J-2.264
G2 X115.602 Y17.321 I-1.652
G3 X115.426 Y16.796 I20.608 J-7.206
X115.473 Y16.344 I0.538 J-0.173
G2 X115.634 Y15.919 I-1.295 J-0.735
X115.687 Y15.506 I-2.442 J-0.52
X115.696 Y15.09 I-9.655 J-0.416
G3 X115.704 Y13.056 I251.971
G2 X115.678 Y11.022 I-49.44 J-0.399
X115.511 Y10.152 I-2.832 J0.094
G3 X115.247 Y9.307 I9.326 J-3.372
