%
O00001001
(T1  D=3.175 CR=1.587 - ZMIN=-11.521 - BALL END MILL)
G90 G94 G17
G21
G91
G28 Z0.
G90
(PARALLEL2)
T1 M6
S7000 M3
G54
G0 X125.555 Y6.796
G43 Z15. H1
G0 Z1.63
G1 Z-4.928 F460.
X125.548 Z-4.949
X118.975 Z-11.521
X105.842 Z-11.519
X105.656 Z-11.04
X105.449 Z-10.629
X105.358 Z-10.479
X105.15 Z-10.161
X104.86 Z-9.795
X104.67 Z-9.594
X104.468 Z-9.392
X104.106 Z-9.092
X103.958 Z-8.983
X103.556 Z-8.727
X103.135 Z-8.513
X102.693 Z-8.34
X102.422 Z-8.259
X102.145 Z-8.185
X101.58 Z-8.095
X101.071 Z-8.069
X100.588 Z-8.093
X100.105 Z-8.165
X99.88 Z-8.216
X99.539 Z-8.309
X99.036 Z-8.5
X98.556 Z-8.744
X98.167 Z-8.995
X98.024 Z-9.102
X97.677 Z-9.389
X97.355 Z-9.712
X97.13 Z-9.985
X96.953 Z-10.219
X96.711 Z-10.597
X96.505 Z-11.
X96.396 Z-11.266
X96.299 Z-11.521
X83.167
X76.588 Z-4.942
Z-4.928
Y6.922
Y7.048
Z-4.942
X83.167 Z-11.521
X96.299
X96.396 Z-11.266
X96.505 Z-11.
X96.711 Z-10.597
X96.953 Z-10.219
X97.13 Z-9.985
X97.355 Z-9.712
X97.677 Z-9.389
X98.024 Z-9.102
X98.167 Z-8.995
X98.556 Z-8.744
X99.036 Z-8.5
X99.539 Z-8.309
X99.88 Z-8.216
X100.105 Z-8.165
X100.588 Z-8.093
X101.071 Z-8.069
X101.58 Z-8.095
X102.145 Z-8.185
X102.422 Z-8.259
X102.693 Z-8.34
X103.135 Z-8.513
X103.556 Z-8.727
X103.958 Z-8.983
X104.106 Z-9.092
X104.468 Z-9.392
X104.67 Z-9.594
X104.86 Z-9.795
X105.15 Z-10.161
X105.358 Z-10.479
X105.449 Z-10.629
X105.656 Z-11.04
X105.842 Z-11.519
X118.975 Z-11.521
X125.548 Z-4.949
X125.555 Z-4.928
Y7.3
X125.548 Z-4.949
X118.975 Z-11.521
X105.842 Z-11.519
X105.656 Z-11.04
X105.449 Z-10.629
X105.358 Z-10.479
X105.15 Z-10.161
X104.86 Z-9.795
X104.67 Z-9.594
X104.468 Z-9.392
X104.106 Z-9.092
X103.958 Z-8.983
X103.556 Z-8.727
X103.135 Z-8.513
X102.693 Z-8.34
X102.422 Z-8.259
X102.145 Z-8.185
X101.58 Z-8.095
X101.071 Z-8.069
X100.588 Z-8.093
X100.105 Z-8.165
X99.88 Z-8.216
X99.539 Z-8.309
X99.036 Z-8.5
X98.556 Z-8.744
X98.167 Z-8.995
X98.024 Z-9.102
X97.677 Z-9.389
X97.355 Z-9.712
X97.13 Z-9.985
X96.953 Z-10.219
X96.711 Z-10.597
X96.505 Z-11.
X96.396 Z-11.266
X96.299 Z-11.521
X83.167
X76.588 Z-4.942
Z-4.928
Y7.426
Y7.552
Z-4.942
X83.167 Z-11.521
X96.299
X96.396 Z-11.266
X96.505 Z-11.
X96.711 Z-10.597
X96.953 Z-10.219
X97.13 Z-9.985
X97.355 Z-9.712
X97.677 Z-9.389
X98.024 Z-9.102
X98.167 Z-8.995
X98.556 Z-8.744
X99.036 Z-8.5
X99.539 Z-8.309
X99.88 Z-8.216
X100.105 Z-8.165
X100.588 Z-8.093
X101.071 Z-8.069
X101.58 Z-8.095
X102.145 Z-8.185
X102.422 Z-8.259
X102.693 Z-8.34
X103.135 Z-8.513
X103.556 Z-8.727
X103.958 Z-8.983
X104.106 Z-9.092
X104.468 Z-9.392
X104.67 Z-9.594
X104.86 Z-9.795
X105.15 Z-10.161
X105.358 Z-10.479
X105.449 Z-10.629
X105.656 Z-11.04
X105.842 Z-11.519
X118.975 Z-11.521
X125.548 Z-4.949
X125.555 Z-4.928
Y7.804
X125.548 Z-4.949
X118.975 Z-11.521
X105.842 Z-11.519
X105.656 Z-11.04
X105.448 Z-10.628
X105.357 Z-10.478
X105.15 Z-10.16
X104.859 Z-9.795
X104.67 Z-9.594
X104.467 Z-9.392
X104.106 Z-9.092
X103.957 Z-8.983
X103.556 Z-8.727
X103.134 Z-8.513
X102.693 Z-8.339
X102.421 Z-8.259
X102.144 Z-8.185
X101.58 Z-8.095
X101.071 Z-8.069
X100.588 Z-8.093
X100.105 Z-8.165
X99.88 Z-8.216
X99.539 Z-8.309
X99.036 Z-8.5
X98.556 Z-8.744
X98.167 Z-8.995
X98.024 Z-9.102
X97.677 Z-9.389
X97.355 Z-9.712
X97.13 Z-9.985
X96.953 Z-10.219
X96.711 Z-10.597
X96.505 Z-11.
X96.396 Z-11.266
X96.299 Z-11.521
X83.167
X76.588 Z-4.942
Z-4.928
Y7.93
Y8.056
Z-4.942
X83.167 Z-11.521
X96.299
X96.396 Z-11.266
X96.505 Z-11.
X96.711 Z-10.597
X96.953 Z-10.219
X97.13 Z-9.985
X97.355 Z-9.712
X97.677 Z-9.389
X98.024 Z-9.102
X98.167 Z-8.995
X98.556 Z-8.744
X99.036 Z-8.5
X99.539 Z-8.309
X99.88 Z-8.216
X100.105 Z-8.165
X100.588 Z-8.093
X101.071 Z-8.069
X101.58 Z-8.095
X102.145 Z-8.185
X102.422 Z-8.259
X102.693 Z-8.34
X103.135 Z-8.513
X103.556 Z-8.727
X103.958 Z-8.983
X104.106 Z-9.092
X104.468 Z-9.392
X104.67 Z-9.594
X104.86 Z-9.795
X105.15 Z-10.161
X105.358 Z-10.479
X105.449 Z-10.629
X105.656 Z-11.04
X105.842 Z-11.519
X118.975 Z-11.521
X125.548 Z-4.949
X125.555 Z-4.928
Y8.308
X125.548 Z-4.949
X118.975 Z-11.521
X105.842 Z-11.519
X105.656 Z-11.04
X105.449 Z-10.629
X105.358 Z-10.479
X105.15 Z-10.161
X104.86 Z-9.795
X104.67 Z-9.594
X104.468 Z-9.392
X104.106 Z-9.092
X103.958 Z-8.983
X103.556 Z-8.727
X103.135 Z-8.513
X102.693 Z-8.34
X102.422 Z-8.259
X102.145 Z-8.185
X101.58 Z-8.095
X101.071 Z-8.069
X100.588 Z-8.093
X100.105 Z-8.165
X99.88 Z-8.216
X99.539 Z-8.309
X99.036 Z-8.5
X98.556 Z-8.744
X98.167 Z-8.995
X98.024 Z-9.102
X97.677 Z-9.389
X97.355 Z-9.712
X97.13 Z-9.985
X96.953 Z-10.219
X96.711 Z-10.597
X96.505 Z-11.
X96.396 Z-11.266
X96.299 Z-11.521
X83.167
X76.588 Z-4.942
Z-4.928
Y8.434
Y8.56
Z-4.942
X82.701 Z-11.055
X82.705 Z-11.047
X82.716 Z-11.013
X82.72 Z-10.978
Z-10.678
X82.715 Y8.565 Z-10.625
X82.699 Y8.58 Z-10.577
X82.674 Y8.603 Z-10.538
X82.641 Y8.633 Z-10.509
X82.604 Y8.668 Z-10.494
X82.565 Y8.704
X82.528 Y8.738 Z-10.509
X82.496 Y8.768 Z-10.538
X82.47 Y8.792 Z-10.577
X82.454 Y8.807 Z-10.625
X82.449 Y8.812 Z-10.678
X82.442 Z-10.723
X82.423 Z-10.764
X82.418 Z-10.772
X76.588 Z-4.942
Z-4.928
Y9.064
Z-4.942
X82.253 Z-10.607
X82.258 Z-10.6
X82.273 Z-10.578
X82.285 Y9.065 Z-10.559
X82.296 Y9.07 Z-10.539
X82.304 Y9.078 Z-10.519
X82.311 Y9.088 Z-10.499
X82.314 Y9.101 Z-10.481
X82.316 Y9.116 Z-10.463
X82.314 Y9.133 Z-10.448
X82.311 Y9.151 Z-10.434
X82.304 Y9.17 Z-10.423
X82.296 Y9.19 Z-10.415
X82.285 Y9.209 Z-10.41
X82.273 Y9.229 Z-10.408
X82.259 Y9.247 Z-10.409
X82.243 Y9.264 Z-10.413
X82.228 Y9.279 Z-10.42
X82.211 Y9.292 Z-10.43
X82.195 Y9.302 Z-10.442
X82.179 Y9.31 Z-10.457
X82.164 Y9.314 Z-10.474
X82.15 Y9.316 Z-10.492
X82.145 Z-10.499
X76.588 Z-4.942
Z-4.928
Y9.568
Z-4.942
X82.077 Z-10.431
X82.082 Z-10.423
X82.087 Z-10.417
X82.1 Y9.57 Z-10.399
X82.112 Y9.575 Z-10.381
X82.123 Y9.585 Z-10.364
X82.132 Y9.597 Z-10.348
X82.139 Y9.613 Z-10.333
X82.144 Y9.631 Z-10.321
X82.146 Y9.651 Z-10.311
Y9.672 Z-10.304
X82.144 Y9.694 Z-10.3
X82.139 Y9.716 Z-10.299
X82.133 Y9.737 Z-10.301
X82.124 Y9.757 Z-10.306
X82.113 Y9.775 Z-10.314
X82.101 Y9.79 Z-10.325
X82.088 Y9.803 Z-10.338
X82.075 Y9.812 Z-10.353
X82.061 Y9.818 Z-10.37
X82.047 Y9.82 Z-10.388
X82.041 Z-10.396
X76.588 Z-4.942
Z-4.928
Y9.946 Z-4.929
Y10.072 Z-4.93
Z-4.942
X82.033 Z-10.388
X82.038 Z-10.382
X82.073 Z-10.323
X82.095 Z-10.258
X82.103 Z-10.189
G0 Z5.
X60.555 Y6.796
Z1.63
G1 Z-4.928 F460.
X60.548 Z-4.949
X53.975 Z-11.521
X40.842 Z-11.519
X40.656 Z-11.04
X40.448 Z-10.628
X40.357 Z-10.478
X40.15 Z-10.16
X39.859 Z-9.795
X39.67 Z-9.594
X39.467 Z-9.392
X39.106 Z-9.092
X38.957 Z-8.983
X38.556 Z-8.727
X38.134 Z-8.513
X37.693 Z-8.339
X37.421 Z-8.259
X37.144 Z-8.185
X36.58 Z-8.095
X36.071 Z-8.069
X35.588 Z-8.093
X35.105 Z-8.165
X34.88 Z-8.216
X34.539 Z-8.309
X34.036 Z-8.5
X33.556 Z-8.744
X33.167 Z-8.995
X33.024 Z-9.102
X32.677 Z-9.389
X32.355 Z-9.712
X32.13 Z-9.985
X31.953 Z-10.219
X31.711 Z-10.597
X31.505 Z-11.
X31.396 Z-11.266
X31.299 Z-11.521
X18.167
X11.588 Z-4.942
Z-4.928
X11.587 Y6.922
X11.588 Y7.048
Z-4.942
X18.167 Z-11.521
X31.299
X31.396 Z-11.266
X31.505 Z-11.
X31.711 Z-10.597
X31.953 Z-10.219
X32.13 Z-9.985
X32.355 Z-9.712
X32.677 Z-9.389
X33.024 Z-9.102
X33.167 Z-8.995
X33.556 Z-8.744
X34.036 Z-8.5
X34.539 Z-8.309
X34.88 Z-8.216
X35.105 Z-8.165
X35.588 Z-8.093
X36.071 Z-8.069
X36.58 Z-8.095
X37.144 Z-8.185
X37.421 Z-8.259
X37.693 Z-8.339
X38.134 Z-8.513
X38.556 Z-8.727
X38.957 Z-8.983
X39.106 Z-9.092
X39.467 Z-9.392
X39.67 Z-9.594
X39.859 Z-9.795
X40.15 Z-10.16
X40.357 Z-10.478
X40.448 Z-10.628
X40.656 Z-11.04
X40.842 Z-11.519
X53.975 Z-11.521
X60.548 Z-4.949
X60.555 Z-4.928
Y7.174
Y7.3
X60.548 Z-4.949
X53.975 Z-11.521
X40.842 Z-11.519
X40.656 Z-11.04
X40.448 Z-10.628
X40.357 Z-10.478
X40.15 Z-10.16
X39.859 Z-9.795
X39.67 Z-9.594
X39.467 Z-9.392
X39.106 Z-9.092
X38.957 Z-8.983
X38.556 Z-8.727
X38.134 Z-8.513
X37.693 Z-8.339
X37.421 Z-8.259
X37.144 Z-8.185
X36.58 Z-8.095
X36.071 Z-8.069
X35.588 Z-8.093
X35.105 Z-8.165
X34.88 Z-8.216
X34.539 Z-8.309
X34.036 Z-8.5
X33.556 Z-8.744
X33.167 Z-8.995
X33.024 Z-9.102
X32.677 Z-9.389
X32.355 Z-9.712
X32.13 Z-9.985
X31.953 Z-10.219
X31.711 Z-10.597
X31.505 Z-11.
X31.396 Z-11.266
X31.299 Z-11.521
X18.167
X11.588 Z-4.942
Z-4.928
X11.587 Y7.426
X11.588 Y7.552
Z-4.942
X18.167 Z-11.521
X31.299
X31.396 Z-11.266
X31.505 Z-11.
X31.711 Z-10.597
X31.953 Z-10.219
X32.13 Z-9.985
X32.355 Z-9.712
X32.677 Z-9.389
X33.024 Z-9.102
X33.167 Z-8.995
X33.556 Z-8.744
X34.036 Z-8.5
X34.539 Z-8.309
X34.88 Z-8.216
X35.105 Z-8.165
X35.588 Z-8.093
X36.071 Z-8.069
X36.581 Z-8.095
X37.145 Z-8.186
X37.422 Z-8.259
X37.694 Z-8.34
X38.135 Z-8.513
X38.557 Z-8.728
X38.958 Z-8.984
X39.106 Z-9.092
X39.468 Z-9.392
X39.671 Z-9.595
X39.86 Z-9.796
X40.151 Z-10.161
X40.358 Z-10.479
X40.449 Z-10.629
X40.657 Z-11.041
X40.842 Z-11.519
X53.975 Z-11.521
X60.548 Z-4.949
X60.555 Z-4.928
Y7.678
Y7.804
X60.548 Z-4.949
X53.975 Z-11.521
X40.842 Z-11.519
X40.656 Z-11.04
X40.448 Z-10.628
X40.357 Z-10.478
X40.15 Z-10.16
X39.859 Z-9.795
X39.67 Z-9.594
X39.467 Z-9.392
X39.106 Z-9.092
X38.957 Z-8.983
X38.556 Z-8.727
X38.134 Z-8.513
X37.693 Z-8.339
X37.421 Z-8.259
X37.144 Z-8.185
X36.58 Z-8.095
X36.071 Z-8.069
X35.588 Z-8.093
X35.105 Z-8.165
X34.88 Z-8.216
X34.539 Z-8.309
X34.036 Z-8.5
X33.556 Z-8.744
X33.167 Z-8.995
X33.024 Z-9.102
X32.677 Z-9.389
X32.355 Z-9.712
X32.13 Z-9.985
X31.953 Z-10.219
X31.711 Z-10.597
X31.505 Z-11.
X31.396 Z-11.266
X31.299 Z-11.521
X18.167
X11.588 Z-4.942
Z-4.928
X11.587 Y7.93
X11.588 Y8.056
Z-4.942
X18.167 Z-11.521
X31.299
X31.396 Z-11.266
X31.505 Z-11.
X31.711 Z-10.597
X31.953 Z-10.219
X32.13 Z-9.985
X32.355 Z-9.712
X32.677 Z-9.389
X33.024 Z-9.102
X33.167 Z-8.995
X33.556 Z-8.744
X34.036 Z-8.5
X34.539 Z-8.309
X34.88 Z-8.216
X35.105 Z-8.165
X35.588 Z-8.093
X36.071 Z-8.069
X36.58 Z-8.095
X37.144 Z-8.185
X37.421 Z-8.259
X37.693 Z-8.339
X38.134 Z-8.513
X38.556 Z-8.727
X38.957 Z-8.983
X39.106 Z-9.092
X39.467 Z-9.392
X39.67 Z-9.594
X39.859 Z-9.795
X40.15 Z-10.16
X40.357 Z-10.478
X40.448 Z-10.628
X40.656 Z-11.04
X40.842 Z-11.519
X53.975 Z-11.521
X60.548 Z-4.949
X60.555 Z-4.928
Y8.182
Y8.308
X60.548 Z-4.949
X53.975 Z-11.521
X40.842 Z-11.519
X40.656 Z-11.04
X40.448 Z-10.628
X40.357 Z-10.478
X40.15 Z-10.16
X39.859 Z-9.795
X39.67 Z-9.594
X39.467 Z-9.392
X39.106 Z-9.092
X38.957 Z-8.983
X38.556 Z-8.727
X38.134 Z-8.513
X37.693 Z-8.339
X37.421 Z-8.259
X37.144 Z-8.185
X36.58 Z-8.095
X36.071 Z-8.069
X35.588 Z-8.093
X35.105 Z-8.165
X34.88 Z-8.216
X34.539 Z-8.309
X34.036 Z-8.5
X33.556 Z-8.744
X33.167 Z-8.995
X33.024 Z-9.102
X32.677 Z-9.389
X32.355 Z-9.712
X32.13 Z-9.985
X31.953 Z-10.219
X31.711 Z-10.597
X31.505 Z-11.
X31.396 Z-11.266
X31.299 Z-11.521
X18.167
X11.588 Z-4.942
Z-4.928
X11.587 Y8.434
X11.588 Y8.56
Z-4.942
X17.701 Z-11.055
X17.705 Z-11.047
X17.717 Z-11.013
X17.721 Z-10.977
Z-10.678
X17.715 Y8.565 Z-10.625
X17.699 Y8.58 Z-10.577
X17.674 Y8.603 Z-10.538
X17.641 Y8.633 Z-10.509
X17.604 Y8.668 Z-10.494
X17.565 Y8.704
X17.528 Y8.738 Z-10.509
X17.496 Y8.768 Z-10.538
X17.47 Y8.792 Z-10.577
X17.454 Y8.807 Z-10.625
X17.449 Y8.812 Z-10.678
X17.442 Z-10.723
X17.423 Z-10.764
X17.418 Z-10.772
X11.588 Z-4.942
Z-4.928
X11.587 Y8.938
X11.588 Y9.064
Z-4.942
X17.253 Z-10.607
X17.258 Z-10.6
X17.273 Z-10.578
X17.285 Y9.065 Z-10.559
X17.296 Y9.07 Z-10.539
X17.304 Y9.078 Z-10.519
X17.31 Y9.088 Z-10.5
X17.314 Y9.101 Z-10.481
X17.316 Y9.116 Z-10.464
X17.314 Y9.133 Z-10.448
X17.31 Y9.151 Z-10.435
X17.304 Y9.17 Z-10.424
X17.296 Y9.19 Z-10.415
X17.285 Y9.209 Z-10.41
X17.272 Y9.229 Z-10.408
X17.258 Y9.247 Z-10.409
X17.243 Y9.264 Z-10.413
X17.227 Y9.279 Z-10.42
X17.211 Y9.292 Z-10.43
X17.195 Y9.302 Z-10.442
X17.179 Y9.31 Z-10.457
X17.164 Y9.314 Z-10.474
X17.15 Y9.316 Z-10.492
X17.145 Z-10.499
X11.588 Z-4.942
Z-4.928
X11.587 Y9.442
X11.588 Y9.568
Z-4.942
X17.077 Z-10.431
X17.082 Z-10.423
X17.087 Z-10.417
X17.1 Y9.57 Z-10.399
X17.112 Y9.575 Z-10.381
X17.123 Y9.585 Z-10.364
X17.132 Y9.597 Z-10.348
X17.139 Y9.613 Z-10.333
X17.144 Y9.631 Z-10.321
X17.146 Y9.651 Z-10.311
Y9.672 Z-10.304
X17.144 Y9.694 Z-10.3
X17.139 Y9.716 Z-10.299
X17.133 Y9.737 Z-10.301
X17.124 Y9.757 Z-10.306
X17.113 Y9.775 Z-10.314
X17.101 Y9.79 Z-10.325
X17.088 Y9.803 Z-10.338
X17.075 Y9.812 Z-10.353
X17.061 Y9.818 Z-10.37
X17.047 Y9.82 Z-10.388
X17.041 Z-10.396
X11.588 Z-4.942
Z-4.928
X11.587 Y9.946 Z-4.929
X11.588 Y10.072 Z-4.93
Z-4.942
X17.033 Z-10.388
X17.038 Z-10.382
X17.073 Z-10.323
X17.095 Z-10.258
X17.103 Z-10.189
G0 Z5.
X54.407 Y8.56
Z-1.142
G1 Z-10.91 F460.
X54.415 Z-10.981
X54.438 Z-11.048
X54.442 Z-11.055
X60.548 Z-4.949
X60.555 Z-4.928
Y8.686
Y8.812
X60.548 Z-4.949
X54.723 Z-10.771
X54.719 Z-10.765
X54.693 Z-10.724
X54.681 Y8.813 Z-10.703
X54.671 Y8.817 Z-10.681
X54.663 Y8.823 Z-10.659
X54.658 Y8.832 Z-10.637
X54.656 Y8.843 Z-10.615
Y8.855 Z-10.594
X54.659 Y8.87 Z-10.575
X54.665 Y8.885 Z-10.558
X54.673 Y8.902 Z-10.542
X54.684 Y8.92 Z-10.529
X54.697 Y8.938 Z-10.519
X54.711 Y8.956 Z-10.512
X54.727 Y8.973 Z-10.507
X54.745 Y8.99 Z-10.506
X54.763 Y9.006 Z-10.508
X54.782 Y9.02 Z-10.513
X54.801 Y9.033 Z-10.522
X54.82 Y9.044 Z-10.533
X54.838 Y9.052 Z-10.546
X54.855 Y9.059 Z-10.562
X54.871 Y9.062 Z-10.58
X54.885 Y9.064 Z-10.6
X54.89 Z-10.607
X60.548 Z-4.949
X60.555 Z-4.928
Y9.19
Y9.316
X60.548 Z-4.949
X54.997 Z-10.499
X54.992 Z-10.492
X54.983 Z-10.48
X54.971 Y9.317 Z-10.462
X54.961 Y9.322 Z-10.445
X54.952 Y9.33 Z-10.427
X54.944 Y9.34 Z-10.41
X54.939 Y9.353 Z-10.395
X54.935 Y9.368 Z-10.38
X54.934 Y9.385 Z-10.368
Y9.403 Z-10.357
X54.937 Y9.422 Z-10.349
X54.942 Y9.442 Z-10.343
X54.949 Y9.461 Z-10.34
X54.958 Y9.481
X54.969 Y9.499 Z-10.342
X54.98 Y9.516 Z-10.347
X54.993 Y9.531 Z-10.355
X55.006 Y9.544 Z-10.365
X55.02 Y9.554 Z-10.378
X55.034 Y9.562 Z-10.392
X55.047 Y9.566 Z-10.407
X55.06 Y9.568 Z-10.424
X55.065 Z-10.431
X60.548 Z-4.949
X60.555 Z-4.928
Y9.694
Y9.82
X60.548 Z-4.949
X55.1 Z-10.394
X55.096 Z-10.388
X55.082 Y9.822 Z-10.371
X55.07 Y9.827 Z-10.354
X55.058 Y9.837 Z-10.337
X55.048 Y9.849 Z-10.323
X55.039 Y9.865 Z-10.31
X55.032 Y9.883 Z-10.299
X55.027 Y9.903 Z-10.291
X55.025 Y9.924 Z-10.286
X55.024 Y9.946 Z-10.284
X55.026 Y9.968 Z-10.285
X55.03 Y9.989 Z-10.289
X55.037 Y10.009 Z-10.296
X55.045 Y10.027 Z-10.306
X55.055 Y10.042 Z-10.318
X55.066 Y10.055 Z-10.332
X55.078 Y10.064 Z-10.347
X55.091 Y10.07 Z-10.364
X55.104 Y10.072 Z-10.382
X55.105
X55.107 Z-10.386
X60.548 Z-4.949
X60.555 Z-4.93
G0 Z5.
X55.491 Y25.947
Z-7.357
G1 Z-10.396 F460.
X55.484 Z-10.441
X55.462 Z-10.482
X55.428 Z-10.513
X55.408 Z-10.525
X55.197 Z-10.569
X55.188 Z-10.565
X55.151 Z-10.54
X55.122 Z-10.506
X55.103 Z-10.465
X55.097 Z-10.421
X55.095 Y25.954 Z-10.38
X55.088 Y25.971 Z-10.342
X55.078 Y25.999 Z-10.313
X55.066 Y26.034 Z-10.294
X55.052 Y26.073 Z-10.287
X55.038 Y26.112 Z-10.294
X55.026 Y26.147 Z-10.313
X55.016 Y26.175 Z-10.342
X55.01 Y26.193 Z-10.38
X55.008 Y26.199 Z-10.421
Z-10.435
X55.013 Z-10.475
X55.028 Z-10.512
X55.052 Z-10.545
X55.084 Z-10.57
X55.121 Z-10.587
X55.134 Z-10.591
X55.367 Z-10.532
X55.569 Z-10.509
X55.764 Z-10.507
X55.773 Z-10.498
X55.784 Z-10.486
X56.01 Z-10.21
X56.03 Y26.2 Z-10.187
X56.053 Y26.203 Z-10.167
X56.077 Y26.208 Z-10.15
X56.103 Y26.214 Z-10.135
X56.13 Y26.222 Z-10.123
X56.158 Y26.231 Z-10.115
X56.185 Y26.242 Z-10.11
X56.213 Y26.254 Z-10.109
X56.241 Y26.267 Z-10.111
X56.267 Y26.281 Z-10.116
X56.292 Y26.295 Z-10.125
X56.316 Y26.31 Z-10.137
X56.337 Y26.325 Z-10.153
X56.356 Y26.341 Z-10.171
X56.373 Y26.356 Z-10.191
X56.386 Y26.37 Z-10.214
X56.397 Y26.384 Z-10.239
X56.405 Y26.397 Z-10.265
X56.409 Y26.409 Z-10.293
Y26.42 Z-10.321
X56.407 Y26.429 Z-10.35
X56.401 Y26.437 Z-10.379
X56.392 Y26.443 Z-10.407
X56.379 Y26.448 Z-10.434
X56.364 Y26.45 Z-10.46
X56.346 Y26.451 Z-10.485
X56.335 Z-10.497
X56.325 Z-10.507
X55.545 Z-10.51
X55.367 Z-10.532
X55.126 Z-10.593
X55.113 Z-10.589
X55.076 Z-10.573
X55.044 Z-10.548
X55.019 Z-10.515
X55.003 Z-10.477
X54.998 Z-10.437
Z-10.422
X55. Y26.458 Z-10.381
X55.006 Y26.475 Z-10.345
X55.015 Y26.503 Z-10.315
X55.026 Y26.538 Z-10.296
X55.039 Y26.577 Z-10.29
X55.051 Y26.616 Z-10.296
X55.063 Y26.651 Z-10.315
X55.072 Y26.679 Z-10.345
X55.077 Y26.697 Z-10.381
X55.079 Y26.703 Z-10.422
X55.086 Z-10.468
X55.106 Z-10.51
X55.136 Z-10.544
X55.176 Z-10.568
X55.186 Z-10.573
X55.211 Z-10.568
X55.452 Z-10.519
X55.647 Z-10.507
X58.06
Z-10.497
Y26.829
Y26.955
Z-10.507
X55.647
X55.452 Z-10.519
X55.26 Z-10.555
X55.249 Z-10.548
X55.217 Z-10.523
X55.193 Z-10.49
X55.178 Z-10.452
X55.172 Z-10.412
Z-10.41
X55.174 Y26.963 Z-10.366
X55.18 Y26.985 Z-10.327
X55.189 Y27.018 Z-10.297
X55.2 Y27.06 Z-10.282
X55.211 Y27.103
X55.222 Y27.144 Z-10.297
X55.23 Y27.178 Z-10.327
X55.236 Y27.2 Z-10.366
X55.238 Y27.207 Z-10.41
X55.245 Z-10.458
X55.266 Z-10.501
X55.299 Z-10.536
X55.308 Z-10.542
X55.452 Z-10.519
X55.647 Z-10.507
X58.06
Z-10.497
Y27.333
Y27.459
Z-10.507
X55.647
X55.452 Z-10.519
X55.324 Z-10.539
X55.317 Z-10.532
X55.301 Y27.461 Z-10.517
X55.285 Y27.467 Z-10.503
X55.27 Y27.476 Z-10.49
X55.257 Y27.489 Z-10.477
X55.246 Y27.504 Z-10.467
X55.236 Y27.522 Z-10.459
X55.229 Y27.542 Z-10.452
X55.225 Y27.564 Z-10.448
X55.224 Y27.585 Z-10.447
X55.225 Y27.607 Z-10.448
X55.229 Y27.628 Z-10.452
X55.236 Y27.648 Z-10.459
X55.246 Y27.666 Z-10.467
X55.257 Y27.682 Z-10.477
X55.27 Y27.695 Z-10.49
X55.285 Y27.704 Z-10.503
X55.301 Y27.709 Z-10.517
X55.317 Y27.711 Z-10.532
X55.324 Z-10.539
X55.452 Z-10.519
X55.647 Z-10.507
X58.06
Z-10.497
Y27.837
Y27.963
Z-10.507
X55.647
X55.452 Z-10.519
X55.324 Z-10.539
X55.317 Z-10.532
X55.301 Y27.965 Z-10.517
X55.285 Y27.971 Z-10.503
X55.27 Y27.98 Z-10.49
X55.257 Y27.993 Z-10.477
X55.246 Y28.008 Z-10.467
X55.236 Y28.026 Z-10.458
X55.229 Y28.046 Z-10.452
X55.225 Y28.068 Z-10.448
X55.224 Y28.089 Z-10.447
X55.225 Y28.111 Z-10.448
X55.229 Y28.132 Z-10.452
X55.236 Y28.152 Z-10.458
X55.246 Y28.17 Z-10.467
X55.257 Y28.186 Z-10.477
X55.27 Y28.198 Z-10.49
X55.285 Y28.208 Z-10.503
X55.301 Y28.213 Z-10.517
X55.317 Y28.215 Z-10.532
X55.324 Z-10.539
X55.452 Z-10.519
X55.647 Z-10.507
X58.06
Z-10.497
Y28.341
Y28.467
Z-10.507
X55.647
X55.452 Z-10.519
X55.324 Z-10.539
X55.317 Z-10.532
X55.301 Y28.469 Z-10.517
X55.286 Y28.475 Z-10.502
X55.271 Y28.484 Z-10.489
X55.258 Y28.497 Z-10.476
X55.247 Y28.512 Z-10.465
X55.238 Y28.53 Z-10.457
X55.231 Y28.55 Z-10.45
X55.227 Y28.571 Z-10.447
X55.225 Y28.593 Z-10.445
X55.227 Y28.615 Z-10.447
X55.231 Y28.636 Z-10.451
X55.238 Y28.656 Z-10.457
X55.247 Y28.674 Z-10.466
X55.258 Y28.69 Z-10.477
X55.271 Y28.702 Z-10.489
X55.285 Y28.712 Z-10.503
X55.301 Y28.717 Z-10.517
X55.316 Y28.719 Z-10.532
X55.323 Z-10.539
X55.452 Z-10.519
X55.647 Z-10.507
X58.06
Z-10.497
Y28.845
Y28.971
Z-10.507
X55.647
X55.452 Z-10.519
X55.307 Z-10.542
X55.302 Z-10.536
X55.28 Z-10.505
X55.266 Z-10.469
X55.261 Z-10.43
Y28.979 Z-10.387
X55.259 Y29.001 Z-10.349
X55.256 Y29.034 Z-10.321
X55.253 Y29.075 Z-10.306
X55.25 Y29.119
X55.247 Y29.16 Z-10.321
X55.244 Y29.194 Z-10.349
X55.243 Y29.216 Z-10.387
X55.242 Y29.223 Z-10.43
Z-10.445
X55.246 Z-10.479
X55.257 Z-10.512
X55.275 Z-10.542
X55.28 Z-10.548
X55.452 Z-10.519
X55.647 Z-10.507
X58.06
Z-10.497
Y29.349
Y29.475
Z-10.507
X55.647
X55.452 Z-10.519
X55.251 Z-10.554
X55.248 Z-10.549
X55.245 Z-10.544
X55.234 Y29.477 Z-10.525
X55.223 Y29.483 Z-10.507
X55.212 Y29.492 Z-10.491
X55.202 Y29.505 Z-10.475
X55.193 Y29.52 Z-10.463
X55.185 Y29.538 Z-10.453
X55.179 Y29.558 Z-10.445
X55.175 Y29.579 Z-10.441
X55.172 Y29.601
Y29.623 Z-10.443
X55.173 Y29.644 Z-10.449
X55.176 Y29.664 Z-10.458
X55.182 Y29.682 Z-10.469
X55.188 Y29.698 Z-10.483
X55.197 Y29.71 Z-10.5
X55.206 Y29.72 Z-10.517
X55.217 Y29.725 Z-10.536
X55.228 Y29.727 Z-10.555
X55.231 Z-10.56
X55.452 Z-10.519
X55.647 Z-10.507
X58.06
Z-10.497
Y29.853
Y29.979
Z-10.507
X55.647
X55.452 Z-10.519
X55.222 Z-10.562
X55.219 Z-10.557
X55.209 Y29.981 Z-10.538
X55.198 Y29.987 Z-10.52
X55.189 Y29.996 Z-10.502
X55.18 Y30.009 Z-10.486
X55.173 Y30.024 Z-10.473
X55.167 Y30.042 Z-10.461
X55.163 Y30.062 Z-10.453
X55.161 Y30.083 Z-10.448
X55.16 Y30.105 Z-10.446
X55.161 Y30.127 Z-10.447
X55.165 Y30.148 Z-10.452
X55.17 Y30.168 Z-10.46
X55.176 Y30.186 Z-10.471
X55.184 Y30.202 Z-10.484
X55.193 Y30.214 Z-10.5
X55.203 Y30.224 Z-10.517
X55.214 Y30.229 Z-10.535
X55.225 Y30.231 Z-10.554
Z-10.555
X55.228 Z-10.56
X55.452 Z-10.519
X55.647 Z-10.507
X58.06
Z-10.497
Y30.357
Y30.483
Z-10.507
X55.647
X55.452 Z-10.519
X55.247 Z-10.555
X55.244 Z-10.55
X55.225 Z-10.509
X55.219 Z-10.464
Z-10.448
Y30.491 Z-10.405
X55.221 Y30.513 Z-10.367
X55.224 Y30.546 Z-10.339
X55.227 Y30.587 Z-10.324
X55.231 Y30.631
X55.234 Y30.672 Z-10.339
X55.237 Y30.706 Z-10.367
X55.239 Y30.728 Z-10.405
Y30.735 Z-10.448
X55.243 Z-10.482
X55.254 Z-10.514
X55.271 Z-10.543
X55.274 Z-10.548
X55.452 Z-10.519
X55.647 Z-10.507
X58.06
Z-10.497
Y30.861
Y30.987
Z-10.507
X55.647
X55.452 Z-10.519
X55.303 Z-10.543
X55.298 Z-10.537
X55.276 Z-10.506
X55.263 Z-10.47
X55.259 Z-10.433
Z-10.419
Y30.995 Z-10.376
X55.26 Y31.017 Z-10.338
X55.261 Y31.05 Z-10.31
X55.262 Y31.091 Z-10.295
X55.264 Y31.135
X55.265 Y31.176 Z-10.31
X55.266 Y31.21 Z-10.338
X55.267 Y31.232 Z-10.376
Y31.239 Z-10.419
X55.273 Z-10.461
X55.289 Z-10.5
X55.315 Z-10.533
X55.322 Z-10.539
X55.452 Z-10.519
X55.647 Z-10.507
X58.06
Z-10.497
Y31.365
Y31.491
Z-10.507
X55.647
X55.452 Z-10.519
X55.324 Z-10.539
X55.317 Z-10.532
X55.301 Y31.493 Z-10.517
X55.285 Y31.499 Z-10.503
X55.27 Y31.508 Z-10.489
X55.257 Y31.521 Z-10.477
X55.245 Y31.536 Z-10.467
X55.236 Y31.554 Z-10.458
X55.229 Y31.574 Z-10.452
X55.225 Y31.595 Z-10.448
X55.224 Y31.617 Z-10.447
X55.225 Y31.639 Z-10.448
X55.229 Y31.66 Z-10.452
X55.236 Y31.68 Z-10.458
X55.245 Y31.698 Z-10.467
X55.257 Y31.714 Z-10.477
X55.27 Y31.726 Z-10.489
X55.285 Y31.736 Z-10.503
X55.301 Y31.741 Z-10.517
X55.317 Y31.743 Z-10.532
X55.324 Z-10.539
X55.452 Z-10.519
X55.647 Z-10.507
X58.06
Z-10.497
Y31.869
Y31.995
Z-10.507
X55.647
X55.452 Z-10.519
X55.324 Z-10.539
X55.317 Z-10.532
X55.289 Z-10.498
X55.271 Z-10.458
X55.265 Z-10.415
Z-10.41
X55.264 Y32.003 Z-10.367
X55.262 Y32.025 Z-10.329
X55.259 Y32.058 Z-10.301
X55.254 Y32.099 Z-10.285
X55.25 Y32.143
X55.245 Y32.184 Z-10.301
X55.242 Y32.218 Z-10.329
X55.24 Y32.24 Z-10.367
X55.239 Y32.247 Z-10.41
X55.246 Z-10.458
X55.267 Z-10.501
X55.3 Z-10.535
X55.308 Z-10.542
X55.452 Z-10.519
X55.647 Z-10.507
X58.06
Z-10.497
Y32.373
Y32.499
Z-10.507
X55.647
X55.452 Z-10.519
X55.261 Z-10.554
X55.25 Z-10.548
X55.219 Z-10.522
X55.194 Z-10.49
X55.179 Z-10.452
X55.174 Z-10.412
X55.172 Y32.505 Z-10.37
X55.165 Y32.523 Z-10.333
X55.155 Y32.551 Z-10.303
X55.142 Y32.586 Z-10.284
X55.127 Y32.625 Z-10.278
X55.113 Y32.664 Z-10.284
X55.1 Y32.699 Z-10.303
X55.09 Y32.727 Z-10.333
X55.083 Y32.745 Z-10.37
X55.081 Y32.751 Z-10.412
Z-10.422
X55.088 Z-10.468
X55.107 Z-10.509
X55.138 Z-10.544
X55.177 Z-10.568
X55.187 Z-10.572
X55.212 Z-10.568
X55.452 Z-10.519
X55.647 Z-10.507
X58.06
Z-10.497
Y32.877
Y33.003
Z-10.507
X55.647
X55.452 Z-10.519
X55.282 Z-10.55
X55.127 Z-10.593
X55.115 Z-10.589
X55.094 Y33.005 Z-10.583
X55.073 Y33.011 Z-10.577
X55.054 Y33.02 Z-10.571
X55.037 Y33.033 Z-10.565
X55.022 Y33.048 Z-10.561
X55.01 Y33.066 Z-10.557
X55.002 Y33.086 Z-10.554
X54.996 Y33.107 Z-10.552
X54.994 Y33.129 Z-10.551
X54.996 Y33.151
X55.002 Y33.172 Z-10.553
X55.011 Y33.192 Z-10.555
X55.023 Y33.21 Z-10.559
X55.038 Y33.226 Z-10.563
X55.055 Y33.238 Z-10.568
X55.074 Y33.248 Z-10.573
X55.095 Y33.253 Z-10.579
X55.116 Y33.255 Z-10.586
X55.12 Z-10.587
X55.133 Z-10.591
X55.282 Z-10.55
X55.452 Z-10.519
X55.647 Z-10.507
X58.06
Z-10.497
X57.882 Y33.413
X57.275
X57.073 Y33.417 Z-10.498
X56.873 Y33.434
X56.675 Y33.464
X56.48 Y33.507
X56.471 Z-10.507
X55.571 Z-10.509
X55.367 Z-10.532
X55.199 Z-10.571
X55.186 Z-10.565
X55.148 Z-10.54
X55.119 Z-10.506
X55.1 Z-10.465
X55.094 Z-10.421
Z-10.412
X55.096 Y33.513 Z-10.37
X55.102 Y33.531 Z-10.333
X55.112 Y33.559 Z-10.303
X55.125 Y33.594 Z-10.284
X55.139 Y33.633 Z-10.278
X55.153 Y33.672 Z-10.284
X55.166 Y33.707 Z-10.303
X55.176 Y33.735 Z-10.333
X55.183 Y33.753 Z-10.37
X55.185 Y33.759 Z-10.412
X55.19 Z-10.451
X55.204 Z-10.488
X55.227 Z-10.52
X55.258 Z-10.545
X55.264 Z-10.55
X55.367 Z-10.532
X55.546 Z-10.51
X55.834 Z-10.507
X55.844 Z-10.497
X55.87 Z-10.464
X55.886 Z-10.425
X55.892 Z-10.384
Z-10.374
X55.886 Y33.764 Z-10.319
X55.869 Y33.776 Z-10.268
X55.842 Y33.796 Z-10.224
X55.806 Y33.822 Z-10.19
X55.765 Y33.853 Z-10.169
X55.721 Y33.885 Z-10.161
X55.677 Y33.918 Z-10.169
X55.636 Y33.948 Z-10.19
X55.6 Y33.974 Z-10.224
X55.573 Y33.994 Z-10.268
X55.556 Y34.007 Z-10.319
X55.55 Y34.011 Z-10.374
X55.546 Z-10.412
X55.531 Z-10.449
X55.509 Z-10.481
X55.479 Z-10.506
X55.461 Z-10.518
X55.313 Z-10.542
X55.304 Z-10.535
G18 G3 X55.185 Z-10.287 I0.198 K0.248
G0 Z5.
X81.637 Y55.935
Z-7.338
G1 Z-10.29 F460.
X81.643 Z-10.352
X81.661 Z-10.412
X81.69 Z-10.466
X81.73 Z-10.515
X81.741 Z-10.526
X81.863 Z-10.55
X81.873 Z-10.542
X81.902 Z-10.508
X81.921 Z-10.467
X81.928 Z-10.422
Y55.942 Z-10.379
X81.929 Y55.964 Z-10.341
X81.93 Y55.998 Z-10.313
X81.931 Y56.039 Z-10.298
X81.932 Y56.083
X81.934 Y56.124 Z-10.313
X81.935 Y56.157 Z-10.341
X81.936 Y56.179 Z-10.379
Y56.187 Z-10.422
Z-10.447
X81.932 Z-10.484
X81.919 Z-10.518
X81.899 Z-10.549
X81.892 Z-10.557
X81.708 Z-10.521
X81.471 Z-10.507
X81.398
X81.389 Z-10.497
X81.378 Z-10.485
X81.161 Z-10.22
X81.141 Y56.188 Z-10.198
X81.119 Y56.19 Z-10.179
X81.096 Y56.195 Z-10.162
X81.071 Y56.201 Z-10.147
X81.044 Y56.209 Z-10.136
X81.018 Y56.218 Z-10.128
X80.99 Y56.229 Z-10.123
X80.964 Y56.241 Z-10.122
X80.937 Y56.254 Z-10.123
X80.911 Y56.268 Z-10.129
X80.887 Y56.283 Z-10.137
X80.864 Y56.298 Z-10.149
X80.844 Y56.313 Z-10.163
X80.825 Y56.328 Z-10.181
X80.809 Y56.343 Z-10.201
X80.796 Y56.357 Z-10.223
X80.786 Y56.371 Z-10.247
X80.779 Y56.384 Z-10.272
X80.775 Y56.396 Z-10.299
X80.774 Y56.407 Z-10.327
X80.777 Y56.416 Z-10.355
X80.783 Y56.424 Z-10.383
X80.792 Y56.431 Z-10.41
X80.804 Y56.435 Z-10.437
X80.819 Y56.438 Z-10.462
X80.836 Y56.439 Z-10.486
X80.847 Z-10.498
X80.856 Z-10.506
X81.493 Z-10.507
X81.728 Z-10.524
X81.91 Z-10.562
X81.917 Z-10.554
X81.94 Z-10.522
X81.955 Z-10.486
X81.959 Z-10.447
Y56.446 Z-10.404
X81.96 Y56.468 Z-10.366
Y56.502 Z-10.337
Y56.543 Z-10.323
Y56.587
Y56.628 Z-10.337
X81.961 Y56.661 Z-10.366
Y56.683 Z-10.404
Y56.691 Z-10.447
Z-10.463
X81.956 Z-10.497
X81.944 Z-10.529
X81.923 Z-10.557
X81.916 Z-10.564
X81.734 Z-10.525
X81.545 Z-10.508
X79.082 Z-10.507
Z-10.497
Y56.817
Y56.943
Z-10.507
X81.49
X81.725 Z-10.524
X81.909 Z-10.562
X81.915 Z-10.554
X81.933 Z-10.524
X81.945 Z-10.491
X81.948 Z-10.456
Z-10.448
Y56.95 Z-10.405
X81.946 Y56.972 Z-10.367
X81.944 Y57.006 Z-10.339
X81.941 Y57.047 Z-10.324
X81.937 Y57.091
X81.934 Y57.132 Z-10.339
X81.932 Y57.165 Z-10.367
X81.93 Y57.187 Z-10.405
Y57.195 Z-10.448
X81.925 Z-10.484
X81.913 Z-10.519
X81.894 Z-10.549
X81.888 Z-10.556
X81.704 Z-10.521
X81.473 Z-10.507
X79.082
Z-10.497
Y57.447
Z-10.507
X81.484
X81.674 Z-10.517
X81.859 Z-10.549
X81.867 Z-10.541
X81.877 Z-10.529
X81.891 Y57.449 Z-10.511
X81.904 Y57.454 Z-10.494
X81.915 Y57.464 Z-10.478
X81.925 Y57.476 Z-10.463
X81.934 Y57.492 Z-10.45
X81.94 Y57.51 Z-10.439
X81.945 Y57.53 Z-10.431
X81.947 Y57.551 Z-10.425
X81.946 Y57.573 Z-10.422
X81.944 Y57.595 Z-10.423
X81.939 Y57.616 Z-10.426
X81.931 Y57.636 Z-10.432
X81.922 Y57.654 Z-10.441
X81.912 Y57.669 Z-10.452
X81.9 Y57.682 Z-10.466
X81.887 Y57.691 Z-10.481
X81.873 Y57.697 Z-10.498
X81.86 Y57.699 Z-10.515
X81.859 Z-10.516
X81.841 Z-10.535
X81.832 Z-10.543
X81.647 Z-10.514
X81.457 Z-10.507
X79.082
Z-10.497
Y57.825
Y57.951
Z-10.507
X81.3
X81.63 Z-10.513
X81.817 Z-10.54
X81.825 Z-10.533
X81.856 Z-10.498
X81.875 Z-10.457
X81.882 Z-10.411
Y57.958 Z-10.368
Y57.98 Z-10.33
X81.881 Y58.014 Z-10.302
Y58.055 Z-10.287
Y58.099
Y58.14 Z-10.302
X81.88 Y58.173 Z-10.33
Y58.195 Z-10.368
Y58.203 Z-10.411
Z-10.443
X81.874 Z-10.479
X81.854 Z-10.51
X81.825 Z-10.532
X81.812 Z-10.539
X81.627 Z-10.512
X81.3 Z-10.507
X79.082
Z-10.497
Y58.455
Z-10.507
X81.3
X81.627 Z-10.512
X81.811 Z-10.539
X81.825 Z-10.532
X81.854 Z-10.511
X81.873 Z-10.481
X81.879 Z-10.446
Y58.462 Z-10.403
Y58.484 Z-10.365
Y58.518 Z-10.337
Y58.559 Z-10.322
Y58.603
Y58.644 Z-10.337
Y58.677 Z-10.365
Y58.699 Z-10.403
Y58.707 Z-10.446
Z-10.447
X81.872 Z-10.481
X81.853 Z-10.511
X81.825 Z-10.532
X81.811 Z-10.539
X81.627 Z-10.512
X81.3 Z-10.507
X79.082
Z-10.497
Y58.959
Z-10.507
X81.3
X81.629 Z-10.513
X81.817 Z-10.54
X81.826 Z-10.532
X81.854 Z-10.498
X81.871 Z-10.458
X81.878 Z-10.414
Y58.966 Z-10.371
Y58.988 Z-10.333
X81.88 Y59.022 Z-10.305
X81.881 Y59.063 Z-10.29
X81.882 Y59.107
X81.884 Y59.148 Z-10.305
X81.885 Y59.181 Z-10.333
X81.886 Y59.203 Z-10.371
Y59.211 Z-10.414
Z-10.451
X81.879 Z-10.485
X81.86 Z-10.514
X81.831 Z-10.533
X81.816 Z-10.54
X81.635 Z-10.513
X81.3 Z-10.507
X79.082
Z-10.497
Y59.337
Y59.463
Z-10.507
X81.481
X81.671 Z-10.517
X81.851 Z-10.547
X81.869 Z-10.541
X81.902 Z-10.522
X81.924 Z-10.49
X81.932 Z-10.453
Z-10.411
X81.934 Y59.469 Z-10.369
X81.942 Y59.487 Z-10.331
X81.953 Y59.515 Z-10.301
X81.968 Y59.55 Z-10.282
X81.984 Y59.589 Z-10.275
X82. Y59.628 Z-10.282
X82.014 Y59.663 Z-10.301
X82.026 Y59.691 Z-10.331
X82.033 Y59.709 Z-10.369
X82.036 Y59.715 Z-10.411
X82.029 Z-10.458
X82.008 Z-10.501
X81.976 Z-10.535
X81.935 Z-10.559
X81.92 Z-10.565
X81.752 Z-10.528
X81.563 Z-10.508
X79.082 Z-10.507
Z-10.497
Y59.841
Y59.967
Z-10.507
X81.202
X81.624 Z-10.512
X81.812 Z-10.539
X81.991 Z-10.586
X82.011 Z-10.583
X82.053 Z-10.569
X82.09 Z-10.545
X82.119 Z-10.511
X82.137 Z-10.47
X82.143 Z-10.426
X82.144 Y59.974 Z-10.383
X82.146 Y59.996 Z-10.345
X82.15 Y60.03 Z-10.317
X82.154 Y60.071 Z-10.302
X82.158 Y60.115
X82.162 Y60.156 Z-10.317
X82.166 Y60.189 Z-10.345
X82.168 Y60.211 Z-10.383
X82.169 Y60.219 Z-10.426
Z-10.437
X82.163 Z-10.48
X82.145 Z-10.52
X82.117 Z-10.554
X82.081 Z-10.579
X82.039 Z-10.593
X82.02 Z-10.596
X81.842 Z-10.545
X81.656 Z-10.515
X81.465 Z-10.507
X79.082
Z-10.497
Y60.345
Y60.471
Z-10.507
X81.608 Z-10.511
X81.795 Z-10.536
X81.974 Z-10.581
X81.992 Z-10.577
X82.032 Z-10.562
X82.066 Z-10.537
X82.093 Z-10.503
X82.11 Z-10.464
X82.115 Z-10.422
Z-10.403
X82.113 Y60.477 Z-10.362
X82.106 Y60.495 Z-10.324
X82.096 Y60.523 Z-10.295
X82.083 Y60.558 Z-10.276
X82.068 Y60.597 Z-10.269
X82.054 Y60.636 Z-10.276
X82.041 Y60.671 Z-10.295
X82.031 Y60.699 Z-10.324
X82.024 Y60.717 Z-10.362
X82.022 Y60.723 Z-10.403
X82.014 Z-10.452
X81.992 Z-10.495
X81.958 Z-10.53
X81.915 Z-10.553
X81.899 Z-10.559
X81.716 Z-10.522
X81.485 Z-10.507
X79.082
Z-10.497
Y60.975
Z-10.507
X81.466
X81.656 Z-10.515
X81.84 Z-10.545
X81.855 Z-10.539
X81.894 Z-10.515
X81.924 Z-10.481
X81.943 Z-10.44
X81.95 Z-10.395
X81.948 Y60.982 Z-10.351
X81.943 Y61.004 Z-10.312
X81.935 Y61.038 Z-10.283
X81.925 Y61.079 Z-10.268
X81.915 Y61.123
X81.905 Y61.164 Z-10.283
X81.897 Y61.197 Z-10.312
X81.892 Y61.219 Z-10.351
X81.89 Y61.227 Z-10.395
Z-10.405
X81.883 Z-10.453
X81.861 Z-10.497
X81.827 Z-10.532
X81.817 Z-10.54
X81.674 Z-10.517
X81.484 Z-10.507
X79.082
Z-10.497
Y61.479
Z-10.507
X81.3
X81.629 Z-10.513
X81.813 Z-10.539
X81.826 Z-10.532
X81.859 Z-10.506
X81.884 Z-10.473
X81.9 Z-10.435
X81.905 Z-10.394
X81.904 Y61.486 Z-10.351
X81.902 Y61.508 Z-10.312
X81.898 Y61.542 Z-10.284
X81.893 Y61.583 Z-10.269
X81.889 Y61.627
X81.884 Y61.668 Z-10.284
X81.88 Y61.701 Z-10.312
X81.878 Y61.723 Z-10.351
X81.877 Y61.731 Z-10.394
Z-10.415
X81.871 Z-10.458
X81.853 Z-10.498
X81.825 Z-10.532
X81.817 Z-10.54
X81.629 Z-10.513
X81.3 Z-10.507
X79.082
Z-10.497
Y61.983
Z-10.507
X81.3
X81.629 Z-10.513
X81.812 Z-10.539
X81.825 Z-10.532
X81.855 Z-10.509
X81.875 Z-10.477
X81.882 Z-10.44
Z-10.435
Y61.99 Z-10.392
X81.883 Y62.012 Z-10.354
X81.884 Y62.046 Z-10.326
X81.886 Y62.087 Z-10.311
X81.887 Y62.131
X81.889 Y62.172 Z-10.326
X81.89 Y62.205 Z-10.354
X81.891 Y62.227 Z-10.392
Y62.235 Z-10.435
X81.885 Z-10.474
X81.865 Z-10.508
X81.836 Z-10.534
X81.823 Z-10.541
X81.641 Z-10.514
X81.3 Z-10.507
X79.082
Z-10.497
Y62.361
Y62.487
Z-10.507
X81.477
X81.667 Z-10.516
X81.852 Z-10.548
X81.86 Z-10.54
X81.874 Z-10.521
X81.875 Z-10.52
X81.888 Y62.489 Z-10.502
X81.9 Y62.494 Z-10.484
X81.912 Y62.504 Z-10.468
X81.923 Y62.516 Z-10.454
X81.933 Y62.532 Z-10.442
X81.942 Y62.55 Z-10.433
X81.949 Y62.57 Z-10.426
X81.954 Y62.591 Z-10.423
X81.957 Y62.613 Z-10.422
Y62.635 Z-10.425
X81.956 Y62.656 Z-10.431
X81.952 Y62.676 Z-10.44
X81.947 Y62.694 Z-10.451
X81.939 Y62.709 Z-10.465
X81.93 Y62.722 Z-10.481
X81.92 Y62.731 Z-10.498
X81.909 Y62.737 Z-10.516
X81.896 Y62.739 Z-10.534
X81.887 Z-10.547
X81.881 Z-10.554
X81.696 Z-10.52
X81.472 Z-10.507
X79.082
Z-10.497
Y62.991
Z-10.507
X81.485
X81.72 Z-10.523
X81.905 Z-10.561
X81.91 Z-10.553
X81.918 Z-10.539
X81.923 Z-10.53
X81.933 Y62.993 Z-10.511
X81.943 Y62.998 Z-10.492
X81.953 Y63.008 Z-10.475
X81.962 Y63.02 Z-10.459
X81.97 Y63.036 Z-10.446
X81.977 Y63.054 Z-10.435
X81.982 Y63.074 Z-10.428
X81.986 Y63.095 Z-10.423
X81.987 Y63.117 Z-10.422
X81.988 Y63.139 Z-10.424
X81.986 Y63.16 Z-10.43
X81.982 Y63.18 Z-10.438
X81.977 Y63.198 Z-10.45
X81.971 Y63.213 Z-10.464
X81.963 Y63.226 Z-10.48
X81.954 Y63.235 Z-10.498
X81.945 Y63.241 Z-10.517
X81.934 Y63.243 Z-10.537
X81.922 Z-10.556
X81.917 Z-10.564
X81.733 Z-10.525
X81.544 Z-10.508
X79.082 Z-10.507
Z-10.497
X79.251 Y63.413
X79.839
X80.035 Y63.415
X80.229 Y63.43
X80.421 Y63.456
X80.611 Y63.495
X80.62 Z-10.507
X81.495
X81.731 Z-10.525
X81.914 Z-10.563
X81.92 Z-10.555
X81.938 Z-10.526
X81.949 Z-10.493
X81.953 Z-10.459
Z-10.45
X81.952 Y63.502 Z-10.407
X81.951 Y63.524 Z-10.369
X81.95 Y63.558 Z-10.341
X81.948 Y63.599 Z-10.326
X81.946 Y63.643
X81.944 Y63.684 Z-10.341
X81.942 Y63.717 Z-10.369
X81.941 Y63.739 Z-10.407
Y63.747 Z-10.45
X81.937 Z-10.486
X81.924 Z-10.521
X81.904 Z-10.552
X81.898 Z-10.559
X81.715 Z-10.522
X81.485 Z-10.507
X81.285
X81.275 Z-10.497
X81.265 Z-10.485
X81.249 Y63.748 Z-10.463
X81.235 Y63.752 Z-10.44
X81.225 Y63.758 Z-10.416
X81.217 Y63.767 Z-10.392
X81.213 Y63.777 Z-10.367
X81.212 Y63.79 Z-10.343
X81.214 Y63.805 Z-10.321
X81.22 Y63.82 Z-10.299
X81.228 Y63.837 Z-10.28
X81.24 Y63.855 Z-10.263
X81.254 Y63.873 Z-10.249
X81.271 Y63.891 Z-10.238
X81.29 Y63.908 Z-10.23
X81.311 Y63.925 Z-10.225
X81.333 Y63.941 Z-10.224
X81.355 Y63.955 Z-10.226
X81.379 Y63.968 Z-10.232
X81.402 Y63.979 Z-10.241
X81.424 Y63.987 Z-10.253
X81.446 Y63.994 Z-10.268
X81.466 Y63.997 Z-10.286
X81.484 Y63.999 Z-10.306
X81.637 Z-10.493
X81.648 Z-10.505
X81.658 Z-10.515
X81.871 Z-10.552
X81.88 Z-10.544
X81.913 Z-10.504
X81.934 Z-10.457
X81.941 Z-10.405
G0 Z5.
X55.462 Y85.922
Z-7.377
G1 Z-10.398 F460.
X55.454 Z-10.444
X55.432 Z-10.485
X55.397 Z-10.517
X55.377 Z-10.53
X55.325 Z-10.539
X55.317 Z-10.532
X55.306 Z-10.521
X55.305 Z-10.52
X55.29 Y85.924 Z-10.504
X55.276 Y85.93 Z-10.488
X55.263 Y85.939 Z-10.473
X55.251 Y85.952 Z-10.46
X55.241 Y85.967 Z-10.448
X55.232 Y85.985 Z-10.439
X55.226 Y86.005 Z-10.432
X55.222 Y86.026 Z-10.428
X55.221 Y86.048 Z-10.426
X55.222 Y86.07 Z-10.428
X55.226 Y86.091 Z-10.432
X55.232 Y86.111 Z-10.439
X55.24 Y86.129 Z-10.448
X55.251 Y86.145 Z-10.46
X55.263 Y86.157 Z-10.473
X55.276 Y86.167 Z-10.488
X55.29 Y86.172 Z-10.504
X55.305 Y86.174 Z-10.52
X55.317 Z-10.532
X55.324 Z-10.539
X55.452 Z-10.519
X55.724 Z-10.507
X55.734 Z-10.497
X55.743 Z-10.467
X55.746 Z-10.436
Z-10.386
X55.753 Y86.177 Z-10.318
X55.773 Y86.187 Z-10.253
X55.807 Y86.202 Z-10.195
X55.851 Y86.222 Z-10.146
X55.904 Y86.245 Z-10.11
X55.963 Y86.272 Z-10.087
X56.025 Y86.3 Z-10.079
X56.087 Y86.328 Z-10.087
X56.146 Y86.355 Z-10.11
X56.199 Y86.379 Z-10.146
X56.243 Y86.399 Z-10.195
X56.276 Y86.414 Z-10.253
X56.297 Y86.423 Z-10.318
X56.304 Y86.426 Z-10.386
X56.299 Z-10.427
X56.283 Z-10.465
X56.257 Z-10.498
X56.249 Z-10.507
X55.557 Z-10.509
X55.322 Z-10.541
X55.303 Z-10.543
X55.295 Z-10.537
X55.261 Z-10.502
X55.24 Z-10.458
X55.232 Z-10.41
X55.23 Y86.434 Z-10.366
X55.224 Y86.456 Z-10.326
X55.215 Y86.489 Z-10.297
X55.203 Y86.53 Z-10.282
X55.191 Y86.574
X55.18 Y86.615 Z-10.297
X55.171 Y86.649 Z-10.326
X55.165 Y86.671 Z-10.366
X55.163 Y86.678 Z-10.41
Z-10.413
X55.168 Z-10.454
X55.184 Z-10.492
X55.209 Z-10.525
X55.241 Z-10.55
X55.248 Z-10.554
X55.452 Z-10.519
X55.647 Z-10.507
X58.06
Z-10.497
Y86.804
Y86.93
Z-10.507
X55.647
X55.452 Z-10.519
X55.229 Z-10.563
X55.177 Z-10.576
X55.166 Z-10.571
X55.126 Z-10.547
X55.095 Z-10.513
X55.075 Z-10.471
X55.068 Z-10.424
X55.066 Y86.938 Z-10.38
X55.059 Y86.96 Z-10.34
X55.049 Y86.993 Z-10.311
X55.037 Y87.034 Z-10.295
X55.024 Y87.078
X55.012 Y87.119 Z-10.311
X55.002 Y87.153 Z-10.34
X54.995 Y87.175 Z-10.38
X54.993 Y87.182 Z-10.424
Z-10.437
X54.998 Z-10.478
X55.014 Z-10.516
X55.039 Z-10.549
X55.071 Z-10.574
X55.109 Z-10.59
X55.123 Z-10.594
X55.282 Z-10.55
X55.452 Z-10.519
X55.647 Z-10.507
X58.06
Z-10.497
Y87.308
Y87.434
Z-10.507
X55.647
X55.452 Z-10.519
X55.282 Z-10.55
X55.14 Z-10.589
X55.126 Z-10.584
X55.082 Z-10.562
X55.047 Z-10.527
X55.024 Z-10.482
X55.016 Z-10.433
Z-10.419
X55.018 Y87.44 Z-10.378
X55.025 Y87.458 Z-10.34
X55.035 Y87.486 Z-10.311
X55.048 Y87.521 Z-10.292
X55.063 Y87.56 Z-10.285
X55.077 Y87.599 Z-10.292
X55.09 Y87.634 Z-10.311
X55.101 Y87.662 Z-10.34
X55.107 Y87.68 Z-10.378
X55.109 Y87.686 Z-10.419
X55.116 Z-10.463
X55.134 Z-10.504
X55.162 Z-10.537
X55.199 Z-10.562
X55.209 Z-10.567
X55.452 Z-10.519
X55.647 Z-10.507
X58.06
Z-10.497
Y87.812
Y87.938
Z-10.507
X55.647
X55.452 Z-10.519
X55.277 Z-10.55
X55.266 Z-10.543
X55.236 Z-10.518
X55.214 Z-10.486
X55.2 Z-10.449
X55.195 Z-10.411
X55.197 Y87.946 Z-10.367
X55.202 Y87.968 Z-10.328
X55.209 Y88.001 Z-10.299
X55.218 Y88.042 Z-10.284
X55.227 Y88.086
X55.236 Y88.127 Z-10.299
X55.243 Y88.161 Z-10.328
X55.248 Y88.183 Z-10.367
X55.25 Y88.19 Z-10.411
X55.257 Z-10.457
X55.277 Z-10.5
X55.308 Z-10.534
X55.316 Z-10.54
X55.452 Z-10.519
X55.647 Z-10.507
X58.06
Z-10.497
Y88.316
Y88.442
Z-10.507
X55.647
X55.452 Z-10.519
X55.324 Z-10.539
X55.317 Z-10.532
X55.301 Y88.444 Z-10.517
X55.286 Y88.45 Z-10.503
X55.271 Y88.459 Z-10.489
X55.258 Y88.472 Z-10.477
X55.247 Y88.487 Z-10.466
X55.237 Y88.505 Z-10.457
X55.231 Y88.525 Z-10.451
X55.226 Y88.546 Z-10.447
X55.225 Y88.568 Z-10.446
X55.226 Y88.59 Z-10.447
X55.231 Y88.611 Z-10.451
X55.237 Y88.631 Z-10.457
X55.246 Y88.649 Z-10.466
X55.258 Y88.665 Z-10.477
X55.271 Y88.677 Z-10.489
X55.285 Y88.686 Z-10.503
X55.301 Y88.692 Z-10.517
X55.317 Y88.694 Z-10.532
X55.324 Z-10.539
X55.452 Z-10.519
X55.647 Z-10.507
X58.06
Z-10.497
Y88.82
Y88.946
Z-10.507
X55.647
X55.452 Z-10.519
X55.309 Z-10.542
X55.304 Z-10.536
X55.282 Z-10.504
X55.268 Z-10.468
X55.263 Z-10.429
X55.262 Y88.954 Z-10.386
X55.261 Y88.976 Z-10.348
X55.258 Y89.009 Z-10.32
X55.255 Y89.05 Z-10.305
X55.252 Y89.094
X55.249 Y89.135 Z-10.32
X55.247 Y89.169 Z-10.348
X55.245 Y89.19 Z-10.386
Y89.198 Z-10.429
Z-10.444
X55.249 Z-10.478
X55.26 Z-10.511
X55.278 Z-10.541
X55.284 Z-10.548
X55.452 Z-10.519
X55.647 Z-10.507
X58.06
Z-10.497
Y89.324
Y89.45
Z-10.507
X55.647
X55.452 Z-10.519
X55.254 Z-10.553
X55.25 Z-10.548
X55.248 Z-10.543
X55.236 Y89.452 Z-10.524
X55.225 Y89.458 Z-10.506
X55.214 Y89.467 Z-10.49
X55.204 Y89.48 Z-10.475
X55.195 Y89.495 Z-10.462
X55.187 Y89.513 Z-10.452
X55.181 Y89.533 Z-10.445
X55.176 Y89.554 Z-10.441
X55.174 Y89.576 Z-10.44
X55.173 Y89.598 Z-10.443
X55.174 Y89.619 Z-10.448
X55.178 Y89.639 Z-10.457
X55.183 Y89.657 Z-10.469
X55.19 Y89.673 Z-10.483
X55.198 Y89.685 Z-10.499
X55.207 Y89.694 Z-10.517
X55.218 Y89.7 Z-10.535
X55.229 Y89.702 Z-10.554
X55.232 Z-10.559
X55.452 Z-10.519
X55.647 Z-10.507
X58.06
Z-10.497
Y89.828
Y89.954
Z-10.507
X55.647
X55.452 Z-10.519
X55.222 Z-10.562
X55.219 Z-10.557
X55.209 Y89.956 Z-10.538
X55.198 Y89.962 Z-10.52
X55.189 Y89.971 Z-10.502
X55.18 Y89.984 Z-10.486
X55.173 Y89.999 Z-10.473
X55.167 Y90.017 Z-10.462
X55.163 Y90.037 Z-10.453
X55.16 Y90.058 Z-10.448
Y90.08 Z-10.446
X55.161 Y90.102 Z-10.448
X55.164 Y90.123 Z-10.453
X55.169 Y90.143 Z-10.46
X55.175 Y90.161 Z-10.471
X55.183 Y90.177 Z-10.485
X55.192 Y90.189 Z-10.5
X55.202 Y90.198 Z-10.517
X55.213 Y90.204 Z-10.536
X55.224 Y90.206 Z-10.555
Z-10.556
X55.227 Z-10.561
X55.452 Z-10.519
X55.647 Z-10.507
X58.06
Z-10.497
Y90.332
Y90.458
Z-10.507
X55.647
X55.452 Z-10.519
X55.245 Z-10.556
X55.242 Z-10.55
X55.223 Z-10.51
X55.217 Z-10.465
Z-10.45
X55.218 Y90.466 Z-10.407
X55.219 Y90.488 Z-10.369
X55.222 Y90.521 Z-10.341
X55.225 Y90.562 Z-10.326
X55.229 Y90.606
X55.232 Y90.647 Z-10.341
X55.235 Y90.681 Z-10.369
X55.237 Y90.702 Z-10.407
Y90.71 Z-10.45
X55.245 Z-10.5
X55.268 Z-10.544
X55.271 Z-10.549
X55.452 Z-10.519
X55.647 Z-10.507
X58.06
Z-10.497
Y90.836
Y90.962
Z-10.507
X55.647
X55.452 Z-10.519
X55.3 Z-10.543
X55.295 Z-10.537
X55.274 Z-10.506
X55.261 Z-10.471
X55.257 Z-10.434
Z-10.42
Y90.97 Z-10.377
X55.258 Y90.992 Z-10.339
X55.26 Y91.025 Z-10.311
X55.261 Y91.066 Z-10.296
X55.263 Y91.11
X55.265 Y91.151 Z-10.311
X55.266 Y91.185 Z-10.339
X55.267 Y91.206 Z-10.377
Y91.214 Z-10.42
X55.273 Z-10.462
X55.289 Z-10.5
X55.314 Z-10.533
X55.321 Z-10.539
X55.452 Z-10.519
X55.647 Z-10.507
X58.06
Z-10.497
Y91.34
Y91.466
Z-10.507
X55.647
X55.452 Z-10.519
X55.324 Z-10.539
X55.317 Z-10.532
X55.301 Y91.468 Z-10.517
X55.285 Y91.474 Z-10.503
X55.27 Y91.483 Z-10.489
X55.257 Y91.496 Z-10.477
X55.245 Y91.511 Z-10.467
X55.236 Y91.529 Z-10.458
X55.229 Y91.549 Z-10.452
X55.225 Y91.57 Z-10.448
X55.224 Y91.592 Z-10.447
X55.225 Y91.614 Z-10.448
X55.229 Y91.635 Z-10.452
X55.236 Y91.655 Z-10.458
X55.245 Y91.673 Z-10.467
X55.257 Y91.689 Z-10.477
X55.27 Y91.701 Z-10.489
X55.285 Y91.71 Z-10.503
X55.301 Y91.716 Z-10.517
X55.317 Y91.718 Z-10.532
X55.324 Z-10.539
X55.452 Z-10.519
X55.647 Z-10.507
X58.06
Z-10.497
Y91.844
Y91.97
Z-10.507
X55.647
X55.452 Z-10.519
X55.324 Z-10.539
X55.317 Z-10.532
X55.301 Y91.972 Z-10.517
X55.285 Y91.978 Z-10.503
X55.27 Y91.987 Z-10.489
X55.257 Y92. Z-10.477
X55.245 Y92.015 Z-10.467
X55.236 Y92.033 Z-10.458
X55.229 Y92.053 Z-10.452
X55.225 Y92.074 Z-10.448
X55.224 Y92.096 Z-10.447
X55.225 Y92.118 Z-10.448
X55.229 Y92.139 Z-10.452
X55.236 Y92.159 Z-10.458
X55.245 Y92.177 Z-10.467
X55.257 Y92.193 Z-10.477
X55.27 Y92.205 Z-10.489
X55.285 Y92.214 Z-10.503
X55.301 Y92.22 Z-10.517
X55.317 Y92.222 Z-10.532
X55.324 Z-10.538
X55.452 Z-10.519
X55.647 Z-10.507
X58.06
Z-10.497
Y92.348
Y92.474
Z-10.507
X55.647
X55.452 Z-10.519
X55.324 Z-10.539
X55.317 Z-10.532
X55.301 Y92.476 Z-10.517
X55.285 Y92.482 Z-10.503
X55.27 Y92.491 Z-10.489
X55.257 Y92.504 Z-10.477
X55.246 Y92.519 Z-10.467
X55.236 Y92.537 Z-10.458
X55.229 Y92.557 Z-10.452
X55.225 Y92.578 Z-10.448
X55.224 Y92.6 Z-10.447
X55.225 Y92.622 Z-10.448
X55.229 Y92.643 Z-10.452
X55.236 Y92.663 Z-10.458
X55.246 Y92.681 Z-10.467
X55.257 Y92.697 Z-10.477
X55.27 Y92.709 Z-10.489
X55.285 Y92.718 Z-10.503
X55.301 Y92.724 Z-10.517
X55.317 Y92.726 Z-10.532
X55.324 Z-10.539
X55.452 Z-10.519
X55.647 Z-10.507
X58.06
Z-10.497
Y92.852
Y92.978
Z-10.507
X55.647
X55.452 Z-10.519
X55.323 Z-10.539
X55.316 Z-10.532
X55.287 Z-10.498
X55.268 Z-10.458
X55.262 Z-10.413
Z-10.411
X55.261 Y92.986 Z-10.367
X55.258 Y93.007 Z-10.329
X55.253 Y93.041 Z-10.3
X55.247 Y93.082 Z-10.285
X55.24 Y93.126
X55.234 Y93.167 Z-10.3
X55.229 Y93.201 Z-10.329
X55.226 Y93.222 Z-10.367
X55.225 Y93.23 Z-10.411
X55.232 Z-10.459
X55.255 Z-10.503
X55.289 Z-10.538
X55.297 Z-10.544
X55.452 Z-10.519
X55.647 Z-10.507
X58.06
Z-10.497
X57.902 Y93.412
X57.333
X57.144 Y93.414
X56.957 Y93.426
X56.771 Y93.448
X56.588 Y93.482
X56.578 Z-10.507
X55.527 Z-10.511
X55.367 Z-10.532
X55.239 Z-10.557
X55.231 Z-10.552
X55.197 Z-10.527
X55.172 Z-10.494
X55.156 Z-10.455
X55.15 Z-10.414
X55.148 Y93.488 Z-10.372
X55.141 Y93.506 Z-10.335
X55.13 Y93.534 Z-10.305
X55.117 Y93.569 Z-10.286
X55.102 Y93.608 Z-10.279
X55.087 Y93.647 Z-10.286
X55.073 Y93.682 Z-10.305
X55.062 Y93.71 Z-10.335
X55.056 Y93.728 Z-10.372
X55.053 Y93.734 Z-10.414
Z-10.426
X55.06 Z-10.474
X55.081 Z-10.517
X55.114 Z-10.551
X55.156 Z-10.575
X55.169 Z-10.58
X55.367 Z-10.532
X55.568 Z-10.509
X55.88 Z-10.507
X55.89 Z-10.497
X55.916 Z-10.464
X55.933 Z-10.425
X55.938 Z-10.383
X55.932 Y93.738 Z-10.325
X55.914 Y93.751 Z-10.271
X55.884 Y93.771 Z-10.225
X55.846 Y93.797 Z-10.189
X55.802 Y93.827 Z-10.167
X55.754 Y93.86 Z-10.159
X55.706 Y93.893 Z-10.167
X55.662 Y93.923 Z-10.189
X55.624 Y93.949 Z-10.225
X55.594 Y93.969 Z-10.271
X55.576 Y93.982 Z-10.325
X55.569 Y93.986 Z-10.383
Z-10.4
X55.562 Z-10.44
X55.542 Z-10.476
X55.511 Z-10.503
X55.492 Z-10.514
X55.33 Z-10.539
X55.118 Z-10.593
X55.109 Z-10.591
G3 X54.874 Z-10.284 I0.083 K0.306
G0 Z5.
X55.015 Y109.862
Z-7.653
G1 Z-10.161 F460.
X55.021 Z-10.223
X55.039 Z-10.282
X55.068 Z-10.337
X55.108 Z-10.385
X60.555 Z-4.936
Y109.988 Z-4.932
Y110.114 Z-4.928
X60.548 Z-4.949
X55.104 Z-10.389
X55.1 Z-10.384
X55.086 Y110.116 Z-10.366
X55.073 Y110.121 Z-10.349
X55.06 Y110.131 Z-10.334
X55.047 Y110.143 Z-10.321
X55.036 Y110.159 Z-10.309
X55.026 Y110.177 Z-10.301
X55.018 Y110.197 Z-10.295
X55.012 Y110.218 Z-10.292
X55.008 Y110.24 Z-10.293
X55.006 Y110.262 Z-10.296
X55.007 Y110.283 Z-10.303
X55.01 Y110.303 Z-10.312
X55.016 Y110.321 Z-10.324
X55.023 Y110.336 Z-10.338
X55.033 Y110.349 Z-10.354
X55.044 Y110.358 Z-10.371
X55.056 Y110.364 Z-10.389
X55.069 Y110.366 Z-10.407
X55.073 Z-10.412
X55.078 Z-10.419
X60.548 Z-4.949
X60.555 Z-4.928
Y110.492
Y110.618
X60.548 Z-4.949
X55.019 Z-10.478
X55.014 Z-10.47
X55. Y110.619 Z-10.453
X54.985 Y110.624 Z-10.436
X54.97 Y110.631 Z-10.422
X54.955 Y110.642 Z-10.409
X54.939 Y110.655 Z-10.4
X54.924 Y110.67 Z-10.392
X54.91 Y110.686 Z-10.388
X54.897 Y110.705 Z-10.387
X54.886 Y110.724 Z-10.388
X54.876 Y110.744 Z-10.393
X54.869 Y110.763 Z-10.4
X54.863 Y110.783 Z-10.411
X54.861 Y110.801 Z-10.423
X54.86 Y110.818 Z-10.438
X54.862 Y110.833 Z-10.454
X54.866 Y110.846 Z-10.472
X54.873 Y110.856 Z-10.491
X54.881 Y110.863 Z-10.51
X54.892 Y110.868 Z-10.529
X54.904 Y110.87 Z-10.548
X54.917 Z-10.566
X54.923 Z-10.574
X60.548 Z-4.949
X60.555 Z-4.928
Y111.122
X60.548 Z-4.949
X54.774 Z-10.719
X54.771 Z-10.714
X54.751 Z-10.672
X54.744 Z-10.626
X54.739 Y111.127 Z-10.578
X54.726 Y111.142 Z-10.533
X54.704 Y111.165 Z-10.497
X54.676 Y111.195 Z-10.47
X54.645 Y111.23 Z-10.457
X54.612 Y111.266
X54.58 Y111.3 Z-10.47
X54.552 Y111.33 Z-10.497
X54.531 Y111.354 Z-10.533
X54.517 Y111.369 Z-10.578
X54.512 Y111.374 Z-10.626
Z-10.875
X54.517 Z-10.914
X54.532 Z-10.951
X54.536 Z-10.958
X60.548 Z-4.949
X60.555 Z-4.928
G0 Z5.
X76.588 Y109.862
Z1.63
G1 Z-4.936 F460.
Z-4.942
X82.033 Z-10.387
X82.034 Z-10.385
X82.038 Z-10.38
X82.051 Y109.864 Z-10.363
X82.064 Y109.869 Z-10.346
X82.077 Y109.879 Z-10.33
X82.088 Y109.891 Z-10.316
X82.097 Y109.907 Z-10.304
X82.105 Y109.925 Z-10.294
X82.111 Y109.945 Z-10.287
X82.115 Y109.966 Z-10.282
X82.116 Y109.988 Z-10.281
Y110.01 Z-10.283
X82.113 Y110.031 Z-10.288
X82.107 Y110.051 Z-10.295
X82.1 Y110.069 Z-10.306
X82.091 Y110.084 Z-10.318
X82.08 Y110.097 Z-10.333
X82.068 Y110.106 Z-10.349
X82.056 Y110.112 Z-10.366
X82.043 Y110.114 Z-10.383
X82.037 Z-10.391
X76.588 Z-4.942
Z-4.928
Y110.24
Y110.366
Z-4.942
X82.064 Z-10.419
X82.07 Z-10.411
X82.082 Y110.367 Z-10.395
X82.096 Y110.372 Z-10.38
X82.109 Y110.379 Z-10.366
X82.122 Y110.39 Z-10.353
X82.135 Y110.403 Z-10.343
X82.147 Y110.418 Z-10.335
X82.158 Y110.434 Z-10.33
X82.167 Y110.453 Z-10.327
X82.175 Y110.472 Z-10.326
X82.181 Y110.492 Z-10.329
X82.186 Y110.511 Z-10.334
X82.188 Y110.531 Z-10.342
Y110.549 Z-10.352
X82.186 Y110.566 Z-10.364
X82.182 Y110.581 Z-10.378
X82.176 Y110.594 Z-10.393
X82.168 Y110.604 Z-10.409
X82.159 Y110.611 Z-10.426
X82.148 Y110.616 Z-10.443
X82.136 Y110.618 Z-10.46
X82.129 Z-10.47
X82.123 Z-10.478
X76.588 Z-4.942
Z-4.928
Y110.87
Z-4.942
X82.219 Z-10.574
X82.224 Z-10.567
X82.239 Y110.871 Z-10.547
X82.256 Y110.876 Z-10.528
X82.274 Y110.883 Z-10.512
X82.293 Y110.894 Z-10.499
X82.313 Y110.907 Z-10.488
X82.332 Y110.922 Z-10.481
X82.351 Y110.938 Z-10.478
X82.368 Y110.957
X82.385 Y110.976 Z-10.482
X82.399 Y110.996 Z-10.489
X82.411 Y111.015 Z-10.5
X82.421 Y111.035 Z-10.513
X82.428 Y111.053 Z-10.529
X82.432 Y111.07 Z-10.548
X82.433 Y111.085 Z-10.569
X82.431 Y111.098 Z-10.59
X82.426 Y111.108 Z-10.613
X82.418 Y111.115 Z-10.636
X82.407 Y111.12 Z-10.659
X82.394 Y111.122 Z-10.68
X82.372 Z-10.714
X82.367 Z-10.721
X76.588 Z-4.942
Z-4.928
Y111.374
Z-4.942
X82.605 Z-10.96
X82.61 Z-10.951
X82.632 Z-10.902
X82.645 Z-10.85
X82.65 Z-10.797
G0 Z5.
X120.015 Y109.862
Z-7.653
G1 Z-10.161 F460.
X120.021 Z-10.223
X120.039 Z-10.282
X120.068 Z-10.337
X120.108 Z-10.385
X125.555 Z-4.936
Y110.114 Z-4.928
X125.548 Z-4.949
X120.104 Z-10.389
X120.1 Z-10.383
X120.086 Y110.116 Z-10.366
X120.073 Y110.121 Z-10.349
X120.059 Y110.131 Z-10.334
X120.047 Y110.143 Z-10.321
X120.036 Y110.159 Z-10.309
X120.026 Y110.177 Z-10.301
X120.018 Y110.197 Z-10.295
X120.012 Y110.218 Z-10.292
X120.008 Y110.24 Z-10.293
X120.006 Y110.262 Z-10.296
X120.007 Y110.283 Z-10.303
X120.01 Y110.303 Z-10.312
X120.016 Y110.321 Z-10.324
X120.023 Y110.336 Z-10.338
X120.033 Y110.349 Z-10.354
X120.044 Y110.358 Z-10.371
X120.056 Y110.364 Z-10.389
X120.069 Y110.366 Z-10.407
X120.073 Z-10.412
X120.077 Z-10.417
X125.548 Z-4.949
X125.555 Z-4.928
Y110.618
X125.548 Z-4.949
X120.019 Z-10.478
X120.014 Z-10.47
X120. Y110.619 Z-10.453
X119.985 Y110.624 Z-10.436
X119.97 Y110.631 Z-10.422
X119.955 Y110.642 Z-10.409
X119.939 Y110.655 Z-10.4
X119.924 Y110.67 Z-10.392
X119.91 Y110.686 Z-10.388
X119.897 Y110.705 Z-10.387
X119.886 Y110.724 Z-10.388
X119.876 Y110.744 Z-10.393
X119.869 Y110.763 Z-10.4
X119.863 Y110.783 Z-10.411
X119.861 Y110.801 Z-10.423
X119.86 Y110.818 Z-10.438
X119.862 Y110.833 Z-10.454
X119.866 Y110.846 Z-10.472
X119.873 Y110.856 Z-10.491
X119.881 Y110.863 Z-10.51
X119.892 Y110.868 Z-10.529
X119.904 Y110.87 Z-10.548
X119.917 Z-10.566
X119.923 Z-10.574
X125.548 Z-4.949
X125.555 Z-4.928
Y111.122
X125.548 Z-4.949
X119.774 Z-10.719
X119.771 Z-10.714
X119.751 Z-10.672
X119.744 Z-10.626
X119.739 Y111.127 Z-10.578
X119.726 Y111.142 Z-10.533
X119.704 Y111.165 Z-10.497
X119.676 Y111.195 Z-10.47
X119.645 Y111.23 Z-10.457
X119.612 Y111.266
X119.58 Y111.3 Z-10.47
X119.552 Y111.33 Z-10.497
X119.531 Y111.354 Z-10.533
X119.517 Y111.369 Z-10.578
X119.512 Y111.374 Z-10.626
Z-10.875
X119.517 Z-10.914
X119.532 Z-10.951
X119.536 Z-10.958
X125.548 Z-4.949
X125.555 Z-4.928
Y111.626
X125.548 Z-4.949
X118.975 Z-11.521
X83.167
X76.588 Z-4.942
Z-4.928
Y111.878
Z-4.942
X83.167 Z-11.521
X118.975
X125.548 Z-4.949
X125.555 Z-4.928
Y112.13
X125.548 Z-4.949
X118.975 Z-11.521
X83.167
X76.588 Z-4.942
Z-4.928
Y112.382
Z-4.942
X83.167 Z-11.521
X118.975
X125.548 Z-4.949
X125.555 Z-4.928
Y112.634
X125.548 Z-4.949
X118.975 Z-11.521
X83.167
X76.588 Z-4.942
Z-4.928
Y112.886
Z-4.942
X83.167 Z-11.521
X118.975
X125.548 Z-4.949
X125.555 Z-4.928
Y113.138
X125.548 Z-4.949
X118.975 Z-11.521
X83.167
X76.588 Z-4.942
Z-4.928
Y113.39
Z-4.942
X83.167 Z-11.521
X118.975
X125.548 Z-4.949
X125.555 Z-4.928
G0 Z5.
X120.462 Y85.922
Z-7.377
G1 Z-10.398 F460.
X120.454 Z-10.444
X120.432 Z-10.485
X120.397 Z-10.517
X120.377 Z-10.53
X120.325 Z-10.539
X120.317 Z-10.532
X120.306 Z-10.521
X120.305 Z-10.52
X120.29 Y85.924 Z-10.504
X120.276 Y85.93 Z-10.488
X120.263 Y85.939 Z-10.473
X120.251 Y85.952 Z-10.46
X120.241 Y85.967 Z-10.448
X120.232 Y85.985 Z-10.439
X120.226 Y86.005 Z-10.432
X120.222 Y86.026 Z-10.428
X120.221 Y86.048 Z-10.426
X120.222 Y86.07 Z-10.428
X120.226 Y86.091 Z-10.432
X120.232 Y86.111 Z-10.439
X120.24 Y86.129 Z-10.448
X120.251 Y86.145 Z-10.46
X120.263 Y86.157 Z-10.473
X120.276 Y86.167 Z-10.488
X120.29 Y86.172 Z-10.504
X120.305 Y86.174 Z-10.52
X120.317 Z-10.532
X120.324 Z-10.539
X120.452 Z-10.519
X120.724 Z-10.507
X120.734 Z-10.497
X120.743 Z-10.467
X120.746 Z-10.436
Z-10.386
X120.753 Y86.177 Z-10.318
X120.773 Y86.187 Z-10.253
X120.807 Y86.202 Z-10.195
X120.851 Y86.222 Z-10.146
X120.904 Y86.245 Z-10.11
X120.963 Y86.272 Z-10.087
X121.025 Y86.3 Z-10.079
X121.087 Y86.328 Z-10.087
X121.146 Y86.355 Z-10.11
X121.199 Y86.379 Z-10.146
X121.243 Y86.399 Z-10.195
X121.276 Y86.414 Z-10.253
X121.297 Y86.423 Z-10.318
X121.304 Y86.426 Z-10.386
X121.299 Z-10.427
X121.283 Z-10.465
X121.257 Z-10.498
X121.249 Z-10.507
X120.557 Z-10.509
X120.322 Z-10.541
X120.303 Z-10.543
X120.295 Z-10.537
X120.261 Z-10.502
X120.24 Z-10.458
X120.232 Z-10.41
X120.23 Y86.434 Z-10.366
X120.224 Y86.456 Z-10.326
X120.215 Y86.489 Z-10.297
X120.203 Y86.53 Z-10.282
X120.191 Y86.574
X120.18 Y86.615 Z-10.297
X120.171 Y86.649 Z-10.326
X120.165 Y86.671 Z-10.366
X120.163 Y86.678 Z-10.41
Z-10.413
X120.168 Z-10.454
X120.184 Z-10.492
X120.209 Z-10.525
X120.241 Z-10.55
X120.248 Z-10.554
X120.452 Z-10.519
X120.647 Z-10.507
X123.053
X123.06 Z-10.497
Y86.93
X123.053 Z-10.507
X120.647
X120.452 Z-10.519
X120.229 Z-10.563
X120.177 Z-10.576
X120.166 Z-10.571
X120.126 Z-10.547
X120.095 Z-10.513
X120.075 Z-10.471
X120.068 Z-10.424
X120.066 Y86.938 Z-10.38
X120.059 Y86.96 Z-10.34
X120.049 Y86.993 Z-10.311
X120.037 Y87.034 Z-10.295
X120.024 Y87.078
X120.012 Y87.119 Z-10.311
X120.002 Y87.153 Z-10.34
X119.995 Y87.175 Z-10.38
X119.993 Y87.182 Z-10.424
Z-10.437
X119.998 Z-10.478
X120.014 Z-10.516
X120.039 Z-10.549
X120.071 Z-10.574
X120.109 Z-10.59
X120.123 Z-10.594
X120.282 Z-10.55
X120.452 Z-10.519
X120.647 Z-10.507
X123.053
X123.06 Z-10.497
Y87.434
X123.053 Z-10.507
X120.647
X120.452 Z-10.519
X120.282 Z-10.55
X120.14 Z-10.589
X120.126 Z-10.584
X120.082 Z-10.562
X120.047 Z-10.527
X120.024 Z-10.482
X120.016 Z-10.433
Z-10.419
X120.018 Y87.44 Z-10.378
X120.025 Y87.458 Z-10.34
X120.035 Y87.486 Z-10.311
X120.048 Y87.521 Z-10.292
X120.063 Y87.56 Z-10.285
X120.077 Y87.599 Z-10.292
X120.09 Y87.634 Z-10.311
X120.101 Y87.662 Z-10.34
X120.107 Y87.68 Z-10.378
X120.109 Y87.686 Z-10.419
X120.116 Z-10.463
X120.134 Z-10.504
X120.162 Z-10.537
X120.199 Z-10.562
X120.209 Z-10.567
X120.452 Z-10.519
X120.647 Z-10.507
X123.053
X123.06 Z-10.497
Y87.938
X123.053 Z-10.507
X120.647
X120.452 Z-10.519
X120.277 Z-10.55
X120.266 Z-10.543
X120.236 Z-10.518
X120.214 Z-10.486
X120.2 Z-10.449
X120.195 Z-10.411
X120.197 Y87.946 Z-10.367
X120.202 Y87.968 Z-10.328
X120.209 Y88.001 Z-10.299
X120.218 Y88.042 Z-10.284
X120.227 Y88.086
X120.236 Y88.127 Z-10.299
X120.243 Y88.161 Z-10.328
X120.248 Y88.183 Z-10.367
X120.25 Y88.19 Z-10.411
X120.257 Z-10.457
X120.277 Z-10.5
X120.308 Z-10.534
X120.316 Z-10.54
X120.452 Z-10.519
X120.647 Z-10.507
X123.053
X123.06 Z-10.497
Y88.442
X123.053 Z-10.507
X120.647
X120.452 Z-10.519
X120.324 Z-10.539
X120.317 Z-10.532
X120.301 Y88.444 Z-10.517
X120.286 Y88.45 Z-10.503
X120.271 Y88.459 Z-10.489
X120.258 Y88.472 Z-10.477
X120.247 Y88.487 Z-10.466
X120.237 Y88.505 Z-10.457
X120.231 Y88.525 Z-10.451
X120.226 Y88.546 Z-10.447
X120.225 Y88.568 Z-10.446
X120.226 Y88.59 Z-10.447
X120.231 Y88.611 Z-10.451
X120.237 Y88.631 Z-10.457
X120.246 Y88.649 Z-10.466
X120.258 Y88.665 Z-10.477
X120.271 Y88.677 Z-10.489
X120.285 Y88.686 Z-10.503
X120.301 Y88.692 Z-10.517
X120.317 Y88.694 Z-10.532
X120.324 Z-10.539
X120.452 Z-10.519
X120.647 Z-10.507
X123.053
X123.06 Z-10.497
Y88.946
X123.053 Z-10.507
X120.647
X120.452 Z-10.519
X120.309 Z-10.542
X120.304 Z-10.536
X120.282 Z-10.504
X120.268 Z-10.468
X120.263 Z-10.429
X120.262 Y88.954 Z-10.386
X120.261 Y88.976 Z-10.348
X120.258 Y89.009 Z-10.32
X120.255 Y89.05 Z-10.305
X120.252 Y89.094
X120.249 Y89.135 Z-10.32
X120.247 Y89.169 Z-10.348
X120.245 Y89.19 Z-10.386
Y89.198 Z-10.429
Z-10.444
X120.249 Z-10.479
X120.26 Z-10.512
X120.278 Z-10.541
X120.284 Z-10.548
X120.452 Z-10.519
X120.647 Z-10.507
X123.053
X123.06 Z-10.497
Y89.45
X123.053 Z-10.507
X120.647
X120.452 Z-10.519
X120.254 Z-10.553
X120.25 Z-10.548
X120.248 Z-10.543
X120.236 Y89.452 Z-10.524
X120.225 Y89.458 Z-10.506
X120.214 Y89.467 Z-10.49
X120.204 Y89.48 Z-10.475
X120.195 Y89.495 Z-10.462
X120.187 Y89.513 Z-10.452
X120.181 Y89.533 Z-10.445
X120.176 Y89.554 Z-10.441
X120.174 Y89.576 Z-10.44
X120.173 Y89.598 Z-10.443
X120.174 Y89.619 Z-10.448
X120.178 Y89.639 Z-10.457
X120.183 Y89.657 Z-10.469
X120.19 Y89.673 Z-10.483
X120.198 Y89.685 Z-10.499
X120.207 Y89.694 Z-10.517
X120.218 Y89.7 Z-10.535
X120.229 Y89.702 Z-10.554
X120.232 Z-10.559
X120.452 Z-10.519
X120.647 Z-10.507
X123.053
X123.06 Z-10.497
Y89.954
X123.053 Z-10.507
X120.647
X120.452 Z-10.519
X120.222 Z-10.562
X120.219 Z-10.557
X120.209 Y89.956 Z-10.538
X120.198 Y89.962 Z-10.52
X120.189 Y89.971 Z-10.502
X120.18 Y89.984 Z-10.486
X120.173 Y89.999 Z-10.473
X120.167 Y90.017 Z-10.462
X120.163 Y90.037 Z-10.453
X120.16 Y90.058 Z-10.448
Y90.08 Z-10.446
X120.161 Y90.102 Z-10.448
X120.164 Y90.123 Z-10.453
X120.169 Y90.143 Z-10.46
X120.175 Y90.161 Z-10.471
X120.183 Y90.177 Z-10.485
X120.192 Y90.189 Z-10.5
X120.202 Y90.198 Z-10.517
X120.213 Y90.204 Z-10.536
X120.224 Y90.206 Z-10.555
Z-10.556
X120.227 Z-10.561
X120.452 Z-10.519
X120.647 Z-10.507
X123.053
X123.06 Z-10.497
Y90.458
X123.053 Z-10.507
X120.647
X120.452 Z-10.519
X120.245 Z-10.556
X120.242 Z-10.55
X120.223 Z-10.51
X120.217 Z-10.465
Z-10.45
X120.218 Y90.466 Z-10.407
X120.219 Y90.488 Z-10.369
X120.222 Y90.521 Z-10.341
X120.225 Y90.562 Z-10.326
X120.229 Y90.606
X120.232 Y90.647 Z-10.341
X120.235 Y90.681 Z-10.369
X120.237 Y90.702 Z-10.407
Y90.71 Z-10.45
X120.245 Z-10.5
X120.268 Z-10.544
X120.271 Z-10.549
X120.452 Z-10.519
X120.647 Z-10.507
X123.053
X123.06 Z-10.497
Y90.962
X123.053 Z-10.507
X120.647
X120.452 Z-10.519
X120.3 Z-10.543
X120.295 Z-10.537
X120.274 Z-10.506
X120.261 Z-10.471
X120.257 Z-10.434
Z-10.42
Y90.97 Z-10.377
X120.258 Y90.992 Z-10.339
X120.26 Y91.025 Z-10.311
X120.261 Y91.066 Z-10.296
X120.263 Y91.11
X120.265 Y91.151 Z-10.311
X120.266 Y91.185 Z-10.339
X120.267 Y91.206 Z-10.377
Y91.214 Z-10.42
X120.273 Z-10.462
X120.289 Z-10.5
X120.314 Z-10.533
X120.321 Z-10.539
X120.452 Z-10.519
X120.647 Z-10.507
X123.053
X123.06 Z-10.497
Y91.466
X123.053 Z-10.507
X120.647
X120.452 Z-10.519
X120.324 Z-10.539
X120.317 Z-10.532
X120.301 Y91.468 Z-10.517
X120.285 Y91.474 Z-10.503
X120.27 Y91.483 Z-10.489
X120.257 Y91.496 Z-10.477
X120.245 Y91.511 Z-10.467
X120.236 Y91.529 Z-10.458
X120.229 Y91.549 Z-10.452
X120.225 Y91.57 Z-10.448
X120.224 Y91.592 Z-10.447
X120.225 Y91.614 Z-10.448
X120.229 Y91.635 Z-10.452
X120.236 Y91.655 Z-10.458
X120.245 Y91.673 Z-10.467
X120.257 Y91.689 Z-10.477
X120.27 Y91.701 Z-10.489
X120.285 Y91.71 Z-10.503
X120.301 Y91.716 Z-10.517
X120.317 Y91.718 Z-10.532
X120.324 Z-10.539
X120.452 Z-10.519
X120.647 Z-10.507
X123.053
X123.06 Z-10.497
Y91.97
X123.053 Z-10.507
X120.647
X120.452 Z-10.519
X120.324 Z-10.539
X120.317 Z-10.532
X120.301 Y91.972 Z-10.517
X120.285 Y91.978 Z-10.503
X120.27 Y91.987 Z-10.489
X120.257 Y92. Z-10.477
X120.245 Y92.015 Z-10.467
X120.236 Y92.033 Z-10.458
X120.229 Y92.053 Z-10.452
X120.225 Y92.074 Z-10.448
X120.224 Y92.096 Z-10.447
X120.225 Y92.118 Z-10.448
X120.229 Y92.139 Z-10.452
X120.236 Y92.159 Z-10.458
X120.245 Y92.177 Z-10.467
X120.257 Y92.193 Z-10.477
X120.27 Y92.205 Z-10.489
X120.285 Y92.214 Z-10.503
X120.301 Y92.22 Z-10.517
X120.317 Y92.222 Z-10.532
X120.323 Z-10.538
X120.452 Z-10.519
X120.647 Z-10.507
X123.053
X123.06 Z-10.497
Y92.474
X123.053 Z-10.507
X120.647
X120.452 Z-10.519
X120.324 Z-10.539
X120.317 Z-10.532
X120.301 Y92.476 Z-10.517
X120.285 Y92.482 Z-10.503
X120.27 Y92.491 Z-10.489
X120.257 Y92.504 Z-10.477
X120.246 Y92.519 Z-10.467
X120.236 Y92.537 Z-10.458
X120.229 Y92.557 Z-10.452
X120.225 Y92.578 Z-10.448
X120.224 Y92.6 Z-10.447
X120.225 Y92.622 Z-10.448
X120.229 Y92.643 Z-10.452
X120.236 Y92.663 Z-10.458
X120.246 Y92.681 Z-10.467
X120.257 Y92.697 Z-10.477
X120.27 Y92.709 Z-10.489
X120.285 Y92.718 Z-10.503
X120.301 Y92.724 Z-10.517
X120.317 Y92.726 Z-10.532
X120.324 Z-10.539
X120.452 Z-10.519
X120.647 Z-10.507
X123.053
X123.06 Z-10.497
Y92.978
X123.053 Z-10.507
X120.647
X120.452 Z-10.519
X120.323 Z-10.539
X120.316 Z-10.532
X120.287 Z-10.498
X120.268 Z-10.458
X120.262 Z-10.413
Z-10.411
X120.261 Y92.986 Z-10.367
X120.258 Y93.007 Z-10.329
X120.253 Y93.041 Z-10.3
X120.247 Y93.082 Z-10.285
X120.24 Y93.126
X120.234 Y93.167 Z-10.3
X120.229 Y93.201 Z-10.329
X120.226 Y93.222 Z-10.367
X120.225 Y93.23 Z-10.411
X120.232 Z-10.459
X120.255 Z-10.503
X120.289 Z-10.538
X120.297 Z-10.544
X120.452 Z-10.519
X120.647 Z-10.507
X123.053
X123.06 Z-10.497
X122.902 Y93.412
X122.333
X122.144 Y93.414
X121.957 Y93.426
X121.771 Y93.448
X121.587 Y93.482
X121.578 Z-10.507
X120.527 Z-10.511
X120.367 Z-10.532
X120.239 Z-10.557
X120.231 Z-10.552
X120.197 Z-10.527
X120.172 Z-10.494
X120.156 Z-10.455
X120.15 Z-10.414
X120.148 Y93.488 Z-10.372
X120.141 Y93.506 Z-10.335
X120.13 Y93.534 Z-10.305
X120.117 Y93.569 Z-10.286
X120.102 Y93.608 Z-10.279
X120.087 Y93.647 Z-10.286
X120.073 Y93.682 Z-10.305
X120.062 Y93.71 Z-10.335
X120.056 Y93.728 Z-10.372
X120.053 Y93.734 Z-10.414
Z-10.426
X120.06 Z-10.474
X120.081 Z-10.517
X120.114 Z-10.551
X120.156 Z-10.575
X120.169 Z-10.58
X120.367 Z-10.532
X120.568 Z-10.509
X120.88 Z-10.507
X120.89 Z-10.497
X120.916 Z-10.464
X120.933 Z-10.425
X120.938 Z-10.383
X120.932 Y93.738 Z-10.325
X120.914 Y93.751 Z-10.271
X120.884 Y93.771 Z-10.225
X120.846 Y93.797 Z-10.189
X120.802 Y93.827 Z-10.167
X120.754 Y93.86 Z-10.159
X120.706 Y93.893 Z-10.167
X120.662 Y93.923 Z-10.189
X120.624 Y93.949 Z-10.225
X120.594 Y93.969 Z-10.271
X120.576 Y93.982 Z-10.325
X120.569 Y93.986 Z-10.383
Z-10.4
X120.562 Z-10.44
X120.542 Z-10.476
X120.511 Z-10.503
X120.492 Z-10.514
X120.33 Z-10.539
X120.118 Z-10.593
X120.109 Z-10.591
G3 X119.874 Z-10.284 I0.083 K0.306
G0 Z5.
X120.006 Y25.947
Z-7.648
G1 Z-10.277 F460.
G2 X120.188 Z-10.565 I0.318
G1 X120.197 Z-10.569
X120.408 Z-10.525
X120.428 Z-10.513
X120.462 Z-10.482
X120.484 Z-10.441
X120.491 Z-10.396
Z-10.385
X120.497 Y25.952 Z-10.331
X120.513 Y25.964 Z-10.281
X120.539 Y25.984 Z-10.238
X120.574 Y26.01 Z-10.205
X120.613 Y26.041 Z-10.184
X120.656 Y26.073 Z-10.177
X120.698 Y26.106 Z-10.184
X120.738 Y26.136 Z-10.205
X120.772 Y26.163 Z-10.238
X120.798 Y26.183 Z-10.281
X120.815 Y26.195 Z-10.331
X120.82 Y26.199 Z-10.385
X120.815 Z-10.426
X120.799 Z-10.464
X120.774 Z-10.497
X120.764 Z-10.507
X120.569 Z-10.509
X120.367 Z-10.532
X120.134 Z-10.591
X120.121 Z-10.587
X120.115 Z-10.585
X120.094 Y26.201 Z-10.579
X120.073 Y26.207 Z-10.573
X120.054 Y26.216 Z-10.567
X120.037 Y26.229 Z-10.562
X120.022 Y26.244 Z-10.558
X120.01 Y26.262 Z-10.554
X120.001 Y26.282 Z-10.552
X119.995 Y26.304 Z-10.551
X119.993 Y26.325
X119.995 Y26.347 Z-10.552
X120. Y26.369 Z-10.554
X120.009 Y26.388 Z-10.557
X120.021 Y26.406 Z-10.561
X120.036 Y26.422 Z-10.565
X120.053 Y26.435 Z-10.571
X120.072 Y26.444 Z-10.577
X120.092 Y26.45 Z-10.583
X120.113 Y26.451 Z-10.589
X120.126 Z-10.593
X120.367 Z-10.532
X120.545 Z-10.51
X121.325 Z-10.507
X121.335 Z-10.497
X121.361 Z-10.464
X121.377 Z-10.426
X121.382 Z-10.384
X121.375 Y26.453 Z-10.302
X121.354 Y26.457 Z-10.221
X121.32 Y26.464 Z-10.146
X121.273 Y26.473 Z-10.078
X121.215 Y26.484 Z-10.019
X121.148 Y26.497 Z-9.972
X121.075 Y26.511 Z-9.937
X120.996 Y26.526 Z-9.915
X120.915 Y26.542 Z-9.908
X120.547 Y26.613
X120.466 Y26.629 Z-9.915
X120.387 Y26.644 Z-9.937
X120.313 Y26.658 Z-9.972
X120.246 Y26.671 Z-10.019
X120.189 Y26.682 Z-10.078
X120.142 Y26.691 Z-10.146
X120.108 Y26.698 Z-10.221
X120.086 Y26.702 Z-10.302
X120.079 Y26.703 Z-10.384
Z-10.422
X120.086 Z-10.468
X120.106 Z-10.51
X120.136 Z-10.544
X120.176 Z-10.568
X120.186 Z-10.573
X120.211 Z-10.568
X120.452 Z-10.519
X120.647 Z-10.507
X123.053
X123.06 Z-10.497
Y26.955
X123.053 Z-10.507
X120.647
X120.452 Z-10.519
X120.26 Z-10.555
X120.249 Z-10.548
X120.217 Z-10.523
X120.193 Z-10.49
X120.178 Z-10.452
X120.172 Z-10.412
Z-10.41
X120.174 Y26.963 Z-10.366
X120.18 Y26.985 Z-10.327
X120.189 Y27.018 Z-10.297
X120.2 Y27.06 Z-10.282
X120.211 Y27.103
X120.222 Y27.144 Z-10.297
X120.23 Y27.178 Z-10.327
X120.236 Y27.2 Z-10.366
X120.238 Y27.207 Z-10.41
X120.245 Z-10.458
X120.266 Z-10.501
X120.299 Z-10.536
X120.308 Z-10.542
X120.452 Z-10.519
X120.647 Z-10.507
X123.053
X123.06 Z-10.497
Y27.459
X123.053 Z-10.507
X120.647
X120.452 Z-10.519
X120.324 Z-10.539
X120.317 Z-10.532
X120.301 Y27.461 Z-10.517
X120.285 Y27.467 Z-10.503
X120.27 Y27.476 Z-10.49
X120.257 Y27.489 Z-10.477
X120.246 Y27.504 Z-10.467
X120.236 Y27.522 Z-10.459
X120.229 Y27.542 Z-10.452
X120.225 Y27.564 Z-10.448
X120.224 Y27.585 Z-10.447
X120.225 Y27.607 Z-10.448
X120.229 Y27.628 Z-10.452
X120.236 Y27.648 Z-10.459
X120.246 Y27.666 Z-10.467
X120.257 Y27.682 Z-10.477
X120.27 Y27.695 Z-10.49
X120.285 Y27.704 Z-10.503
X120.301 Y27.709 Z-10.517
X120.317 Y27.711 Z-10.532
X120.324 Z-10.539
X120.452 Z-10.519
X120.647 Z-10.507
X123.053
X123.06 Z-10.497
Y27.963
X123.053 Z-10.507
X120.647
X120.452 Z-10.519
X120.324 Z-10.539
X120.317 Z-10.532
X120.301 Y27.965 Z-10.517
X120.285 Y27.971 Z-10.503
X120.27 Y27.98 Z-10.49
X120.257 Y27.993 Z-10.477
X120.246 Y28.008 Z-10.467
X120.236 Y28.026 Z-10.458
X120.229 Y28.046 Z-10.452
X120.225 Y28.068 Z-10.448
X120.224 Y28.089 Z-10.447
X120.225 Y28.111 Z-10.448
X120.229 Y28.132 Z-10.452
X120.236 Y28.152 Z-10.458
X120.246 Y28.17 Z-10.467
X120.257 Y28.186 Z-10.477
X120.27 Y28.198 Z-10.49
X120.285 Y28.208 Z-10.503
X120.301 Y28.213 Z-10.517
X120.317 Y28.215 Z-10.532
X120.324 Z-10.539
X120.452 Z-10.519
X120.647 Z-10.507
X123.053
X123.06 Z-10.497
Y28.467
X123.053 Z-10.507
X120.647
X120.452 Z-10.519
X120.324 Z-10.539
X120.317 Z-10.532
X120.301 Y28.469 Z-10.517
X120.286 Y28.475 Z-10.502
X120.271 Y28.484 Z-10.489
X120.258 Y28.497 Z-10.476
X120.247 Y28.512 Z-10.465
X120.238 Y28.53 Z-10.457
X120.231 Y28.55 Z-10.45
X120.227 Y28.571 Z-10.447
X120.225 Y28.593 Z-10.445
X120.227 Y28.615 Z-10.447
X120.231 Y28.636 Z-10.451
X120.238 Y28.656 Z-10.457
X120.247 Y28.674 Z-10.466
X120.258 Y28.69 Z-10.477
X120.271 Y28.702 Z-10.489
X120.285 Y28.712 Z-10.503
X120.301 Y28.717 Z-10.517
X120.316 Y28.719 Z-10.532
X120.323 Z-10.539
X120.452 Z-10.519
X120.647 Z-10.507
X123.053
X123.06 Z-10.497
Y28.971
X123.053 Z-10.507
X120.647
X120.452 Z-10.519
X120.307 Z-10.542
X120.302 Z-10.536
X120.28 Z-10.505
X120.266 Z-10.469
X120.261 Z-10.43
Y28.979 Z-10.387
X120.259 Y29.001 Z-10.349
X120.256 Y29.034 Z-10.321
X120.253 Y29.075 Z-10.306
X120.25 Y29.119
X120.247 Y29.16 Z-10.321
X120.244 Y29.194 Z-10.349
X120.243 Y29.216 Z-10.387
X120.242 Y29.223 Z-10.43
Z-10.445
X120.246 Z-10.479
X120.257 Z-10.512
X120.275 Z-10.542
X120.28 Z-10.548
X120.452 Z-10.519
X120.647 Z-10.507
X123.053
X123.06 Z-10.497
Y29.475
X123.053 Z-10.507
X120.647
X120.452 Z-10.519
X120.251 Z-10.554
X120.248 Z-10.549
X120.245 Z-10.544
X120.234 Y29.477 Z-10.525
X120.223 Y29.483 Z-10.507
X120.212 Y29.492 Z-10.491
X120.202 Y29.505 Z-10.475
X120.193 Y29.52 Z-10.463
X120.185 Y29.538 Z-10.453
X120.179 Y29.558 Z-10.445
X120.175 Y29.579 Z-10.441
X120.172 Y29.601
Y29.623 Z-10.443
X120.173 Y29.644 Z-10.449
X120.176 Y29.664 Z-10.458
X120.182 Y29.682 Z-10.469
X120.188 Y29.698 Z-10.483
X120.197 Y29.71 Z-10.5
X120.206 Y29.72 Z-10.517
X120.217 Y29.725 Z-10.536
X120.228 Y29.727 Z-10.555
X120.231 Z-10.56
X120.452 Z-10.519
X120.647 Z-10.507
X123.053
X123.06 Z-10.497
Y29.979
X123.053 Z-10.507
X120.647
X120.452 Z-10.519
X120.222 Z-10.562
X120.219 Z-10.557
X120.209 Y29.981 Z-10.538
X120.198 Y29.987 Z-10.52
X120.189 Y29.996 Z-10.502
X120.18 Y30.009 Z-10.486
X120.173 Y30.024 Z-10.473
X120.167 Y30.042 Z-10.461
X120.163 Y30.062 Z-10.453
X120.16 Y30.083 Z-10.448
Y30.105 Z-10.446
X120.161 Y30.127 Z-10.447
X120.165 Y30.148 Z-10.452
X120.17 Y30.168 Z-10.46
X120.176 Y30.186 Z-10.471
X120.184 Y30.202 Z-10.484
X120.193 Y30.214 Z-10.5
X120.203 Y30.224 Z-10.517
X120.214 Y30.229 Z-10.535
X120.225 Y30.231 Z-10.554
Z-10.555
X120.228 Z-10.56
X120.452 Z-10.519
X120.647 Z-10.507
X123.053
X123.06 Z-10.497
Y30.483
X123.053 Z-10.507
X120.647
X120.452 Z-10.519
X120.247 Z-10.555
X120.244 Z-10.55
X120.225 Z-10.509
X120.219 Z-10.464
Z-10.448
Y30.491 Z-10.405
X120.221 Y30.513 Z-10.367
X120.224 Y30.546 Z-10.339
X120.227 Y30.587 Z-10.324
X120.231 Y30.631
X120.234 Y30.672 Z-10.339
X120.237 Y30.706 Z-10.367
X120.239 Y30.728 Z-10.405
Y30.735 Z-10.448
X120.243 Z-10.482
X120.254 Z-10.514
X120.271 Z-10.543
X120.274 Z-10.548
X120.452 Z-10.519
X120.647 Z-10.507
X123.053
X123.06 Z-10.497
Y30.987
X123.053 Z-10.507
X120.647
X120.452 Z-10.519
X120.303 Z-10.543
X120.298 Z-10.537
X120.276 Z-10.506
X120.263 Z-10.47
X120.259 Z-10.433
Z-10.419
Y30.995 Z-10.376
X120.26 Y31.017 Z-10.338
X120.261 Y31.05 Z-10.31
X120.262 Y31.091 Z-10.295
X120.264 Y31.135
X120.265 Y31.176 Z-10.31
X120.266 Y31.21 Z-10.338
X120.267 Y31.232 Z-10.376
Y31.239 Z-10.419
X120.273 Z-10.461
X120.289 Z-10.5
X120.315 Z-10.533
X120.322 Z-10.539
X120.452 Z-10.519
X120.647 Z-10.507
X123.053
X123.06 Z-10.497
Y31.491
X123.053 Z-10.507
X120.647
X120.452 Z-10.519
X120.324 Z-10.539
X120.317 Z-10.532
X120.301 Y31.493 Z-10.517
X120.285 Y31.499 Z-10.503
X120.27 Y31.508 Z-10.489
X120.257 Y31.521 Z-10.477
X120.245 Y31.536 Z-10.467
X120.236 Y31.554 Z-10.458
X120.229 Y31.574 Z-10.452
X120.225 Y31.595 Z-10.448
X120.224 Y31.617 Z-10.447
X120.225 Y31.639 Z-10.448
X120.229 Y31.66 Z-10.452
X120.236 Y31.68 Z-10.458
X120.245 Y31.698 Z-10.467
X120.257 Y31.714 Z-10.477
X120.27 Y31.726 Z-10.489
X120.285 Y31.736 Z-10.503
X120.301 Y31.741 Z-10.517
X120.317 Y31.743 Z-10.532
X120.324 Z-10.539
X120.452 Z-10.519
X120.647 Z-10.507
X123.053
X123.06 Z-10.497
Y31.995
X123.053 Z-10.507
X120.647
X120.452 Z-10.519
X120.324 Z-10.539
X120.317 Z-10.532
X120.289 Z-10.498
X120.271 Z-10.458
X120.265 Z-10.415
Z-10.41
X120.264 Y32.003 Z-10.367
X120.262 Y32.025 Z-10.329
X120.259 Y32.058 Z-10.301
X120.254 Y32.099 Z-10.285
X120.25 Y32.143
X120.245 Y32.184 Z-10.301
X120.242 Y32.218 Z-10.329
X120.24 Y32.24 Z-10.367
X120.239 Y32.247 Z-10.41
X120.246 Z-10.458
X120.267 Z-10.501
X120.3 Z-10.535
X120.308 Z-10.542
X120.452 Z-10.519
X120.647 Z-10.507
X123.053
X123.06 Z-10.497
Y32.499
X123.053 Z-10.507
X120.647
X120.452 Z-10.519
X120.261 Z-10.554
X120.25 Z-10.548
X120.219 Z-10.522
X120.194 Z-10.49
X120.179 Z-10.452
X120.174 Z-10.412
X120.172 Y32.505 Z-10.37
X120.165 Y32.523 Z-10.333
X120.155 Y32.551 Z-10.303
X120.142 Y32.586 Z-10.284
X120.127 Y32.625 Z-10.278
X120.113 Y32.664 Z-10.284
X120.1 Y32.699 Z-10.303
X120.09 Y32.727 Z-10.333
X120.083 Y32.745 Z-10.37
X120.081 Y32.751 Z-10.412
Z-10.422
X120.088 Z-10.468
X120.107 Z-10.509
X120.138 Z-10.544
X120.177 Z-10.568
X120.187 Z-10.572
X120.212 Z-10.568
X120.452 Z-10.519
X120.647 Z-10.507
X123.053
X123.06 Z-10.497
Y33.003
X123.053 Z-10.507
X120.647
X120.452 Z-10.519
X120.282 Z-10.55
X120.127 Z-10.593
X120.115 Z-10.589
X120.094 Y33.005 Z-10.583
X120.073 Y33.011 Z-10.577
X120.054 Y33.02 Z-10.571
X120.037 Y33.033 Z-10.565
X120.022 Y33.048 Z-10.561
X120.01 Y33.066 Z-10.557
X120.002 Y33.086 Z-10.554
X119.996 Y33.107 Z-10.552
X119.994 Y33.129 Z-10.551
X119.996 Y33.151
X120.002 Y33.172 Z-10.553
X120.011 Y33.192 Z-10.555
X120.023 Y33.21 Z-10.559
X120.038 Y33.226 Z-10.563
X120.055 Y33.238 Z-10.568
X120.074 Y33.248 Z-10.573
X120.095 Y33.253 Z-10.579
X120.116 Y33.255 Z-10.586
X120.12 Z-10.587
X120.133 Z-10.591
X120.282 Z-10.55
X120.452 Z-10.519
X120.647 Z-10.507
X123.053
X123.06 Z-10.497
X122.882 Y33.413
X122.275
X122.073 Y33.417 Z-10.498
X121.873 Y33.434
X121.675 Y33.464
X121.48 Y33.507
X121.471 Z-10.507
X120.571 Z-10.509
X120.367 Z-10.532
X120.199 Z-10.571
X120.186 Z-10.565
X120.148 Z-10.54
X120.119 Z-10.506
X120.1 Z-10.465
X120.094 Z-10.421
Z-10.412
X120.096 Y33.513 Z-10.37
X120.102 Y33.531 Z-10.333
X120.112 Y33.559 Z-10.303
X120.125 Y33.594 Z-10.284
X120.139 Y33.633 Z-10.278
X120.153 Y33.672 Z-10.284
X120.166 Y33.707 Z-10.303
X120.176 Y33.735 Z-10.333
X120.183 Y33.753 Z-10.37
X120.185 Y33.759 Z-10.412
X120.19 Z-10.451
X120.204 Z-10.488
X120.227 Z-10.52
X120.258 Z-10.545
X120.264 Z-10.55
X120.367 Z-10.532
X120.546 Z-10.51
X120.834 Z-10.507
X120.844 Z-10.497
X120.87 Z-10.464
X120.886 Z-10.425
X120.892 Z-10.384
Z-10.374
X120.886 Y33.764 Z-10.319
X120.869 Y33.776 Z-10.268
X120.842 Y33.796 Z-10.224
X120.806 Y33.822 Z-10.19
X120.765 Y33.853 Z-10.169
X120.721 Y33.885 Z-10.161
X120.677 Y33.918 Z-10.169
X120.636 Y33.948 Z-10.19
X120.6 Y33.974 Z-10.224
X120.573 Y33.994 Z-10.268
X120.556 Y34.007 Z-10.319
X120.55 Y34.011 Z-10.374
X120.546 Z-10.412
X120.531 Z-10.449
X120.509 Z-10.481
X120.479 Z-10.506
X120.461 Z-10.518
X120.313 Z-10.542
X120.304 Z-10.535
G3 X120.185 Z-10.287 I0.198 K0.248
G0 Z5.
X119.407 Y8.56
Z-1.142
G1 Z-10.91 F460.
X119.415 Z-10.981
X119.438 Z-11.048
X119.442 Z-11.055
X125.548 Z-4.949
X125.555 Z-4.928
Y8.812
X125.548 Z-4.949
X119.724 Z-10.772
X119.719 Z-10.765
X119.693 Z-10.724
X119.681 Y8.813 Z-10.703
X119.671 Y8.817 Z-10.681
X119.663 Y8.823 Z-10.659
X119.658 Y8.832 Z-10.637
X119.656 Y8.843 Z-10.615
Y8.855 Z-10.594
X119.659 Y8.87 Z-10.575
X119.665 Y8.885 Z-10.558
X119.673 Y8.902 Z-10.542
X119.684 Y8.92 Z-10.529
X119.697 Y8.938 Z-10.519
X119.711 Y8.956 Z-10.512
X119.727 Y8.973 Z-10.507
X119.745 Y8.99 Z-10.506
X119.763 Y9.006 Z-10.508
X119.782 Y9.02 Z-10.513
X119.801 Y9.033 Z-10.522
X119.82 Y9.044 Z-10.533
X119.838 Y9.052 Z-10.546
X119.855 Y9.059 Z-10.562
X119.871 Y9.062 Z-10.58
X119.885 Y9.064 Z-10.6
X119.89 Z-10.607
X125.548 Z-4.949
X125.555 Z-4.928
Y9.316
X125.548 Z-4.949
X119.997 Z-10.499
X119.992 Z-10.492
X119.983 Z-10.48
X119.971 Y9.317 Z-10.462
X119.961 Y9.322 Z-10.445
X119.952 Y9.33 Z-10.427
X119.944 Y9.34 Z-10.41
X119.939 Y9.353 Z-10.395
X119.935 Y9.368 Z-10.38
X119.934 Y9.385 Z-10.368
Y9.403 Z-10.357
X119.937 Y9.422 Z-10.349
X119.942 Y9.442 Z-10.343
X119.949 Y9.461 Z-10.34
X119.958 Y9.481
X119.968 Y9.499 Z-10.342
X119.98 Y9.516 Z-10.347
X119.993 Y9.531 Z-10.355
X120.006 Y9.544 Z-10.365
X120.02 Y9.554 Z-10.377
X120.034 Y9.562 Z-10.392
X120.047 Y9.566 Z-10.407
X120.06 Y9.568 Z-10.424
X120.065 Z-10.431
X125.548 Z-4.949
X125.555 Z-4.928
Y9.82
X125.548 Z-4.949
X120.1 Z-10.394
X120.096 Z-10.388
X120.082 Y9.822 Z-10.371
X120.07 Y9.827 Z-10.354
X120.058 Y9.837 Z-10.337
X120.048 Y9.849 Z-10.323
X120.039 Y9.865 Z-10.31
X120.032 Y9.883 Z-10.299
X120.027 Y9.903 Z-10.291
X120.025 Y9.924 Z-10.286
X120.024 Y9.946 Z-10.284
X120.026 Y9.968 Z-10.285
X120.03 Y9.989 Z-10.289
X120.037 Y10.009 Z-10.296
X120.045 Y10.027 Z-10.306
X120.055 Y10.042 Z-10.318
X120.066 Y10.055 Z-10.332
X120.078 Y10.064 Z-10.347
X120.091 Y10.07 Z-10.364
X120.104 Y10.072 Z-10.382
X120.107 Z-10.386
X125.548 Z-4.949
X125.555 Z-4.93
G0 Z5.
X16.934 Y55.935
Z-7.635
G1 Z-10.409 F460.
X16.927 Z-10.458
X16.906 Z-10.504
X16.873 Z-10.542
X16.863 Z-10.55
X16.741 Z-10.526
X16.73 Z-10.515
X16.719 Z-10.503
X16.559 Z-10.307
X16.542 Y55.936 Z-10.288
X16.523 Y55.94 Z-10.271
X16.503 Y55.946 Z-10.256
X16.482 Y55.955 Z-10.244
X16.46 Y55.966 Z-10.236
X16.439 Y55.978 Z-10.23
X16.418 Y55.993 Z-10.227
X16.398 Y56.008 Z-10.228
X16.379 Y56.025 Z-10.232
X16.362 Y56.043 Z-10.239
X16.346 Y56.061 Z-10.249
X16.333 Y56.079 Z-10.262
X16.323 Y56.096 Z-10.277
X16.316 Y56.113 Z-10.295
X16.311 Y56.129 Z-10.314
X16.309 Y56.143 Z-10.335
X16.311 Y56.156 Z-10.358
X16.315 Y56.167 Z-10.38
X16.323 Y56.175 Z-10.403
X16.333 Y56.182 Z-10.426
X16.346 Y56.186 Z-10.448
X16.361 Y56.187 Z-10.468
X16.372 Z-10.48
X16.389 Z-10.497
X16.398 Z-10.507
X16.471
X16.708 Z-10.521
X16.892 Z-10.557
X16.899 Z-10.549
X16.919 Z-10.518
X16.932 Z-10.484
X16.936 Z-10.447
Y56.194 Z-10.404
X16.937 Y56.216 Z-10.366
X16.938 Y56.25 Z-10.338
X16.94 Y56.291 Z-10.323
X16.942 Y56.335
X16.943 Y56.376 Z-10.338
X16.945 Y56.409 Z-10.366
X16.946 Y56.431 Z-10.404
Y56.439 Z-10.447
Z-10.463
X16.939 Z-10.511
X16.917 Z-10.555
X16.912 Z-10.563
X16.728 Z-10.524
X16.493 Z-10.507
X15.856 Z-10.506
X15.847 Z-10.498
X15.822 Z-10.465
X15.806 Z-10.426
X15.8 Z-10.385
X15.807 Y56.44 Z-10.303
X15.828 Y56.445 Z-10.222
X15.863 Y56.452 Z-10.147
X15.909 Y56.462 Z-10.079
X15.967 Y56.475 Z-10.021
X16.033 Y56.489 Z-9.973
X16.107 Y56.505 Z-9.938
X16.185 Y56.522 Z-9.916
X16.266 Y56.54 Z-9.909
X16.495 Y56.59
X16.576 Y56.607 Z-9.916
X16.655 Y56.624 Z-9.938
X16.728 Y56.64 Z-9.973
X16.795 Y56.655 Z-10.021
X16.852 Y56.667 Z-10.079
X16.898 Y56.677 Z-10.147
X16.933 Y56.685 Z-10.222
X16.954 Y56.689 Z-10.303
X16.961 Y56.691 Z-10.385
Z-10.463
X16.956 Z-10.497
X16.944 Z-10.529
X16.923 Z-10.557
X16.916 Z-10.564
X16.734 Z-10.525
X16.545 Z-10.508
X14.082 Z-10.507
Z-10.497
Y56.817
Y56.943
Z-10.507
X16.49
X16.725 Z-10.524
X16.909 Z-10.562
X16.915 Z-10.554
X16.933 Z-10.524
X16.945 Z-10.491
X16.948 Z-10.456
Z-10.448
Y56.95 Z-10.405
X16.946 Y56.972 Z-10.367
X16.944 Y57.006 Z-10.339
X16.941 Y57.047 Z-10.324
X16.937 Y57.091
X16.934 Y57.132 Z-10.339
X16.932 Y57.165 Z-10.367
X16.93 Y57.187 Z-10.405
Y57.195 Z-10.448
X16.925 Z-10.484
X16.913 Z-10.519
X16.894 Z-10.549
X16.888 Z-10.556
X16.704 Z-10.521
X16.473 Z-10.507
X14.082
Z-10.497
Y57.321
Y57.447
Z-10.507
X16.484
X16.674 Z-10.517
X16.859 Z-10.549
X16.867 Z-10.541
X16.891 Z-10.509
X16.906 Z-10.471
X16.911 Z-10.431
Z-10.416
Y57.454 Z-10.373
X16.909 Y57.476 Z-10.335
X16.907 Y57.51 Z-10.307
X16.904 Y57.551 Z-10.292
X16.901 Y57.595
X16.899 Y57.636 Z-10.307
X16.897 Y57.669 Z-10.335
X16.895 Y57.691 Z-10.373
Y57.699 Z-10.416
X16.888 Z-10.461
X16.87 Z-10.501
X16.841 Z-10.535
X16.832 Z-10.543
X16.64 Z-10.513
X16.3 Z-10.507
X14.082
Z-10.497
Y57.825
Y57.951
Z-10.507
X16.3
X16.63 Z-10.513
X16.817 Z-10.54
X16.825 Z-10.533
X16.856 Z-10.498
X16.875 Z-10.457
X16.882 Z-10.411
Y57.958 Z-10.368
Y57.98 Z-10.33
X16.881 Y58.014 Z-10.302
Y58.055 Z-10.287
Y58.099
Y58.14 Z-10.302
Y58.173 Z-10.33
X16.88 Y58.195 Z-10.368
Y58.203 Z-10.411
Z-10.443
X16.874 Z-10.479
X16.854 Z-10.51
X16.825 Z-10.532
X16.812 Z-10.539
X16.627 Z-10.512
X16.3 Z-10.507
X14.082
Z-10.497
Y58.329
Y58.455
Z-10.507
X16.3
X16.627 Z-10.512
X16.811 Z-10.539
X16.825 Z-10.532
X16.854 Z-10.511
X16.873 Z-10.481
X16.879 Z-10.445
Y58.462 Z-10.402
Y58.484 Z-10.364
Y58.518 Z-10.336
Y58.559 Z-10.321
Y58.603
Y58.644 Z-10.336
Y58.677 Z-10.364
Y58.699 Z-10.402
Y58.707 Z-10.445
Z-10.447
X16.872 Z-10.481
X16.853 Z-10.511
X16.825 Z-10.532
X16.811 Z-10.539
X16.627 Z-10.512
X16.3 Z-10.507
X14.082
Z-10.497
Y58.833
Y58.959
Z-10.507
X16.3
X16.629 Z-10.513
X16.817 Z-10.54
X16.825 Z-10.532
X16.853 Z-10.498
X16.871 Z-10.458
X16.877 Z-10.415
Y58.966 Z-10.372
X16.878 Y58.988 Z-10.334
X16.879 Y59.022 Z-10.305
X16.881 Y59.063 Z-10.291
X16.882 Y59.107
X16.884 Y59.148 Z-10.305
X16.885 Y59.181 Z-10.334
X16.886 Y59.203 Z-10.372
Y59.211 Z-10.415
Z-10.451
X16.879 Z-10.485
X16.86 Z-10.514
X16.831 Z-10.533
X16.816 Z-10.54
X16.635 Z-10.513
X16.3 Z-10.507
X14.082
Z-10.497
Y59.337
Y59.463
Z-10.507
X16.481
X16.671 Z-10.517
X16.851 Z-10.547
X16.869 Z-10.541
X16.902 Z-10.522
X16.924 Z-10.49
X16.932 Z-10.453
Z-10.411
X16.934 Y59.469 Z-10.369
X16.942 Y59.487 Z-10.331
X16.953 Y59.515 Z-10.301
X16.968 Y59.55 Z-10.282
X16.984 Y59.589 Z-10.275
X17. Y59.628 Z-10.282
X17.014 Y59.663 Z-10.301
X17.026 Y59.691 Z-10.331
X17.033 Y59.709 Z-10.369
X17.036 Y59.715 Z-10.411
X17.029 Z-10.458
X17.008 Z-10.501
X16.976 Z-10.535
X16.935 Z-10.559
X16.92 Z-10.565
X16.752 Z-10.528
X16.563 Z-10.508
X14.082 Z-10.507
Z-10.497
Y59.841
Y59.967
Z-10.507
X16.202
X16.624 Z-10.512
X16.812 Z-10.539
X16.991 Z-10.586
X17.011 Z-10.583
X17.053 Z-10.569
X17.09 Z-10.545
X17.119 Z-10.511
X17.137 Z-10.47
X17.143 Z-10.426
X17.144 Y59.974 Z-10.383
X17.146 Y59.996 Z-10.345
X17.15 Y60.03 Z-10.317
X17.154 Y60.071 Z-10.302
X17.158 Y60.115
X17.162 Y60.156 Z-10.317
X17.166 Y60.189 Z-10.345
X17.168 Y60.211 Z-10.383
X17.169 Y60.219 Z-10.426
Z-10.437
X17.163 Z-10.48
X17.145 Z-10.52
X17.117 Z-10.554
X17.081 Z-10.579
X17.039 Z-10.593
X17.02 Z-10.596
X16.842 Z-10.545
X16.656 Z-10.515
X16.465 Z-10.507
X14.082
Z-10.497
Y60.345
Y60.471
Z-10.507
X16.606 Z-10.511
X16.793 Z-10.535
X16.97 Z-10.58
X16.992 Z-10.576
X17.036 Z-10.564
X17.074 Z-10.539
X17.104 Z-10.505
X17.122 Z-10.464
X17.129 Z-10.419
Z-10.403
X17.126 Y60.477 Z-10.361
X17.119 Y60.495 Z-10.323
X17.107 Y60.523 Z-10.293
X17.092 Y60.558 Z-10.273
X17.076 Y60.597 Z-10.267
X17.059 Y60.636 Z-10.273
X17.044 Y60.671 Z-10.293
X17.032 Y60.699 Z-10.323
X17.025 Y60.717 Z-10.361
X17.022 Y60.723 Z-10.403
X17.015 Z-10.452
X16.992 Z-10.496
X16.958 Z-10.531
X16.914 Z-10.554
X16.899 Z-10.559
X16.716 Z-10.522
X16.485 Z-10.507
X14.082
Z-10.497
Y60.849
Y60.975
Z-10.507
X16.466
X16.656 Z-10.515
X16.84 Z-10.545
X16.855 Z-10.539
X16.894 Z-10.515
X16.924 Z-10.481
X16.943 Z-10.44
X16.95 Z-10.395
X16.948 Y60.982 Z-10.351
X16.943 Y61.004 Z-10.312
X16.935 Y61.038 Z-10.283
X16.925 Y61.079 Z-10.268
X16.915 Y61.123
X16.905 Y61.164 Z-10.283
X16.897 Y61.197 Z-10.312
X16.892 Y61.219 Z-10.351
X16.89 Y61.227 Z-10.395
Z-10.405
X16.883 Z-10.453
X16.861 Z-10.497
X16.827 Z-10.532
X16.817 Z-10.54
X16.674 Z-10.517
X16.484 Z-10.507
X14.082
Z-10.497
Y61.353
Y61.479
Z-10.507
X16.3
X16.629 Z-10.513
X16.813 Z-10.539
X16.825 Z-10.532
X16.858 Z-10.507
X16.884 Z-10.474
X16.9 Z-10.436
X16.905 Z-10.394
X16.904 Y61.486 Z-10.351
X16.902 Y61.508 Z-10.313
X16.898 Y61.542 Z-10.284
X16.893 Y61.583 Z-10.269
X16.889 Y61.627
X16.884 Y61.668 Z-10.284
X16.88 Y61.701 Z-10.313
X16.878 Y61.723 Z-10.351
X16.877 Y61.731 Z-10.394
Z-10.415
X16.871 Z-10.458
X16.853 Z-10.498
X16.825 Z-10.532
X16.817 Z-10.54
X16.629 Z-10.513
X16.3 Z-10.507
X14.082
Z-10.497
Y61.857
Y61.983
Z-10.507
X16.3
X16.629 Z-10.513
X16.812 Z-10.539
X16.825 Z-10.532
X16.855 Z-10.509
X16.875 Z-10.477
X16.882 Z-10.44
Z-10.435
Y61.99 Z-10.392
X16.883 Y62.012 Z-10.354
X16.884 Y62.046 Z-10.326
X16.886 Y62.087 Z-10.311
X16.887 Y62.131
X16.889 Y62.172 Z-10.326
X16.89 Y62.205 Z-10.354
X16.891 Y62.227 Z-10.392
Y62.235 Z-10.435
X16.885 Z-10.474
X16.865 Z-10.508
X16.836 Z-10.534
X16.823 Z-10.541
X16.641 Z-10.514
X16.3 Z-10.507
X14.082
Z-10.497
Y62.361
Y62.487
Z-10.507
X16.477
X16.667 Z-10.516
X16.852 Z-10.548
X16.86 Z-10.54
X16.882 Z-10.508
X16.896 Z-10.471
X16.901 Z-10.432
X16.902 Y62.494 Z-10.389
X16.904 Y62.516 Z-10.351
X16.908 Y62.55 Z-10.323
X16.912 Y62.591 Z-10.308
X16.917 Y62.635
X16.921 Y62.676 Z-10.323
X16.924 Y62.709 Z-10.351
X16.927 Y62.731 Z-10.389
Y62.739 Z-10.432
Z-10.441
X16.923 Z-10.479
X16.909 Z-10.515
X16.887 Z-10.546
X16.88 Z-10.554
X16.696 Z-10.52
X16.472 Z-10.507
X14.082
Z-10.497
Y62.865
Y62.991
Z-10.507
X16.485
X16.72 Z-10.523
X16.905 Z-10.561
X16.91 Z-10.553
X16.918 Z-10.539
X16.923 Z-10.53
X16.933 Y62.993 Z-10.511
X16.943 Y62.998 Z-10.492
X16.953 Y63.008 Z-10.475
X16.962 Y63.02 Z-10.459
X16.97 Y63.036 Z-10.446
X16.977 Y63.054 Z-10.435
X16.982 Y63.074 Z-10.428
X16.986 Y63.095 Z-10.423
X16.987 Y63.117 Z-10.422
X16.988 Y63.139 Z-10.424
X16.986 Y63.16 Z-10.43
X16.983 Y63.18 Z-10.438
X16.977 Y63.198 Z-10.45
X16.971 Y63.213 Z-10.464
X16.963 Y63.226 Z-10.48
X16.954 Y63.235 Z-10.498
X16.945 Y63.241 Z-10.517
X16.934 Y63.243 Z-10.537
X16.922 Z-10.556
X16.917 Z-10.564
X16.733 Z-10.525
X16.544 Z-10.508
X14.082 Z-10.507
Z-10.497
X14.251 Y63.413
X14.839
X15.035 Y63.415
X15.229 Y63.43
X15.421 Y63.456
X15.611 Y63.495
X15.62 Z-10.507
X16.494
X16.731 Z-10.525
X16.914 Z-10.563
X16.92 Z-10.556
X16.929 Z-10.543
X16.931 Z-10.538
X16.942 Y63.497 Z-10.52
X16.953 Y63.502 Z-10.501
X16.963 Y63.512 Z-10.484
X16.972 Y63.524 Z-10.468
X16.979 Y63.54 Z-10.454
X16.984 Y63.558 Z-10.443
X16.988 Y63.578 Z-10.434
X16.99 Y63.599 Z-10.429
Y63.621 Z-10.426
X16.988 Y63.643 Z-10.427
X16.984 Y63.664 Z-10.432
X16.978 Y63.684 Z-10.439
X16.971 Y63.702 Z-10.449
X16.962 Y63.717 Z-10.462
X16.952 Y63.73 Z-10.477
X16.942 Y63.739 Z-10.494
X16.93 Y63.745 Z-10.512
X16.919 Y63.747 Z-10.531
X16.904 Z-10.552
X16.898 Z-10.559
X16.715 Z-10.522
X16.485 Z-10.507
X16.285
X16.275 Z-10.497
X16.267 Z-10.489
X16.257 Z-10.477
X16.241 Y63.748 Z-10.455
X16.227 Y63.752 Z-10.432
X16.217 Y63.758 Z-10.408
X16.209 Y63.767 Z-10.383
X16.205 Y63.777 Z-10.359
X16.204 Y63.79 Z-10.335
X16.206 Y63.805 Z-10.312
X16.212 Y63.82 Z-10.291
X16.22 Y63.837 Z-10.271
X16.232 Y63.855 Z-10.254
X16.246 Y63.873 Z-10.24
X16.263 Y63.891 Z-10.229
X16.282 Y63.908 Z-10.221
X16.303 Y63.925 Z-10.216
X16.325 Y63.941 Z-10.215
X16.348 Y63.955 Z-10.217
X16.371 Y63.968 Z-10.223
X16.394 Y63.979 Z-10.232
X16.417 Y63.987 Z-10.244
X16.438 Y63.994 Z-10.259
X16.458 Y63.997 Z-10.277
X16.477 Y63.999 Z-10.297
X16.637 Z-10.493
X16.648 Z-10.505
X16.658 Z-10.515
X16.873 Z-10.553
X16.88 Z-10.544
X16.91 Z-10.499
X16.932 Z-10.45
X16.946 Z-10.398
X16.95 Z-10.345
G0 Z5.
X17.099 Y109.862
Z-7.625
G1 Z-10.193 F460.
X17.092 Z-10.261
X17.07 Z-10.326
X17.034 Z-10.385
X17.033 Z-10.387
X11.588 Z-4.942
Z-4.936
X11.587 Y109.988 Z-4.932
X11.588 Y110.114 Z-4.928
Z-4.942
X17.037 Z-10.391
X17.043 Z-10.383
X17.056 Y110.116 Z-10.366
X17.07 Y110.121 Z-10.349
X17.083 Y110.131 Z-10.334
X17.095 Y110.143 Z-10.32
X17.107 Y110.159 Z-10.309
X17.117 Y110.177 Z-10.301
X17.125 Y110.197 Z-10.295
X17.131 Y110.218 Z-10.292
X17.135 Y110.24 Z-10.293
X17.136 Y110.262 Z-10.296
X17.135 Y110.283 Z-10.303
X17.132 Y110.303 Z-10.312
X17.127 Y110.321 Z-10.324
X17.119 Y110.336 Z-10.338
X17.11 Y110.349 Z-10.354
X17.099 Y110.358 Z-10.371
X17.087 Y110.364 Z-10.389
X17.073 Y110.366 Z-10.406
X17.07 Z-10.411
X17.064 Z-10.419
X11.588 Z-4.942
Z-4.928
X11.587 Y110.492
X11.588 Y110.618
Z-4.942
X17.123 Z-10.478
X17.129 Z-10.47
X17.142 Y110.619 Z-10.453
X17.157 Y110.624 Z-10.436
X17.172 Y110.631 Z-10.422
X17.188 Y110.642 Z-10.41
X17.203 Y110.655 Z-10.4
X17.218 Y110.67 Z-10.393
X17.232 Y110.686 Z-10.388
X17.245 Y110.705 Z-10.387
X17.256 Y110.724 Z-10.389
X17.266 Y110.744 Z-10.393
X17.274 Y110.763 Z-10.401
X17.279 Y110.783 Z-10.411
X17.282 Y110.801 Z-10.424
Y110.818 Z-10.438
X17.28 Y110.833 Z-10.455
X17.276 Y110.846 Z-10.473
X17.269 Y110.856 Z-10.491
X17.261 Y110.863 Z-10.511
X17.25 Y110.868 Z-10.53
X17.238 Y110.87 Z-10.548
X17.225 Z-10.566
X17.219 Z-10.574
X11.588 Z-4.942
Z-4.928
X11.587 Y110.996
X11.588 Y111.122
Z-4.942
X17.367 Z-10.721
X17.372 Z-10.713
X17.392 Z-10.671
X17.399 Z-10.625
X17.404 Y111.127 Z-10.576
X17.417 Y111.142 Z-10.532
X17.439 Y111.165 Z-10.496
X17.466 Y111.195 Z-10.469
X17.498 Y111.23 Z-10.456
X17.531 Y111.266
X17.562 Y111.3 Z-10.469
X17.59 Y111.33 Z-10.496
X17.611 Y111.354 Z-10.532
X17.625 Y111.369 Z-10.576
X17.63 Y111.374 Z-10.625
Z-10.875
X17.624 Z-10.915
X17.609 Z-10.952
X17.605 Z-10.96
X11.588 Z-4.942
Z-4.928
X11.587 Y111.5
X11.588 Y111.626
Z-4.942
X18.167 Z-11.521
X53.972
X60.548 Z-4.949
X60.555 Z-4.928
Y111.752
Y111.878
X60.548 Z-4.949
X53.972 Z-11.521
X18.167
X11.588 Z-4.942
Z-4.928
X11.587 Y112.004
X11.588 Y112.13
Z-4.942
X18.167 Z-11.521
X53.972
X60.548 Z-4.949
X60.555 Z-4.928
Y112.256
Y112.382
X60.548 Z-4.949
X53.972 Z-11.521
X18.167
X11.588 Z-4.942
Z-4.928
X11.587 Y112.508
X11.588 Y112.634
Z-4.942
X18.167 Z-11.521
X53.972
X60.548 Z-4.949
X60.555 Z-4.928
Y112.76
Y112.886
X60.548 Z-4.949
X53.975 Z-11.521
X18.167
X11.588 Z-4.942
Z-4.928
Y113.138
Z-4.942
X18.167 Z-11.521
X53.975
X60.548 Z-4.949
X60.555 Z-4.928
Y113.264
Y113.39
X60.548 Z-4.949
X53.975 Z-11.521
X18.167
X11.588 Z-4.942
Z-4.928
G0 Z15.
G17
G91
G28 Z0.
G90
M5
G91
G28 X0. Y0.
G90
M30
%
